; G-code generated from SVG
G21 ; Set units to mm
G90 ; Absolute positioning
G0 X4905.00 Y9983.00
G1 X3560.00 Y9630.00
G1 X2655.00 Y8969.00
G1 X2011.00 Y7934.00
G1 X1936.00 Y7863.00
G1 X1601.00 Y7550.00
G1 X1400.00 Y6734.00
G1 X1456.00 Y6308.00
G1 X1982.00 Y5726.00
G1 X2033.00 Y5713.00
G1 X2070.00 Y5629.00
G1 X2133.00 Y5502.00
G1 X2161.00 Y5459.00
G1 X2116.00 Y5402.00
G1 X2019.00 Y5203.00
G1 X2000.00 Y4847.00
G1 X2000.00 Y4568.00
G1 X1951.00 Y4506.00
G1 X1478.00 Y3316.00
G1 X1569.00 Y2696.00
G1 X1919.00 Y2272.00
G1 X2499.00 Y2175.00
G1 X2585.00 Y2210.00
G1 X2645.00 Y2150.00
G1 X2927.00 Y1739.00
G1 X2980.00 Y1683.00
G1 X2920.00 Y1637.00
G1 X2742.00 Y1353.00
G1 X2730.00 Y1305.00
G1 X2474.00 Y1270.00
G1 X1916.00 Y1174.00
G1 X1724.00 Y1057.00
G1 X2032.00 Y1009.00
G1 X2282.00 Y1050.00
G1 X2480.00 Y1050.00
G1 X2575.00 Y966.00
G1 X2690.00 Y871.00
G1 X4300.00 Y659.00
G1 X5890.00 Y659.00
G1 X7504.00 Y861.00
G1 X7626.00 Y940.00
G1 X7737.00 Y1014.00
G1 X8180.00 Y1014.00
G1 X8430.00 Y1011.00
G1 X8500.00 Y1052.00
G1 X8489.00 Y1105.00
G1 X7765.00 Y1271.00
G1 X7503.00 Y1305.00
G1 X7490.00 Y1361.00
G1 X7294.00 Y1652.00
G1 X7260.00 Y1680.00
G1 X7336.00 Y1770.00
G1 X7576.00 Y2126.00
G1 X7622.00 Y2219.00
G1 X7659.00 Y2201.00
G1 X8197.00 Y2213.00
G1 X8720.00 Y2874.00
G1 X8684.00 Y3705.00
G1 X8290.00 Y4489.00
G1 X8230.00 Y4567.00
G1 X8230.00 Y4846.00
G1 X8113.00 Y5402.00
G1 X8069.00 Y5460.00
G1 X8101.00 Y5507.00
G1 X8167.00 Y5629.00
G1 X8247.00 Y5721.00
G1 X8713.00 Y6155.00
G1 X8834.00 Y6750.00
G1 X8624.00 Y7558.00
G1 X8267.00 Y7876.00
G1 X8230.00 Y7904.00
G1 X7986.00 Y8440.00
G1 X6653.00 Y9639.00
G1 X4905.00 Y9983.00
G1 X6785.00 Y9295.00
G1 X7570.00 Y8623.00
G1 X8080.00 Y7586.00
G1 X8071.00 Y7530.00
G1 X7696.00 Y8170.00
G1 X5580.00 Y9247.00
G1 X4660.00 Y9247.00
G1 X3260.00 Y8794.00
G1 X2171.00 Y7545.00
G1 X2221.00 Y7845.00
G1 X3226.00 Y9154.00
G1 X4849.00 Y9750.00
G1 X5530.00 Y9735.00
G1 X6618.00 Y8754.00
G1 X7509.00 Y8117.00
G1 X7996.00 Y7050.00
G1 X7985.00 Y6426.00
G1 X7646.00 Y5662.00
G1 X5935.00 Y4805.00
G1 X5130.00 Y4746.00
G1 X3667.00 Y4951.00
G1 X3045.00 Y5238.00
G1 X2352.00 Y6075.00
G1 X2223.00 Y6711.00
G1 X2374.00 Y7544.00
G1 X3466.00 Y8683.00
G1 X4875.00 Y9059.00
G1 X5050.00 Y9068.00
G1 X5293.00 Y9060.00
G1 X8585.00 Y6808.00
G1 X8345.00 Y6037.00
G1 X8277.00 Y5980.00
G1 X8274.00 Y6013.00
G1 X8289.00 Y7508.00
G1 X8281.00 Y7620.00
G1 X8349.00 Y7554.00
G1 X1923.00 Y6985.00
G1 X1955.00 Y6060.00
G1 X1964.00 Y5981.00
G1 X1826.00 Y6111.00
G1 X1650.00 Y6873.00
G1 X1783.00 Y7404.00
G1 X1953.00 Y7610.00
G1 X1943.00 Y7525.00
G1 X3515.00 Y4771.00
G1 X4485.00 Y4553.00
G1 X4630.00 Y4534.00
G1 X4525.00 Y4526.00
G1 X3939.00 Y4579.00
G1 X3067.00 Y4794.00
G1 X2625.00 Y5179.00
G1 X2480.00 Y5415.00
G1 X2553.00 Y5354.00
G1 X2700.00 Y5219.00
G1 X7160.00 Y4790.00
G1 X5885.00 Y4530.00
G1 X5521.00 Y4524.00
G1 X5595.00 Y4533.00
G1 X5955.00 Y4585.00
G1 X6115.00 Y4616.00
G1 X7280.00 Y5037.00
G1 X7715.00 Y5387.00
G1 X7704.00 Y5320.00
G1 X2453.00 Y5025.00
G1 X2398.00 Y4940.00
G1 X2253.00 Y4809.00
G1 X2180.00 Y4740.00
G1 X2185.00 Y4872.00
G1 X2195.00 Y5057.00
G1 X2278.00 Y5260.00
G1 X2304.00 Y5228.00
G1 X8046.00 Y4898.00
G1 X8053.00 Y4735.00
G1 X7979.00 Y4806.00
G1 X7833.00 Y4940.00
G1 X7760.00 Y5007.00
G1 X7808.00 Y5064.00
G1 X7900.00 Y5187.00
G1 X7955.00 Y5257.00
G1 X7987.00 Y5214.00
G1 X2635.00 Y4659.00
G1 X2633.00 Y4550.00
G1 X2579.00 Y4510.00
G1 X2362.00 Y4285.00
G1 X2511.00 Y4364.00
G1 X2635.00 Y4470.00
G1 X2655.00 Y4450.00
G1 X2696.00 Y4381.00
G1 X2730.00 Y4324.00
G1 X2697.00 Y4262.00
G1 X2490.00 Y3710.00
G1 X2432.00 Y3647.00
G1 X2000.00 Y4133.00
G1 X2214.00 Y4446.00
G1 X2560.00 Y4761.00
G1 X2645.00 Y4789.00
G1 X8210.00 Y4176.00
G1 X8234.00 Y4130.00
G1 X8208.00 Y4077.00
G1 X7974.00 Y3790.00
G1 X7767.00 Y3621.00
G1 X7737.00 Y3733.00
G1 X7520.00 Y4290.00
G1 X7499.00 Y4325.00
G1 X7545.00 Y4403.00
G1 X7592.00 Y4480.00
G1 X7642.00 Y4438.00
G1 X7766.00 Y4323.00
G1 X7874.00 Y4277.00
G1 X7645.00 Y4517.00
G1 X7596.00 Y4556.00
G1 X7598.00 Y4645.00
G1 X7591.00 Y4773.00
G1 X7648.00 Y4778.00
G1 X3852.00 Y4361.00
G1 X5125.00 Y4257.00
G1 X5985.00 Y4301.00
G1 X7353.00 Y4642.00
G1 X7400.00 Y4669.00
G1 X7400.00 Y4622.00
G1 X7337.00 Y4440.00
G1 X6250.00 Y4106.00
G1 X5110.00 Y4030.00
G1 X4020.00 Y4106.00
G1 X3192.00 Y4304.00
G1 X2854.00 Y4495.00
G1 X2834.00 Y4670.00
G1 X2878.00 Y4645.00
G1 X4823.00 Y3804.00
G1 X4920.00 Y3798.00
G1 X4920.00 Y3189.00
G1 X4901.00 Y2580.00
G1 X4471.00 Y2622.00
G1 X4303.00 Y2624.00
G1 X4650.00 Y2534.00
G1 X4868.00 Y2514.00
G1 X4920.00 Y2509.00
G1 X4920.00 Y2278.00
G1 X4920.00 Y2048.00
G1 X4848.00 Y2055.00
G1 X4088.00 Y2288.00
G1 X2740.00 Y3111.00
G1 X2700.00 Y3215.00
G1 X2700.00 Y3280.00
G1 X2773.00 Y3225.00
G1 X3081.00 Y3024.00
G1 X3213.00 Y2934.00
G1 X3526.00 Y2781.00
G1 X3660.00 Y2745.00
G1 X4069.00 Y2625.00
G1 X4225.00 Y2630.00
G1 X4070.00 Y2696.00
G1 X3735.00 Y2800.00
G1 X3755.00 Y2816.00
G1 X3962.00 Y2961.00
G1 X4080.00 Y3325.00
G1 X3921.00 Y3720.00
G1 X3189.00 Y3729.00
G1 X3037.00 Y3345.00
G1 X3076.00 Y3122.00
G1 X3014.00 Y3141.00
G1 X2771.00 Y3316.00
G1 X2707.00 Y3375.00
G1 X2719.00 Y3480.00
G1 X2882.00 Y4074.00
G1 X2946.00 Y4170.00
G1 X3062.00 Y4126.00
G1 X7525.00 Y3429.00
G1 X7532.00 Y3363.00
G1 X7472.00 Y3310.00
G1 X6683.00 Y2851.00
G1 X6170.00 Y2694.00
G1 X6011.00 Y2613.00
G1 X6233.00 Y2641.00
G1 X7407.00 Y3177.00
G1 X7532.00 Y3270.00
G1 X7532.00 Y3205.00
G1 X7528.00 Y3140.00
G1 X7457.00 Y3076.00
G1 X6520.00 Y2467.00
G1 X5575.00 Y2091.00
G1 X5311.00 Y2056.00
G1 X5302.00 Y2285.00
G1 X5298.00 Y2509.00
G1 X5332.00 Y2514.00
G1 X5520.00 Y2530.00
G1 X5937.00 Y2596.00
G1 X5935.00 Y2629.00
G1 X5808.00 Y2627.00
G1 X5328.00 Y2580.00
G1 X5300.00 Y2580.00
G1 X5300.00 Y3189.00
G1 X5300.00 Y3798.00
G1 X5398.00 Y3804.00
G1 X7135.00 Y4114.00
G1 X7275.00 Y4160.00
G1 X7309.00 Y4138.00
G1 X2017.00 Y3911.00
G1 X1986.00 Y3776.00
G1 X2046.00 Y3832.00
G1 X2071.00 Y3882.00
G1 X2188.00 Y3768.00
G1 X2378.00 Y3606.00
G1 X2435.00 Y3405.00
G1 X2420.00 Y3203.00
G1 X2420.00 Y3112.00
G1 X2383.00 Y3106.00
G1 X2263.00 Y3089.00
G1 X2180.00 Y3065.00
G1 X2274.00 Y3001.00
G1 X2434.00 Y2858.00
G1 X2459.00 Y2705.00
G1 X2432.00 Y2487.00
G1 X1848.00 Y2785.00
G1 X1754.00 Y3385.00
G1 X1837.00 Y3788.00
G1 X1949.00 Y4050.00
G1 X1993.00 Y3989.00
G1 X8479.00 Y3132.00
G1 X8389.00 Y2801.00
G1 X8261.00 Y2621.00
G1 X8044.00 Y2469.00
G1 X7773.00 Y2509.00
G1 X7775.00 Y2750.00
G1 X7800.00 Y2902.00
G1 X7998.00 Y3027.00
G1 X7988.00 Y3085.00
G1 X7868.00 Y3102.00
G1 X7810.00 Y3113.00
G1 X7810.00 Y3219.00
G1 X7785.00 Y3523.00
G1 X7859.00 Y3608.00
G1 X8044.00 Y3765.00
G1 X8161.00 Y3865.00
G1 X8190.00 Y3820.00
G1 X8253.00 Y3778.00
G1 X8235.00 Y3880.00
G1 X8202.00 Y3939.00
G1 X8240.00 Y3997.00
G1 X8339.00 Y3933.00
G1 X5195.00 Y2575.00
G1 X5115.00 Y2575.00
G1 X5035.00 Y2575.00
G1 X5032.00 Y3125.00
G1 X5035.00 Y3738.00
G1 X5042.00 Y3800.00
G1 X5121.00 Y3800.00
G1 X5200.00 Y3800.00
G1 X5198.00 Y3188.00
G1 X3798.00 Y3495.00
G1 X3824.00 Y3345.00
G1 X3801.00 Y3198.00
G1 X3540.00 Y3036.00
G1 X3264.00 Y3223.00
G1 X3242.00 Y3369.00
G1 X3269.00 Y3497.00
G1 X3647.00 Y3640.00
G1 X3225.00 Y2589.00
G1 X3915.00 Y2200.00
G1 X4055.00 Y2113.00
G1 X3865.00 Y2160.00
G1 X3100.00 Y2432.00
G1 X2784.00 Y2644.00
G1 X2721.00 Y2787.00
G1 X2707.00 Y2950.00
G1 X2739.00 Y2926.00
G1 X7389.00 Y2603.00
G1 X6656.00 Y2241.00
G1 X6142.00 Y2114.00
G1 X6375.00 Y2239.00
G1 X6995.00 Y2580.00
G1 X7500.00 Y2925.00
G1 X7526.00 Y2947.00
G1 X7514.00 Y2840.00
G1 X3305.00 Y2262.00
G1 X3975.00 Y2065.00
G1 X4505.00 Y1932.00
G1 X4905.00 Y1830.00
G1 X4998.00 Y1816.00
G1 X4755.00 Y1753.00
G1 X4315.00 Y1756.00
G1 X4152.00 Y1754.00
G1 X4197.00 Y1712.00
G1 X4618.00 Y1657.00
G1 X4730.00 Y1650.00
G1 X4663.00 Y1577.00
G1 X4172.00 Y1558.00
G1 X3268.00 Y1833.00
G1 X2943.00 Y2170.00
G1 X2960.00 Y2231.00
G1 X3237.00 Y2060.00
G1 X3250.00 Y2110.00
G1 X3203.00 Y2151.00
G1 X2837.00 Y2433.00
G1 X2786.00 Y2550.00
G1 X2829.00 Y2521.00
G1 X7123.00 Y2213.00
G1 X6956.00 Y2068.00
G1 X7258.00 Y2217.00
G1 X7350.00 Y2280.00
G1 X7314.00 Y2208.00
G1 X6355.00 Y1595.00
G1 X5613.00 Y1571.00
G1 X5512.00 Y1632.00
G1 X5501.00 Y1659.00
G1 X5614.00 Y1659.00
G1 X6080.00 Y1755.00
G1 X5923.00 Y1754.00
G1 X5505.00 Y1749.00
G1 X5223.00 Y1816.00
G1 X5315.00 Y1830.00
G1 X5760.00 Y1945.00
G1 X6145.00 Y2045.00
G1 X6445.00 Y2110.00
G1 X7355.00 Y2489.00
G1 X7448.00 Y2545.00
G1 X7429.00 Y2491.00
G1 X5195.00 Y2045.00
G1 X5115.00 Y2045.00
G1 X5035.00 Y2045.00
G1 X5032.00 Y2278.00
G1 X5030.00 Y2510.00
G1 X5115.00 Y2510.00
G1 X5200.00 Y2510.00
G1 X5198.00 Y2278.00
G1 X4051.00 Y1339.00
G1 X4602.00 Y1366.00
G1 X4598.00 Y1318.00
G1 X4341.00 Y1079.00
G1 X3660.00 Y956.00
G1 X3003.00 Y1144.00
G1 X3043.00 Y1432.00
G1 X3299.00 Y1564.00
G1 X3432.00 Y1510.00
G1 X7248.00 Y1269.00
G1 X6975.00 Y986.00
G1 X6645.00 Y958.00
G1 X5985.00 Y1051.00
G1 X5626.00 Y1347.00
G1 X5647.00 Y1360.00
G1 X6197.00 Y1340.00
G1 X6800.00 Y1510.00
G1 X6966.00 Y1556.00
G1 X7061.00 Y1530.00
G1 X5280.00 Y1415.00
G1 X5114.00 Y1410.00
G1 X4953.00 Y1423.00
G1 X4976.00 Y1487.00
G1 X5136.00 Y1549.00
G1 X5228.00 Y1550.00
G1 X5254.00 Y1485.00
G0 X6221.00 Y9391.00
G1 X6302.00 Y9325.00
G1 X6378.00 Y9342.00
G1 X6268.00 Y9405.00
G1 X6221.00 Y9391.00
G0 X3785.00 Y9344.00
G1 X3080.00 Y8931.00
G1 X2982.00 Y8803.00
G1 X3001.00 Y8790.00
G1 X3097.00 Y8863.00
G1 X3469.00 Y9124.00
G1 X3840.00 Y9295.00
G1 X3920.00 Y9364.00
G1 X3785.00 Y9344.00
G0 X6455.00 Y9320.00
G1 X6457.00 Y9290.00
G1 X6630.00 Y9198.00
G1 X7084.00 Y8902.00
G1 X7229.00 Y8796.00
G1 X7213.00 Y8873.00
G1 X6647.00 Y9265.00
G1 X6455.00 Y9320.00
G0 X4818.00 Y8830.00
G1 X3710.00 Y8565.00
G1 X2471.00 Y7260.00
G1 X2449.00 Y6404.00
G1 X2966.00 Y5540.00
G1 X4660.00 Y4979.00
G1 X5605.00 Y4984.00
G1 X6222.00 Y5080.00
G1 X6935.00 Y5328.00
G1 X7821.00 Y6658.00
G1 X7105.00 Y8232.00
G1 X5530.00 Y8815.00
G1 X4818.00 Y8830.00
G1 X4665.00 Y8340.00
G1 X5058.00 Y7998.00
G1 X5115.00 Y7930.00
G1 X5175.00 Y8003.00
G1 X5763.00 Y8407.00
G1 X6250.00 Y8416.00
G1 X6778.00 Y8202.00
G1 X7606.00 Y7090.00
G1 X7606.00 Y6475.00
G1 X7392.00 Y5980.00
G1 X6720.00 Y5465.00
G1 X5580.00 Y5193.00
G1 X4725.00 Y5188.00
G1 X3496.00 Y5476.00
G1 X2852.00 Y5965.00
G1 X2624.00 Y6511.00
G1 X2609.00 Y6970.00
G1 X2894.00 Y7693.00
G1 X3360.00 Y8147.00
G1 X3875.00 Y8384.00
G1 X4338.00 Y8430.00
G0 X3715.00 Y7806.00
G1 X3258.00 Y7519.00
G1 X3244.00 Y6575.00
G1 X3667.00 Y6278.00
G1 X4206.00 Y6326.00
G1 X4666.00 Y7110.00
G1 X4120.00 Y7795.00
G1 X3715.00 Y7806.00
G1 X4442.00 Y7350.00
G1 X4375.00 Y7182.00
G1 X4000.00 Y7180.00
G1 X4180.00 Y7610.00
G1 X4298.00 Y7584.00
G0 X6181.00 Y7809.00
G1 X5584.00 Y7255.00
G1 X5583.00 Y6860.00
G1 X5724.00 Y6573.00
G1 X6440.00 Y6261.00
G1 X6900.00 Y6479.00
G1 X7042.00 Y6670.00
G1 X7124.00 Y7030.00
G1 X7045.00 Y7397.00
G1 X6894.00 Y7612.00
G1 X6343.00 Y7819.00
G1 X6181.00 Y7809.00
G1 X6887.00 Y7330.00
G1 X6447.00 Y7189.00
G1 X6741.00 Y7584.00
G0 X5031.00 Y6854.00
G1 X4864.00 Y6748.00
G1 X4699.00 Y6412.00
G1 X4946.00 Y5883.00
G1 X5191.00 Y5808.00
G1 X5445.00 Y6080.00
G1 X5534.00 Y6345.00
G1 X5239.00 Y6843.00
G1 X5031.00 Y6854.00
G1 X5316.00 Y6276.00
G1 X5169.00 Y6029.00
G1 X5120.00 Y5975.00
G1 X5061.00 Y6038.00
G1 X4909.00 Y6309.00
G1 X5035.00 Y6650.00
G1 X5191.00 Y6652.00
G0 X2268.00 Y4210.00
G1 X2132.00 Y4023.00
G1 X2248.00 Y4092.00
G1 X2306.00 Y4219.00
G1 X2268.00 Y4210.00
G0 X7927.00 Y4213.00
G1 X7991.00 Y4082.00
G1 X8069.00 Y3990.00
G1 X8100.00 Y4031.00
G1 X7939.00 Y4220.00
G1 X7927.00 Y4213.00
G0 X4325.00 Y3465.00
G1 X4214.00 Y3277.00
G1 X4395.00 Y3135.00
G1 X4540.00 Y3305.00
G1 X4491.00 Y3423.00
G1 X4381.00 Y3480.00
G1 X4325.00 Y3465.00
G0 X6875.00 Y3633.00
G1 X6360.00 Y3506.00
G1 X6053.00 Y3461.00
G1 X5800.00 Y3415.00
G1 X5806.00 Y3205.00
G1 X6123.00 Y3225.00
G1 X6839.00 Y3382.00
G1 X7080.00 Y3493.00
G1 X7086.00 Y3599.00
G1 X6875.00 Y3633.00
G0 X1896.00 Y3698.00
G1 X1850.00 Y3566.00
G1 X1865.00 Y3540.00
G1 X1929.00 Y3615.00
G1 X1934.00 Y3714.00
G1 X1896.00 Y3698.00
G0 X8275.00 Y3710.00
G1 X8300.00 Y3619.00
G1 X8354.00 Y3542.00
G1 X8374.00 Y3582.00
G1 X8303.00 Y3718.00
G1 X8275.00 Y3710.00
G0 X3300.00 Y2052.00
G1 X3438.00 Y1964.00
G1 X3377.00 Y2020.00
G1 X3348.00 Y2040.00
G1 X3300.00 Y2052.00
G0 X3505.00 Y1960.00
G1 X3506.00 Y1929.00
G1 X3941.00 Y1760.00
G1 X3961.00 Y1811.00
G1 X3839.00 Y1860.00
G1 X3634.00 Y1936.00
G1 X3521.00 Y1980.00
G1 X3505.00 Y1960.00
G0 X6884.00 Y2049.00
G1 X6782.00 Y1965.00
G1 X6938.00 Y2053.00
G1 X6884.00 Y2049.00
G0 X6609.00 Y1941.00
G1 X6393.00 Y1857.00
G1 X6251.00 Y1806.00
G1 X6263.00 Y1755.00
G1 X6722.00 Y1927.00
G1 X6724.00 Y1962.00
G1 X6701.00 Y1980.00
G1 X6609.00 Y1941.00
G0 X7609.00 Y1911.00
G1 X7592.00 Y1773.00
G1 X7603.00 Y1727.00
G1 X7552.00 Y1683.00
G1 X7500.00 Y1603.00
G1 X7511.00 Y1548.00
G1 X7614.00 Y1500.00
G1 X7656.00 Y1440.00
G1 X7842.00 Y1409.00
G1 X7939.00 Y1490.00
G1 X8083.00 Y1540.00
G1 X7953.00 Y1756.00
G1 X7794.00 Y1870.00
G1 X7609.00 Y1911.00
G1 X7891.00 Y1612.00
G1 X7845.00 Y1576.00
G1 X7815.00 Y1550.00
G1 X7765.00 Y1680.00
G1 X7757.00 Y1748.00
G1 X7841.00 Y1717.00
G0 X7774.00 Y961.00
G1 X7700.00 Y869.00
G1 X7864.00 Y825.00
G1 X8054.00 Y872.00
G1 X7995.00 Y960.00
G1 X7774.00 Y961.00
G0 X2222.00 Y864.00
G1 X2202.00 Y817.00
G1 X2245.00 Y779.00
G1 X2357.00 Y797.00
G1 X2329.00 Y846.00
G1 X2222.00 Y864.00
G0 X2415.00 Y831.00
G1 X2422.00 Y786.00
G1 X2520.00 Y813.00
G1 X2463.00 Y860.00
G1 X2415.00 Y831.00
M2 ; End of program
