; G-code generated from SVG
G21 ; Set units to mm
G90 ; Absolute positioning
G0 X4180.00 Y8991.00
G1 X4021.00 Y8843.00
G1 X4096.00 Y8483.00
G1 X4423.00 Y8146.00
G1 X4490.00 Y8094.00
G1 X4408.00 Y8134.00
G1 X4069.00 Y8189.00
G1 X4073.00 Y8006.00
G1 X4094.00 Y7940.00
G1 X3998.00 Y7959.00
G1 X3199.00 Y7862.00
G1 X3211.00 Y7406.00
G1 X3753.00 Y6999.00
G1 X4039.00 Y6910.00
G1 X4080.00 Y6885.00
G1 X3606.00 Y6869.00
G1 X3579.00 Y6570.00
G1 X3858.00 Y6415.00
G1 X3940.00 Y6385.00
G1 X3883.00 Y6365.00
G1 X3712.00 Y6293.00
G1 X3536.00 Y6175.00
G1 X3403.00 Y5934.00
G1 X3772.00 Y5585.00
G1 X4400.00 Y5570.00
G1 X4496.00 Y5590.00
G1 X4464.00 Y5554.00
G1 X4421.00 Y5371.00
G1 X4810.00 Y5395.00
G1 X4873.00 Y5430.00
G1 X4875.00 Y5357.00
G1 X4960.00 Y5192.00
G1 X5090.00 Y5173.00
G1 X5192.00 Y5184.00
G1 X5215.00 Y5171.00
G1 X5261.00 Y5098.00
G1 X5301.00 Y5045.00
G1 X5268.00 Y5039.00
G1 X5100.00 Y4911.00
G1 X5093.00 Y4902.00
G1 X4990.00 Y4955.00
G1 X4005.00 Y5326.00
G1 X3390.00 Y5394.00
G1 X3100.00 Y5387.00
G1 X2761.00 Y5310.00
G1 X2692.00 Y5279.00
G1 X2580.00 Y5151.00
G1 X2688.00 Y5050.00
G1 X2810.00 Y4986.00
G1 X2825.00 Y4958.00
G1 X2729.00 Y4867.00
G1 X2360.00 Y4360.00
G1 X2234.00 Y4027.00
G1 X2279.00 Y3800.00
G1 X2426.00 Y3864.00
G1 X2619.00 Y3960.00
G1 X2805.00 Y3707.00
G1 X2894.00 Y3499.00
G1 X3081.00 Y3589.00
G1 X3275.00 Y3906.00
G1 X3706.00 Y4087.00
G1 X3900.00 Y3995.00
G1 X4033.00 Y3931.00
G1 X4135.00 Y4062.00
G1 X4565.00 Y4498.00
G1 X4779.00 Y4519.00
G1 X4818.00 Y4507.00
G1 X4817.00 Y4445.00
G1 X4848.00 Y4336.00
G1 X4880.00 Y4281.00
G1 X4808.00 Y4285.00
G1 X4713.00 Y4294.00
G1 X4442.00 Y4147.00
G1 X4469.00 Y3833.00
G1 X4498.00 Y3793.00
G1 X4458.00 Y3736.00
G1 X4417.00 Y3680.00
G1 X4365.00 Y3696.00
G1 X4160.00 Y3707.00
G1 X3862.00 Y3389.00
G1 X3925.00 Y3150.00
G1 X3961.00 Y3097.00
G1 X3940.00 Y3075.00
G1 X3895.00 Y3040.00
G1 X3832.00 Y3058.00
G1 X3641.00 Y3146.00
G1 X3314.00 Y3013.00
G1 X3286.00 Y2878.00
G1 X3202.00 Y2790.00
G1 X3145.00 Y2823.00
G1 X2936.00 Y2984.00
G1 X2914.00 Y2993.00
G1 X2838.00 Y3000.00
G1 X2634.00 Y2894.00
G1 X2573.00 Y2895.00
G1 X2522.00 Y2913.00
G1 X2518.00 Y2969.00
G1 X2319.00 Y3178.00
G1 X2257.00 Y3218.00
G1 X2249.00 Y3295.00
G1 X2237.00 Y3452.00
G1 X2104.00 Y3585.00
G1 X2064.00 Y3613.00
G1 X2080.00 Y3701.00
G1 X2088.00 Y3971.00
G1 X2057.00 Y4034.00
G1 X2050.00 Y4146.00
G1 X1990.00 Y4840.00
G1 X1669.00 Y5560.00
G1 X1568.00 Y5694.00
G1 X1581.00 Y5734.00
G1 X931.00 Y6460.00
G1 X634.00 Y6405.00
G1 X894.00 Y5795.00
G1 X1300.00 Y5624.00
G1 X1365.00 Y5630.00
G1 X1405.00 Y5568.00
G1 X1540.00 Y5304.00
G1 X1498.00 Y5302.00
G1 X1399.00 Y5086.00
G1 X1536.00 Y4938.00
G1 X1570.00 Y4868.00
G1 X1563.00 Y4810.00
G1 X1511.00 Y4824.00
G1 X1326.00 Y4560.00
G1 X1366.00 Y4468.00
G1 X1487.00 Y4370.00
G1 X1496.00 Y4353.00
G1 X1479.00 Y4288.00
G1 X1407.00 Y4255.00
G1 X1218.00 Y4224.00
G1 X1189.00 Y4157.00
G1 X1317.00 Y3900.00
G1 X1362.00 Y3840.00
G1 X1355.00 Y3802.00
G1 X1319.00 Y3813.00
G1 X1233.00 Y3829.00
G1 X1086.00 Y3675.00
G1 X1147.00 Y3513.00
G1 X1277.00 Y3440.00
G1 X1302.00 Y3388.00
G1 X1303.00 Y3328.00
G1 X1265.00 Y3331.00
G1 X1121.00 Y3312.00
G1 X1052.00 Y3171.00
G1 X1073.00 Y3054.00
G1 X1268.00 Y2904.00
G1 X1318.00 Y2898.00
G1 X1334.00 Y2841.00
G1 X1330.00 Y2760.00
G1 X1232.00 Y2707.00
G1 X1346.00 Y2425.00
G1 X1428.00 Y2416.00
G1 X1498.00 Y2374.00
G1 X2260.00 Y1714.00
G1 X3006.00 Y1479.00
G1 X3130.00 Y1449.00
G1 X3015.00 Y1440.00
G1 X2368.00 Y1410.00
G1 X2414.00 Y1329.00
G1 X2490.00 Y1325.00
G1 X2780.00 Y1315.00
G1 X3485.00 Y1285.00
G1 X4670.00 Y1235.00
G1 X5090.00 Y1215.00
G1 X5390.00 Y1185.00
G1 X6075.00 Y1203.00
G1 X6510.00 Y1224.00
G1 X6875.00 Y1235.00
G1 X7530.00 Y1255.00
G1 X7765.00 Y1265.00
G1 X7905.00 Y1275.00
G1 X8055.00 Y1290.00
G1 X8225.00 Y1305.00
G1 X8424.00 Y1339.00
G1 X8403.00 Y1411.00
G1 X8297.00 Y1420.00
G1 X8215.00 Y1420.00
G1 X8192.00 Y1492.00
G1 X8170.00 Y1564.00
G1 X8214.00 Y1609.00
G1 X8400.00 Y1996.00
G1 X8382.00 Y2350.00
G1 X8361.00 Y2415.00
G1 X8384.00 Y2480.00
G1 X8455.00 Y2811.00
G1 X8462.00 Y2888.00
G1 X8499.00 Y2893.00
G1 X8777.00 Y3115.00
G1 X8706.00 Y3803.00
G1 X8404.00 Y4078.00
G1 X8107.00 Y4225.00
G1 X8020.00 Y4256.00
G1 X7957.00 Y4366.00
G1 X7863.00 Y4521.00
G1 X7714.00 Y4822.00
G1 X7690.00 Y4945.00
G1 X7690.00 Y4997.00
G1 X7804.00 Y5019.00
G1 X8317.00 Y5185.00
G1 X8780.00 Y5540.00
G1 X8931.00 Y5850.00
G1 X8927.00 Y6140.00
G1 X8778.00 Y6381.00
G1 X8721.00 Y6436.00
G1 X8721.00 Y6556.00
G1 X8183.00 Y7861.00
G1 X7216.00 Y8431.00
G1 X7075.00 Y8515.00
G1 X6855.00 Y8717.00
G1 X6684.00 Y8735.00
G1 X6634.00 Y8606.00
G1 X6627.00 Y8584.00
G1 X6561.00 Y8664.00
G1 X6000.00 Y8974.00
G1 X5833.00 Y8911.00
G1 X5805.00 Y8785.00
G1 X5876.00 Y8563.00
G1 X5898.00 Y8529.00
G1 X5823.00 Y8516.00
G1 X5751.00 Y8504.00
G1 X5714.00 Y8557.00
G1 X5593.00 Y8690.00
G1 X5195.00 Y8741.00
G1 X5204.00 Y8645.00
G1 X5220.00 Y8592.00
G1 X5163.00 Y8638.00
G1 X4290.00 Y8999.00
G1 X4180.00 Y8991.00
G1 X5090.00 Y8529.00
G1 X5287.00 Y8450.00
G1 X5364.00 Y8440.00
G1 X5365.00 Y8478.00
G1 X5340.00 Y8524.00
G1 X5466.00 Y8484.00
G1 X5519.00 Y8430.00
G1 X5372.00 Y8379.00
G1 X4837.00 Y8083.00
G1 X4799.00 Y8049.00
G1 X4772.00 Y8069.00
G1 X4605.00 Y8263.00
G1 X4577.00 Y8388.00
G1 X4725.00 Y8627.00
G1 X4951.00 Y8607.00
G1 X7252.00 Y8241.00
G1 X7885.00 Y7867.00
G1 X8545.00 Y6574.00
G1 X8626.00 Y6339.00
G1 X8737.00 Y5863.00
G1 X8167.00 Y5327.00
G1 X7970.00 Y5259.00
G1 X7845.00 Y5232.00
G1 X7740.00 Y5206.00
G1 X7390.00 Y5162.00
G1 X6635.00 Y5179.00
G1 X5940.00 Y5315.00
G1 X5730.00 Y5355.00
G1 X5980.00 Y5170.00
G1 X6432.00 Y5014.00
G1 X6509.00 Y4995.00
G1 X6521.00 Y4945.00
G1 X6586.00 Y4700.00
G1 X6640.00 Y4493.00
G1 X6592.00 Y4514.00
G1 X6333.00 Y4630.00
G1 X6303.00 Y4588.00
G1 X6425.00 Y4479.00
G1 X6675.00 Y4246.00
G1 X7001.00 Y3781.00
G1 X7000.00 Y3725.00
G1 X6940.00 Y3709.00
G1 X6885.00 Y3642.00
G1 X6880.00 Y3431.00
G1 X6887.00 Y3393.00
G1 X6844.00 Y3411.00
G1 X6567.00 Y3300.00
G1 X6542.00 Y3186.00
G1 X6546.00 Y3127.00
G1 X6453.00 Y3134.00
G1 X5815.00 Y3447.00
G1 X5562.00 Y3956.00
G1 X5532.00 Y4073.00
G1 X5519.00 Y4034.00
G1 X5528.00 Y3656.00
G1 X5661.00 Y3369.00
G1 X5948.00 Y3091.00
G1 X6285.00 Y2972.00
G1 X6549.00 Y2980.00
G1 X6589.00 Y2984.00
G1 X6582.00 Y2555.00
G1 X6509.00 Y2247.00
G1 X6470.00 Y2185.00
G1 X6323.00 Y2479.00
G1 X5883.00 Y2828.00
G1 X5831.00 Y2831.00
G1 X5952.00 Y2689.00
G1 X6313.00 Y1975.00
G1 X6286.00 Y1774.00
G1 X6135.00 Y1550.00
G1 X6087.00 Y1504.00
G1 X6044.00 Y1530.00
G1 X5815.00 Y1531.00
G1 X5778.00 Y1492.00
G1 X5743.00 Y1516.00
G1 X5497.00 Y1374.00
G1 X5484.00 Y1331.00
G1 X5247.00 Y1356.00
G1 X4790.00 Y1619.00
G1 X4288.00 Y2330.00
G1 X4309.00 Y3226.00
G1 X4699.00 Y3770.00
G1 X5471.00 Y4980.00
G1 X5450.00 Y5256.00
G1 X5447.00 Y5323.00
G1 X5592.00 Y5497.00
G1 X5602.00 Y5648.00
G1 X5497.00 Y5558.00
G1 X5179.00 Y5345.00
G1 X5030.00 Y5397.00
G1 X5045.00 Y5473.00
G1 X5126.00 Y5565.00
G1 X5250.00 Y5679.00
G1 X5066.00 Y5636.00
G1 X4889.00 Y5596.00
G1 X4635.00 Y5793.00
G1 X4611.00 Y5845.00
G1 X4199.00 Y5812.00
G1 X4046.00 Y6060.00
G1 X4073.00 Y6183.00
G1 X4335.00 Y6335.00
G1 X4533.00 Y6435.00
G1 X4319.00 Y6754.00
G1 X4325.00 Y6852.00
G1 X4331.00 Y6885.00
G1 X4398.00 Y6888.00
G1 X4599.00 Y6944.00
G1 X4609.00 Y6974.00
G1 X4486.00 Y6990.00
G1 X3992.00 Y7165.00
G1 X3894.00 Y7499.00
G1 X4095.00 Y7721.00
G1 X4449.00 Y7710.00
G1 X4673.00 Y7749.00
G1 X4640.00 Y7783.00
G1 X5101.00 Y8133.00
G1 X5830.00 Y8375.00
G1 X5930.00 Y8390.00
G1 X6075.00 Y8406.00
G1 X6168.00 Y8415.00
G1 X6625.00 Y8401.00
G1 X1844.00 Y4733.00
G1 X1890.00 Y3990.00
G1 X2026.00 Y3190.00
G1 X2730.00 Y2674.00
G1 X3110.00 Y2635.00
G1 X3496.00 Y2674.00
G1 X4053.00 Y2953.00
G1 X4110.00 Y2993.00
G1 X4094.00 Y2895.00
G1 X4094.00 Y2433.00
G1 X4367.00 Y1827.00
G1 X4411.00 Y1770.00
G1 X4386.00 Y1760.00
G1 X3985.00 Y1680.00
G1 X3274.00 Y1669.00
G1 X2627.00 Y1797.00
G1 X1900.00 Y2206.00
G1 X1538.00 Y2879.00
G1 X1549.00 Y3700.00
G1 X1650.00 Y4220.00
G1 X1734.00 Y4855.00
G1 X1703.00 Y5220.00
G1 X1734.00 Y5167.00
G1 X4585.00 Y4947.00
G1 X5177.00 Y4634.00
G1 X5074.00 Y4461.00
G1 X4968.00 Y4556.00
G1 X4628.00 Y4794.00
G1 X4082.00 Y4907.00
G1 X3909.00 Y4881.00
G1 X3465.00 Y4626.00
G1 X2974.00 Y3892.00
G1 X2947.00 Y3810.00
G1 X2925.00 Y3863.00
G1 X2818.00 Y4027.00
G1 X2650.00 Y4097.00
G1 X2447.00 Y4064.00
G1 X2426.00 Y4077.00
G1 X2532.00 Y4345.00
G1 X2877.00 Y4833.00
G1 X2946.00 Y5019.00
G1 X2930.00 Y5066.00
G1 X3253.00 Y5070.00
G1 X3650.00 Y5084.00
G1 X2965.00 Y5150.00
G1 X2837.00 Y5147.00
G1 X3168.00 Y5229.00
G1 X3680.00 Y5215.00
G1 X7401.00 Y4943.00
G1 X7448.00 Y4899.00
G1 X7469.00 Y4849.00
G1 X7436.00 Y4835.00
G1 X7129.00 Y4799.00
G1 X6652.00 Y4856.00
G1 X6595.00 Y4951.00
G1 X6589.00 Y4976.00
G1 X6697.00 Y4956.00
G1 X7090.00 Y4936.00
G1 X7185.00 Y4714.00
G1 X7452.00 Y4775.00
G1 X7495.00 Y4798.00
G1 X7644.00 Y4480.00
G1 X7450.00 Y4420.00
G1 X6967.00 Y4429.00
G1 X6804.00 Y4450.00
G1 X6778.00 Y4450.00
G1 X6808.00 Y4425.00
G1 X7005.00 Y4348.00
G1 X7265.00 Y4326.00
G1 X7516.00 Y4348.00
G1 X7634.00 Y4401.00
G1 X7690.00 Y4424.00
G1 X7922.00 Y3979.00
G1 X7739.00 Y3925.00
G1 X7185.00 Y3904.00
G1 X7126.00 Y3907.00
G1 X7090.00 Y3976.00
G1 X6823.00 Y4324.00
G1 X6734.00 Y4439.00
G1 X6645.00 Y4793.00
G1 X6671.00 Y4791.00
G1 X6782.00 Y4751.00
G1 X8635.00 Y3531.00
G1 X8619.00 Y3514.00
G1 X8459.00 Y3468.00
G1 X8436.00 Y3377.00
G1 X8423.00 Y3305.00
G1 X8396.00 Y3395.00
G1 X8215.00 Y3888.00
G1 X8150.00 Y4030.00
G1 X8221.00 Y3992.00
G1 X8217.00 Y2640.00
G1 X7699.00 Y1918.00
G1 X6795.00 Y1625.00
G1 X6422.00 Y1618.00
G1 X6508.00 Y1970.00
G1 X6503.00 Y2047.00
G1 X6549.00 Y2018.00
G1 X6900.00 Y1919.00
G1 X7530.00 Y1944.00
G1 X7810.00 Y2040.00
G1 X7894.00 Y2120.00
G1 X7759.00 Y2085.00
G1 X7075.00 Y1996.00
G1 X6675.00 Y2047.00
G1 X6543.00 Y2074.00
G1 X6510.00 Y2079.00
G1 X6565.00 Y2194.00
G1 X6681.00 Y2615.00
G1 X6696.00 Y2738.00
G1 X6747.00 Y2716.00
G1 X8039.00 Y2732.00
G1 X8188.00 Y2855.00
G1 X8039.00 Y2810.00
G1 X7420.00 Y2703.00
G1 X6810.00 Y2772.00
G1 X6696.00 Y2805.00
G1 X6684.00 Y2885.00
G1 X6665.00 Y2983.00
G1 X6680.00 Y3025.00
G1 X6794.00 Y3043.00
G1 X6912.00 Y3059.00
G1 X6960.00 Y3203.00
G1 X6982.00 Y3281.00
G1 X7041.00 Y3306.00
G1 X7104.00 Y3315.00
G1 X7130.00 Y3320.00
G1 X7560.00 Y3254.00
G1 X7974.00 Y3330.00
G1 X8120.00 Y3449.00
G1 X8024.00 Y3423.00
G1 X7432.00 Y3345.00
G1 X7146.00 Y3360.00
G1 X7193.00 Y3595.00
G1 X7172.00 Y3770.00
G1 X7150.00 Y3841.00
G1 X7203.00 Y3832.00
G1 X7715.00 Y3834.00
G1 X7918.00 Y3925.00
G1 X7942.00 Y3950.00
G1 X7990.00 Y3863.00
G1 X7067.00 Y3447.00
G1 X6979.00 Y3461.00
G1 X6970.00 Y3625.00
G1 X7042.00 Y3605.00
G1 X8578.00 Y3226.00
G1 X8543.00 Y3214.00
G1 X8539.00 Y3429.00
G1 X8615.00 Y3424.00
G1 X6856.00 Y3212.00
G1 X6863.00 Y3152.00
G1 X6774.00 Y3166.00
G1 X6640.00 Y3222.00
G1 X6684.00 Y3296.00
G1 X6800.00 Y3325.00
G1 X8542.00 Y3083.00
G1 X8510.00 Y3057.00
G1 X8460.00 Y3059.00
G1 X8454.00 Y3121.00
G1 X8448.00 Y3155.00
G1 X8465.00 Y3131.00
G1 X8512.00 Y3096.00
G1 X8050.00 Y1658.00
G1 X8000.00 Y1591.00
G1 X7964.00 Y1590.00
G1 X7834.00 Y1554.00
G1 X7793.00 Y1535.00
G1 X7672.00 Y1590.00
G1 X7524.00 Y1464.00
G1 X7504.00 Y1423.00
G1 X7327.00 Y1446.00
G1 X7423.00 Y1522.00
G1 X7745.00 Y1698.00
G1 X7825.00 Y1749.00
G1 X8173.00 Y2088.00
G1 X8227.00 Y2150.00
G1 X8227.00 Y2077.00
G1 X3780.00 Y1570.00
G1 X3735.00 Y1577.00
G1 X3775.00 Y1579.00
G1 X4408.00 Y1693.00
G1 X4454.00 Y1717.00
G1 X4522.00 Y1657.00
G1 X4585.00 Y1592.00
G1 X7986.00 Y1410.00
G1 X7890.00 Y1448.00
G1 X7944.00 Y1504.00
G1 X7993.00 Y1469.00
G1 X7760.00 Y1429.00
G1 X7760.00 Y1413.00
G1 X7730.00 Y1407.00
G1 X7660.00 Y1409.00
G1 X7635.00 Y1470.00
G1 X7729.00 Y1469.00
G1 X6030.00 Y1348.00
G1 X5978.00 Y1330.00
G1 X5870.00 Y1381.00
G1 X5874.00 Y1449.00
G1 X5965.00 Y1468.00
G1 X6195.00 Y1362.00
G1 X6145.00 Y1391.00
G1 X6220.00 Y1428.00
G1 X5770.00 Y1327.00
G1 X5733.00 Y1316.00
G1 X5643.00 Y1319.00
G1 X5590.00 Y1344.00
G1 X5708.00 Y1434.00
G0 X6662.00 Y8314.00
G1 X6683.00 Y8225.00
G1 X7000.00 Y8115.00
G1 X7080.00 Y8156.00
G1 X6950.00 Y8268.00
G1 X6662.00 Y8314.00
G0 X5907.00 Y8300.00
G1 X5830.00 Y8198.00
G1 X6056.00 Y8145.00
G1 X6178.00 Y8204.00
G1 X5907.00 Y8300.00
G0 X5513.00 Y8183.00
G1 X5492.00 Y8112.00
G1 X5617.00 Y8124.00
G1 X5625.00 Y8168.00
G1 X5513.00 Y8183.00
G0 X7290.00 Y8125.00
G1 X7330.00 Y8060.00
G1 X7379.00 Y8053.00
G1 X7368.00 Y8107.00
G1 X7290.00 Y8125.00
G0 X5160.00 Y7649.00
G1 X4955.00 Y7419.00
G1 X4955.00 Y7264.00
G1 X5205.00 Y7104.00
G1 X5183.00 Y7163.00
G1 X5105.00 Y7377.00
G1 X5228.00 Y7518.00
G1 X5417.00 Y7553.00
G1 X5380.00 Y7614.00
G1 X5160.00 Y7649.00
G0 X4581.00 Y7357.00
G1 X4560.00 Y7281.00
G1 X4616.00 Y7163.00
G1 X4665.00 Y7272.00
G1 X4661.00 Y7393.00
G1 X4631.00 Y7400.00
G1 X4581.00 Y7357.00
G0 X8322.00 Y6833.00
G1 X8268.00 Y6438.00
G1 X8393.00 Y6170.00
G1 X8458.00 Y6204.00
G1 X8514.00 Y6430.00
G1 X8440.00 Y6760.00
G1 X8322.00 Y6833.00
G0 X4922.00 Y6812.00
G1 X4764.00 Y6562.00
G1 X4917.00 Y6371.00
G1 X5081.00 Y6379.00
G1 X5112.00 Y6398.00
G1 X5041.00 Y6439.00
G1 X4954.00 Y6506.00
G1 X5085.00 Y6730.00
G1 X5132.00 Y6747.00
G1 X5078.00 Y6811.00
G1 X4922.00 Y6812.00
G0 X6405.00 Y6806.00
G1 X6241.00 Y6694.00
G1 X6156.00 Y6430.00
G1 X6188.00 Y6258.00
G1 X6889.00 Y6215.00
G1 X6631.00 Y6810.00
G1 X6405.00 Y6806.00
G0 X4861.00 Y6279.00
G1 X4755.00 Y6191.00
G1 X4926.00 Y5889.00
G1 X5118.00 Y5994.00
G1 X5022.00 Y6021.00
G1 X4905.00 Y6050.00
G1 X4910.00 Y6190.00
G1 X4921.00 Y6280.00
G1 X4861.00 Y6279.00
G0 X8614.00 Y6171.00
G1 X8550.00 Y5946.00
G1 X8660.00 Y5890.00
G1 X8736.00 Y6095.00
G1 X8614.00 Y6171.00
G0 X4391.00 Y6125.00
G1 X4375.00 Y6003.00
G1 X4469.00 Y5938.00
G1 X4487.00 Y5963.00
G1 X4470.00 Y6045.00
G1 X4391.00 Y6125.00
G0 X7560.00 Y6098.00
G1 X7540.00 Y6028.00
G1 X7675.00 Y5860.00
G1 X7905.00 Y5874.00
G1 X7972.00 Y5907.00
G1 X7997.00 Y5884.00
G1 X8216.00 Y6016.00
G1 X8189.00 Y6115.00
G1 X8116.00 Y6040.00
G1 X8077.00 Y5980.00
G1 X8040.00 Y6005.00
G1 X7884.00 Y5996.00
G1 X7796.00 Y5954.00
G1 X7670.00 Y6037.00
G1 X7560.00 Y6098.00
G0 X6085.00 Y6027.00
G1 X6000.00 Y5924.00
G1 X6177.00 Y5735.00
G1 X6354.00 Y5719.00
G1 X6380.00 Y5730.00
G1 X6450.00 Y5820.00
G1 X6178.00 Y6036.00
G1 X6085.00 Y6027.00
G0 X5557.00 Y4992.00
G1 X5522.00 Y4792.00
G1 X5626.00 Y4893.00
G1 X5632.00 Y4985.00
G1 X5557.00 Y4992.00
G0 X5408.00 Y4503.00
G1 X5412.00 Y4362.00
G1 X5468.00 Y4518.00
G1 X5408.00 Y4503.00
G0 X5157.00 Y4130.00
G1 X5070.00 Y3961.00
G1 X5088.00 Y3917.00
G1 X5222.00 Y3987.00
G1 X5246.00 Y4135.00
G1 X5157.00 Y4130.00
G0 X6715.00 Y3940.00
G1 X6751.00 Y3890.00
G1 X6781.00 Y3944.00
G1 X6715.00 Y3940.00
G0 X6598.00 Y3784.00
G1 X6571.00 Y3704.00
G1 X6675.00 Y3702.00
G1 X6665.00 Y3788.00
G1 X6598.00 Y3784.00
G0 X4916.00 Y3671.00
G1 X4926.00 Y3582.00
G1 X4979.00 Y3606.00
G1 X4988.00 Y3688.00
G1 X4916.00 Y3671.00
G0 X4538.00 Y3465.00
G1 X4372.00 Y3152.00
G1 X4395.00 Y2974.00
G1 X4560.00 Y3050.00
G1 X4666.00 Y3370.00
G1 X4645.00 Y3458.00
G1 X4538.00 Y3465.00
G0 X4673.00 Y2968.00
G1 X4624.00 Y2732.00
G1 X4675.00 Y2700.00
G1 X4770.00 Y2898.00
G1 X4673.00 Y2968.00
G0 X4398.00 Y2683.00
G1 X4358.00 Y2555.00
G1 X4484.00 Y2320.00
G1 X4550.00 Y2381.00
G1 X4489.00 Y2630.00
G1 X4430.00 Y2700.00
G1 X4398.00 Y2683.00
G0 X4689.00 Y2524.00
G1 X4698.00 Y2411.00
G1 X4750.00 Y2385.00
G1 X4796.00 Y2452.00
G1 X4689.00 Y2524.00
G0 X1795.00 Y4444.00
G1 X1790.00 Y4399.00
G1 X1843.00 Y4428.00
G1 X1795.00 Y4444.00
G0 X1782.00 Y4168.00
G1 X1782.00 Y4092.00
G1 X1838.00 Y4148.00
G1 X1782.00 Y4168.00
G0 X1740.00 Y3871.00
G1 X1751.00 Y3776.00
G1 X1814.00 Y3769.00
G1 X1799.00 Y3869.00
G1 X1740.00 Y3871.00
G0 X1734.00 Y3515.00
G1 X1762.00 Y3403.00
G1 X1821.00 Y3508.00
G1 X1734.00 Y3515.00
G0 X1814.00 Y3145.00
G1 X1809.00 Y3087.00
G1 X1935.00 Y2986.00
G1 X1908.00 Y3138.00
G1 X1814.00 Y3145.00
G0 X2040.00 Y2807.00
G1 X2025.00 Y2716.00
G1 X2151.00 Y2650.00
G1 X2216.00 Y2718.00
G1 X2040.00 Y2807.00
G0 X3897.00 Y2672.00
G1 X3926.00 Y2610.00
G1 X3964.00 Y2674.00
G1 X3897.00 Y2672.00
G0 X2423.00 Y2580.00
G1 X2384.00 Y2546.00
G1 X2384.00 Y2495.00
G1 X2517.00 Y2433.00
G1 X2595.00 Y2547.00
G1 X2423.00 Y2580.00
G0 X3516.00 Y2544.00
G1 X3412.00 Y2376.00
G1 X3660.00 Y2482.00
G1 X3608.00 Y2551.00
G1 X3580.00 Y2554.00
G1 X3516.00 Y2544.00
G0 X2943.00 Y2490.00
G1 X2903.00 Y2366.00
G1 X3140.00 Y2395.00
G1 X3140.00 Y2485.00
G1 X2943.00 Y2490.00
G0 X3351.00 Y5002.00
G1 X3382.00 Y4960.00
G1 X3400.00 Y5005.00
G1 X3351.00 Y5002.00
G0 X3186.00 Y4964.00
G1 X3239.00 Y4900.00
G1 X3280.00 Y4960.00
G1 X3186.00 Y4964.00
G0 X2695.00 Y4349.00
G1 X2660.00 Y4255.00
G1 X2749.00 Y4275.00
G1 X2761.00 Y4370.00
G1 X2695.00 Y4349.00
G0 X9321.00 Y5752.00
G1 X9276.00 Y5716.00
G1 X9255.00 Y5688.00
G1 X9287.00 Y5660.00
G1 X9536.00 Y5637.00
G1 X9539.00 Y5689.00
G1 X9493.00 Y5732.00
G1 X9321.00 Y5752.00
G0 X9218.00 Y5559.00
G1 X9334.00 Y5374.00
G1 X9410.00 Y5423.00
G1 X9218.00 Y5559.00
G0 X1646.00 Y1429.00
G1 X1540.00 Y1374.00
G1 X1778.00 Y1329.00
G1 X1870.00 Y1350.00
G1 X1872.00 Y1410.00
G1 X1774.00 Y1435.00
G1 X1646.00 Y1429.00
G0 X8853.00 Y1415.00
G1 X8820.00 Y1376.00
G1 X8952.00 Y1330.00
G1 X9064.00 Y1409.00
G1 X8961.00 Y1430.00
G1 X8853.00 Y1415.00
M2 ; End of program
