; G-code generated from SVG
G21 ; Set units to mm
G90 ; Absolute positioning
G0 X5030.00 Y7848.00
G1 X4335.00 Y6909.00
G1 X3571.00 Y5885.00
G1 X3390.00 Y5645.00
G1 X3218.00 Y5418.00
G1 X2759.00 Y4815.00
G1 X2059.00 Y3950.00
G1 X1896.00 Y3940.00
G1 X1750.00 Y3940.00
G1 X1733.00 Y3914.00
G1 X1740.00 Y3868.00
G1 X1872.00 Y3856.00
G1 X1980.00 Y3856.00
G1 X1593.00 Y3581.00
G1 X1465.00 Y3489.00
G1 X1504.00 Y3430.00
G1 X1830.00 Y3615.00
G1 X1996.00 Y3737.00
G1 X2151.00 Y3813.00
G1 X2340.00 Y3835.00
G1 X3238.00 Y4011.00
G1 X3350.00 Y4057.00
G1 X3115.00 Y3898.00
G1 X1965.00 Y3484.00
G1 X1800.00 Y3420.00
G1 X1822.00 Y3385.00
G1 X5199.00 Y3382.00
G1 X8564.00 Y3403.00
G1 X8564.00 Y3438.00
G1 X8290.00 Y3500.00
G1 X7804.00 Y3624.00
G1 X6973.00 Y4047.00
G1 X6980.00 Y4051.00
G1 X7080.00 Y4010.00
G1 X7456.00 Y3895.00
G1 X7933.00 Y3840.00
G1 X8313.00 Y3744.00
G1 X8646.00 Y3515.00
G1 X8830.00 Y3454.00
G1 X8750.00 Y3563.00
G1 X8370.00 Y3819.00
G1 X8325.00 Y3859.00
G1 X8433.00 Y3853.00
G1 X8560.00 Y3865.00
G1 X8580.00 Y3900.00
G1 X8399.00 Y3940.00
G1 X8243.00 Y3940.00
G1 X8140.00 Y4068.00
G1 X7111.00 Y5390.00
G1 X5507.00 Y7544.00
G1 X5159.00 Y7998.00
G1 X5030.00 Y7848.00
G1 X5535.00 Y7336.00
G1 X5751.00 Y7045.00
G1 X7379.00 Y4875.00
G1 X8017.00 Y4067.00
G1 X8096.00 Y3962.00
G1 X8073.00 Y3972.00
G1 X7941.00 Y4059.00
G1 X6809.00 Y5248.00
G1 X5981.00 Y6340.00
G1 X5654.00 Y6771.00
G1 X5441.00 Y7051.00
G1 X5151.00 Y7390.00
G1 X5090.00 Y7342.00
G1 X4926.00 Y7125.00
G1 X4705.00 Y6835.00
G1 X4074.00 Y6000.00
G1 X3770.00 Y5599.00
G1 X3555.00 Y5320.00
G1 X3022.00 Y4645.00
G1 X2569.00 Y4201.00
G1 X2222.00 Y3975.00
G1 X2363.00 Y4152.00
G1 X2730.00 Y4615.00
G1 X2989.00 Y4950.00
G1 X4427.00 Y6864.00
G1 X4956.00 Y7580.00
G1 X5115.00 Y7797.00
G1 X5155.00 Y7840.00
G1 X5275.00 Y7689.00
G1 X5356.00 Y6996.00
G1 X6040.00 Y6095.00
G1 X6660.00 Y5280.00
G1 X6928.00 Y4932.00
G1 X7730.00 Y4086.00
G1 X7918.00 Y3957.00
G1 X7923.00 Y3924.00
G1 X7745.00 Y3945.00
G1 X7295.00 Y4035.00
G1 X6305.00 Y4584.00
G1 X6197.00 Y4660.00
G1 X6102.00 Y4588.00
G1 X5651.00 Y4181.00
G1 X5460.00 Y4011.00
G1 X5177.00 Y3761.00
G1 X5107.00 Y3791.00
G1 X4248.00 Y4553.00
G1 X4111.00 Y4660.00
G1 X4033.00 Y4609.00
G1 X2746.00 Y3969.00
G1 X2369.00 Y3932.00
G1 X2335.00 Y3935.00
G1 X2380.00 Y3959.00
G1 X2560.00 Y4073.00
G1 X2881.00 Y4350.00
G1 X3750.00 Y5405.00
G1 X4040.00 Y5785.00
G1 X4270.00 Y6090.00
G1 X5011.00 Y7072.00
G1 X5152.00 Y7249.00
G1 X5202.00 Y7194.00
G1 X4640.00 Y4069.00
G1 X5060.00 Y3709.00
G1 X5078.00 Y3685.00
G1 X4775.00 Y3569.00
G1 X4005.00 Y3477.00
G1 X2435.00 Y3490.00
G1 X2580.00 Y3546.00
G1 X3631.00 Y4145.00
G1 X4085.00 Y4529.00
G1 X4101.00 Y4540.00
G1 X4313.00 Y4360.00
G1 X6605.00 Y4207.00
G1 X7710.00 Y3560.00
G1 X7905.00 Y3490.00
G1 X6345.00 Y3478.00
G1 X5600.00 Y3555.00
G1 X5241.00 Y3693.00
G1 X6070.00 Y4423.00
G1 X6197.00 Y4539.00
G1 X6337.00 Y4427.00
G1 X5413.00 Y3510.00
G1 X5450.00 Y3489.00
G1 X5143.00 Y3481.00
G1 X4855.00 Y3490.00
G1 X4940.00 Y3524.00
G1 X5080.00 Y3589.00
G1 X5159.00 Y3628.00
G1 X5269.00 Y3576.00
G0 X3253.00 Y7609.00
G1 X3153.00 Y7187.00
G1 X3360.00 Y7095.00
G1 X3475.00 Y7117.00
G1 X3620.00 Y7360.00
G1 X3253.00 Y7609.00
G1 X3526.00 Y7342.00
G1 X3345.00 Y7192.00
G1 X3210.00 Y7449.00
G1 X3428.00 Y7516.00
G0 X6860.00 Y7615.00
G1 X6712.00 Y7245.00
G1 X6955.00 Y7096.00
G1 X7083.00 Y7123.00
G1 X7216.00 Y7387.00
G1 X6860.00 Y7615.00
G1 X7098.00 Y7275.00
G1 X6947.00 Y7190.00
G1 X6802.00 Y7440.00
G1 X7024.00 Y7516.00
G0 X2982.00 Y3223.00
G1 X2959.00 Y3198.00
G1 X3048.00 Y3152.00
G1 X2982.00 Y3223.00
G0 X7263.00 Y3204.00
G1 X7269.00 Y3159.00
G1 X7343.00 Y3158.00
G1 X7342.00 Y3213.00
G1 X7263.00 Y3204.00
G0 X3242.00 Y3195.00
G1 X3246.00 Y3155.00
G1 X5155.00 Y3140.00
G1 X7071.00 Y3159.00
G1 X7084.00 Y3197.00
G1 X5163.00 Y3218.00
G1 X3253.00 Y3220.00
G1 X3242.00 Y3195.00
G0 X1957.00 Y2962.00
G1 X1958.00 Y2908.00
G1 X2216.00 Y2891.00
G1 X2474.00 Y2905.00
G1 X2484.00 Y2964.00
G1 X2225.00 Y2980.00
G1 X1957.00 Y2962.00
G0 X2646.00 Y2964.00
G1 X2690.00 Y2895.00
G1 X2710.00 Y2960.00
G1 X2646.00 Y2964.00
G0 X2844.00 Y2954.00
G1 X5613.00 Y2897.00
G1 X8380.00 Y2904.00
G1 X8378.00 Y2968.00
G1 X5613.00 Y2980.00
G1 X2860.00 Y2980.00
G1 X2844.00 Y2954.00
G0 X2519.00 Y2730.00
G1 X2494.00 Y2671.00
G1 X2513.00 Y2650.00
G1 X4931.00 Y2650.00
G1 X7364.00 Y2666.00
G1 X7363.00 Y2726.00
G1 X2519.00 Y2730.00
G0 X2266.00 Y2714.00
G1 X2250.00 Y2690.00
G1 X2305.00 Y2650.00
G1 X2350.00 Y2694.00
G1 X2300.00 Y2730.00
G1 X2266.00 Y2714.00
G0 X7550.00 Y2711.00
G1 X7574.00 Y2650.00
G1 X7630.00 Y2710.00
G1 X7550.00 Y2711.00
G0 X7802.00 Y2718.00
G1 X7809.00 Y2660.00
G1 X7984.00 Y2666.00
G1 X7994.00 Y2714.00
G1 X7901.00 Y2730.00
G1 X7802.00 Y2718.00
G0 X3262.00 Y2588.00
G1 X3269.00 Y2530.00
G1 X5168.00 Y2520.00
G1 X7063.00 Y2538.00
G1 X7064.00 Y2584.00
G1 X5161.00 Y2600.00
G1 X3262.00 Y2588.00
G0 X2751.00 Y2450.00
G1 X2016.00 Y2428.00
G1 X2016.00 Y2393.00
G1 X5161.00 Y2373.00
G1 X8307.00 Y2382.00
G1 X8307.00 Y2438.00
G1 X2751.00 Y2450.00
G0 X2580.00 Y2299.00
G1 X2572.00 Y2257.00
G1 X2610.00 Y2235.00
G1 X2648.00 Y2261.00
G1 X2605.00 Y2320.00
G1 X2580.00 Y2299.00
G0 X2862.00 Y2313.00
G1 X2840.00 Y2289.00
G1 X2880.00 Y2230.00
G1 X2915.00 Y2250.00
G1 X2862.00 Y2313.00
G0 X3302.00 Y2309.00
G1 X3282.00 Y2273.00
G1 X3320.00 Y2238.00
G1 X3426.00 Y2266.00
G1 X3420.00 Y2305.00
G1 X3302.00 Y2309.00
G0 X3520.00 Y2305.00
G1 X3544.00 Y2234.00
G1 X5417.00 Y2232.00
G1 X7300.00 Y2279.00
G1 X7288.00 Y2308.00
G1 X5404.00 Y2320.00
G1 X3520.00 Y2305.00
G0 X7470.00 Y2290.00
G1 X7506.00 Y2230.00
G1 X7514.00 Y2314.00
G1 X7470.00 Y2290.00
G0 X7718.00 Y2294.00
G1 X7744.00 Y2232.00
G1 X7771.00 Y2310.00
G1 X7718.00 Y2294.00
G0 X3012.00 Y2298.00
G1 X3051.00 Y2232.00
G1 X3084.00 Y2288.00
G1 X3012.00 Y2298.00
G0 X2228.00 Y2129.00
G1 X2255.00 Y2050.00
G1 X2278.00 Y2124.00
G1 X2228.00 Y2129.00
G0 X2436.00 Y2124.00
G1 X2433.00 Y2077.00
G1 X5164.00 Y2062.00
G1 X7894.00 Y2082.00
G1 X7894.00 Y2117.00
G1 X5167.00 Y2138.00
G1 X2436.00 Y2124.00
G0 X8042.00 Y2128.00
G1 X8077.00 Y2050.00
G1 X8105.00 Y2120.00
G1 X8042.00 Y2128.00
G0 X3085.00 Y1876.00
G1 X3080.00 Y1831.00
G1 X3091.00 Y1810.00
G1 X5135.00 Y1810.00
G1 X7194.00 Y1826.00
G1 X7192.00 Y1883.00
G1 X5137.00 Y1900.00
G1 X3100.00 Y1900.00
G1 X3085.00 Y1876.00
M2 ; End of program
