; G-code generated from SVG
G21 ; Set units to mm
G90 ; Absolute positioning
G0 X5015.00 Y9034.00
G1 X4086.00 Y8621.00
G1 X3449.00 Y7524.00
G1 X3449.00 Y7105.00
G1 X3559.00 Y6803.00
G1 X3725.00 Y6646.00
G1 X3760.00 Y6629.00
G1 X3760.00 Y6254.00
G1 X3760.00 Y5880.00
G1 X3494.00 Y5607.00
G1 X3229.00 Y5335.00
G1 X3027.00 Y5330.00
G1 X2800.00 Y5337.00
G1 X2691.00 Y5324.00
G1 X2660.00 Y5259.00
G1 X2812.00 Y5195.00
G1 X3058.00 Y5221.00
G1 X3275.00 Y5223.00
G1 X3573.00 Y5525.00
G1 X3870.00 Y5827.00
G1 X3870.00 Y6198.00
G1 X3870.00 Y6570.00
G1 X3920.00 Y6570.00
G1 X3970.00 Y6570.00
G1 X3970.00 Y5872.00
G1 X3970.00 Y5175.00
G1 X3725.00 Y4930.00
G1 X3480.00 Y4672.00
G1 X3515.00 Y4622.00
G1 X3558.00 Y4598.00
G1 X3823.00 Y4869.00
G1 X4080.00 Y5127.00
G1 X4080.00 Y5848.00
G1 X4080.00 Y6570.00
G1 X4135.00 Y6570.00
G1 X4190.00 Y6570.00
G1 X4190.00 Y5795.00
G1 X4190.00 Y5020.00
G1 X4053.00 Y4875.00
G1 X3743.00 Y4551.00
G1 X3570.00 Y4371.00
G1 X3570.00 Y4265.00
G1 X3570.00 Y4158.00
G1 X3303.00 Y3889.00
G1 X3021.00 Y3315.00
G1 X3020.00 Y3105.00
G1 X2889.00 Y2974.00
G1 X2729.00 Y2850.00
G1 X2576.00 Y2716.00
G1 X2657.00 Y2588.00
G1 X2741.00 Y2579.00
G1 X2846.00 Y2746.00
G1 X2985.00 Y2913.00
G1 X3130.00 Y3064.00
G1 X3130.00 Y3286.00
G1 X3136.00 Y3536.00
G1 X3411.00 Y3840.00
G1 X3679.00 Y4115.00
G1 X3680.00 Y4223.00
G1 X3680.00 Y4332.00
G1 X3990.00 Y4647.00
G1 X4300.00 Y4961.00
G1 X4300.00 Y5766.00
G1 X4300.00 Y6570.00
G1 X4350.00 Y6570.00
G1 X4400.00 Y6570.00
G1 X4400.00 Y6421.00
G1 X4400.00 Y6271.00
G1 X4447.00 Y6264.00
G1 X4519.00 Y6430.00
G1 X4518.00 Y6565.00
G1 X4576.00 Y6565.00
G1 X4635.00 Y6565.00
G1 X4635.00 Y6399.00
G1 X4635.00 Y6233.00
G1 X4565.00 Y6156.00
G1 X4446.00 Y6025.00
G1 X4398.00 Y5971.00
G1 X4399.00 Y5843.00
G1 X4456.00 Y5690.00
G1 X4510.00 Y5837.00
G1 X4510.00 Y5939.00
G1 X4621.00 Y6057.00
G1 X4741.00 Y6198.00
G1 X4750.00 Y6396.00
G1 X4750.00 Y6570.00
G1 X4805.00 Y6570.00
G1 X4860.00 Y6570.00
G1 X4860.00 Y6273.00
G1 X4859.00 Y5975.00
G1 X4630.00 Y5735.00
G1 X4400.00 Y5496.00
G1 X4400.00 Y4893.00
G1 X4400.00 Y4290.00
G1 X4303.00 Y4187.00
G1 X3938.00 Y3807.00
G1 X3670.00 Y3530.00
G1 X3670.00 Y3374.00
G1 X3645.00 Y3198.00
G1 X3590.00 Y3080.00
G1 X3754.00 Y2964.00
G1 X3849.00 Y3056.00
G1 X3809.00 Y3191.00
G1 X3780.00 Y3218.00
G1 X3780.00 Y3351.00
G1 X3780.00 Y3485.00
G1 X3904.00 Y3610.00
G1 X4269.00 Y3989.00
G1 X4510.00 Y4242.00
G1 X4511.00 Y4819.00
G1 X4518.00 Y5431.00
G1 X4693.00 Y5640.00
G1 X4864.00 Y5809.00
G1 X4862.00 Y5699.00
G1 X4858.00 Y5593.00
G1 X4739.00 Y5464.00
G1 X4620.00 Y5335.00
G1 X4620.00 Y4063.00
G1 X4620.00 Y2790.00
G1 X4423.00 Y2588.00
G1 X4169.00 Y2324.00
G1 X4112.00 Y2264.00
G1 X4105.00 Y1999.00
G1 X4098.00 Y1734.00
G1 X4071.00 Y1719.00
G1 X4027.00 Y1668.00
G1 X4201.00 Y1476.00
G1 X4241.00 Y1714.00
G1 X4220.00 Y1978.00
G1 X4220.00 Y2223.00
G1 X4353.00 Y2359.00
G1 X4608.00 Y2621.00
G1 X4730.00 Y2747.00
G1 X4730.00 Y4018.00
G1 X4730.00 Y5290.00
G1 X4850.00 Y5416.00
G1 X4970.00 Y5542.00
G1 X4970.00 Y6056.00
G1 X4970.00 Y6570.00
G1 X5025.00 Y6570.00
G1 X5080.00 Y6570.00
G1 X5080.00 Y4015.00
G1 X5080.00 Y1460.00
G1 X5056.00 Y1445.00
G1 X5074.00 Y1206.00
G1 X5233.00 Y1238.00
G1 X5261.00 Y1384.00
G1 X5216.00 Y1445.00
G1 X5190.00 Y1462.00
G1 X5190.00 Y4016.00
G1 X5190.00 Y6570.00
G1 X5245.00 Y6570.00
G1 X5300.00 Y6570.00
G1 X5300.00 Y6063.00
G1 X5300.00 Y5555.00
G1 X5425.00 Y5421.00
G1 X5550.00 Y5266.00
G1 X5550.00 Y3996.00
G1 X5550.00 Y2746.00
G1 X5687.00 Y2606.00
G1 X5940.00 Y2346.00
G1 X6054.00 Y2228.00
G1 X6051.00 Y1979.00
G1 X6048.00 Y1730.00
G1 X6020.00 Y1702.00
G1 X5999.00 Y1545.00
G1 X6066.00 Y1479.00
G1 X6245.00 Y1554.00
G1 X6205.00 Y1709.00
G1 X6171.00 Y1739.00
G1 X6170.00 Y2000.00
G1 X6169.00 Y2261.00
G1 X6118.00 Y2318.00
G1 X5864.00 Y2587.00
G1 X5660.00 Y2799.00
G1 X5660.00 Y4067.00
G1 X5660.00 Y5335.00
G1 X5535.00 Y5469.00
G1 X5410.00 Y5604.00
G1 X5411.00 Y5709.00
G1 X5411.00 Y5815.00
G1 X5581.00 Y5640.00
G1 X5750.00 Y5466.00
G1 X5750.00 Y4862.00
G1 X5750.00 Y4259.00
G1 X5948.00 Y4057.00
G1 X6323.00 Y3669.00
G1 X6500.00 Y3483.00
G1 X6500.00 Y3352.00
G1 X6474.00 Y3204.00
G1 X6420.00 Y3086.00
G1 X6522.00 Y2960.00
G1 X6680.00 Y3087.00
G1 X6625.00 Y3196.00
G1 X6610.00 Y3364.00
G1 X6610.00 Y3527.00
G1 X6508.00 Y3636.00
G1 X6139.00 Y4021.00
G1 X5872.00 Y4297.00
G1 X5865.00 Y4451.00
G1 X5864.00 Y5053.00
G1 X5870.00 Y5501.00
G1 X5728.00 Y5651.00
G1 X5498.00 Y5895.00
G1 X5410.00 Y5990.00
G1 X5410.00 Y6280.00
G1 X5410.00 Y6570.00
G1 X5465.00 Y6570.00
G1 X5520.00 Y6570.00
G1 X5520.00 Y6380.00
G1 X5520.00 Y6190.00
G1 X5645.00 Y6058.00
G1 X5770.00 Y5927.00
G1 X5770.00 Y5819.00
G1 X5789.00 Y5700.00
G1 X5864.00 Y5706.00
G1 X5880.00 Y5849.00
G1 X5880.00 Y5977.00
G1 X5755.00 Y6108.00
G1 X5630.00 Y6238.00
G1 X5630.00 Y6404.00
G1 X5630.00 Y6570.00
G1 X5695.00 Y6570.00
G1 X5760.00 Y6570.00
G1 X5760.00 Y6420.00
G1 X5784.00 Y6264.00
G1 X5836.00 Y6262.00
G1 X5865.00 Y6265.00
G1 X5868.00 Y6418.00
G1 X5871.00 Y6570.00
G1 X5920.00 Y6570.00
G1 X5970.00 Y6570.00
G1 X5970.00 Y5774.00
G1 X5970.00 Y4978.00
G1 X6285.00 Y4655.00
G1 X6600.00 Y4332.00
G1 X6600.00 Y4219.00
G1 X6600.00 Y4107.00
G1 X6865.00 Y3840.00
G1 X7130.00 Y3574.00
G1 X7130.00 Y3320.00
G1 X7131.00 Y3065.00
G1 X7275.00 Y2917.00
G1 X7420.00 Y2769.00
G1 X7420.00 Y2713.00
G1 X7459.00 Y2619.00
G1 X7550.00 Y2580.00
G1 X7640.00 Y2618.00
G1 X7670.00 Y2774.00
G1 X7542.00 Y2848.00
G1 X7502.00 Y2842.00
G1 X7371.00 Y2981.00
G1 X7240.00 Y3120.00
G1 X7240.00 Y3371.00
G1 X7240.00 Y3623.00
G1 X6975.00 Y3889.00
G1 X6710.00 Y4156.00
G1 X6710.00 Y4268.00
G1 X6710.00 Y4381.00
G1 X6493.00 Y4603.00
G1 X6177.00 Y4926.00
G1 X6080.00 Y5027.00
G1 X6082.00 Y5796.00
G1 X6085.00 Y6565.00
G1 X6136.00 Y6568.00
G1 X6187.00 Y6571.00
G1 X6193.00 Y6464.00
G1 X6200.00 Y5739.00
G1 X6200.00 Y5121.00
G1 X6463.00 Y4855.00
G1 X6725.00 Y4588.00
G1 X6762.00 Y4632.00
G1 X6798.00 Y4677.00
G1 X6621.00 Y4856.00
G1 X6373.00 Y5111.00
G1 X6301.00 Y5188.00
G1 X6303.00 Y5879.00
G1 X6305.00 Y6570.00
G1 X6353.00 Y6570.00
G1 X6400.00 Y6570.00
G1 X6400.00 Y6201.00
G1 X6400.00 Y5832.00
G1 X6701.00 Y5526.00
G1 X7002.00 Y5220.00
G1 X7216.00 Y5220.00
G1 X7429.00 Y5220.00
G1 X7454.00 Y5195.00
G1 X7605.00 Y5227.00
G1 X7513.00 Y5345.00
G1 X7265.00 Y5333.00
G1 X7054.00 Y5329.00
G1 X6782.00 Y5604.00
G1 X6510.00 Y5878.00
G1 X6510.00 Y6253.00
G1 X6510.00 Y6627.00
G1 X6568.00 Y6663.00
G1 X6826.00 Y7140.00
G1 X6763.00 Y7769.00
G1 X6558.00 Y8194.00
G1 X5760.00 Y8905.00
G1 X5395.00 Y9015.00
G1 X5015.00 Y9034.00
G1 X6271.00 Y8376.00
G1 X6655.00 Y7726.00
G1 X6679.00 Y7044.00
G1 X6602.00 Y7012.00
G1 X6540.00 Y7013.00
G1 X6570.00 Y7081.00
G1 X6634.00 Y7420.00
G1 X6607.00 Y7683.00
G1 X6570.00 Y7820.00
G1 X6485.00 Y7842.00
G1 X6468.00 Y7732.00
G1 X6511.00 Y7255.00
G1 X6418.00 Y7033.00
G1 X6348.00 Y7010.00
G1 X6300.00 Y7013.00
G1 X6325.00 Y7079.00
G1 X6396.00 Y7396.00
G1 X6385.00 Y7510.00
G1 X6298.00 Y7513.00
G1 X6280.00 Y7400.00
G1 X6215.00 Y7098.00
G1 X6112.00 Y7010.00
G1 X6075.00 Y7028.00
G1 X6119.00 Y7818.00
G1 X5972.00 Y8173.00
G1 X5860.00 Y8134.00
G1 X5894.00 Y8063.00
G1 X5993.00 Y7850.00
G1 X5991.00 Y7123.00
G1 X5887.00 Y7010.00
G1 X5845.00 Y7028.00
G1 X5934.00 Y7461.00
G1 X5919.00 Y7574.00
G1 X5820.00 Y7573.00
G1 X5805.00 Y7515.00
G1 X5756.00 Y7115.00
G1 X5711.00 Y7017.00
G1 X5657.00 Y7012.00
G1 X5612.00 Y7015.00
G1 X5642.00 Y7089.00
G1 X5707.00 Y7495.00
G1 X5696.00 Y7798.00
G1 X5612.00 Y8133.00
G1 X5519.00 Y8129.00
G1 X5533.00 Y7995.00
G1 X5597.00 Y7580.00
G1 X5528.00 Y7113.00
G1 X5487.00 Y7010.00
G1 X5438.00 Y7010.00
G1 X5393.00 Y7024.00
G1 X5455.00 Y7270.00
G1 X5458.00 Y7811.00
G1 X5385.00 Y7950.00
G1 X5325.00 Y7892.00
G1 X5347.00 Y7795.00
G1 X5357.00 Y7500.00
G1 X5293.00 Y7083.00
G1 X5267.00 Y7010.00
G1 X5227.00 Y7010.00
G1 X5187.00 Y7010.00
G1 X5193.00 Y7104.00
G1 X5179.00 Y7219.00
G1 X5098.00 Y7223.00
G1 X5080.00 Y7108.00
G1 X5080.00 Y7010.00
G1 X5046.00 Y7010.00
G1 X4986.00 Y7069.00
G1 X4916.00 Y7570.00
G1 X4942.00 Y7948.00
G1 X4989.00 Y8111.00
G1 X5010.00 Y8166.00
G1 X4932.00 Y8230.00
G1 X4865.00 Y8131.00
G1 X4856.00 Y8062.00
G1 X4836.00 Y7978.00
G1 X4860.00 Y7086.00
G1 X4880.00 Y7018.00
G1 X4835.00 Y7010.00
G1 X4771.00 Y7048.00
G1 X4684.00 Y7346.00
G1 X4747.00 Y8019.00
G1 X4723.00 Y8144.00
G1 X4667.00 Y8137.00
G1 X4612.00 Y7978.00
G1 X4569.00 Y7725.00
G1 X4636.00 Y7079.00
G1 X4660.00 Y7015.00
G1 X4611.00 Y7010.00
G1 X4542.00 Y7043.00
G1 X4460.00 Y7461.00
G1 X4476.00 Y7525.00
G1 X4414.00 Y7600.00
G1 X4341.00 Y7557.00
G1 X4365.00 Y7200.00
G1 X4405.00 Y7072.00
G1 X4430.00 Y7013.00
G1 X4378.00 Y7012.00
G1 X4325.00 Y7015.00
G1 X4298.00 Y7071.00
G1 X4388.00 Y8079.00
G1 X4420.00 Y8132.00
G1 X4336.00 Y8190.00
G1 X4260.00 Y8103.00
G1 X4134.00 Y7734.00
G1 X4113.00 Y7509.00
G1 X4197.00 Y7023.00
G1 X4151.00 Y7010.00
G1 X4100.00 Y7010.00
G1 X4071.00 Y7068.00
G1 X3993.00 Y7383.00
G1 X3930.00 Y7530.00
G1 X3875.00 Y7388.00
G1 X3939.00 Y7092.00
G1 X3970.00 Y7016.00
G1 X3920.00 Y7010.00
G1 X3846.00 Y7048.00
G1 X3760.00 Y7293.00
G1 X3811.00 Y7752.00
G1 X3812.00 Y7819.00
G1 X3734.00 Y7846.00
G1 X3685.00 Y7768.00
G1 X3665.00 Y7665.00
G1 X3643.00 Y7465.00
G1 X3704.00 Y7084.00
G1 X3735.00 Y7009.00
G1 X3673.00 Y7008.00
G1 X3597.00 Y7042.00
G1 X3600.00 Y7676.00
G1 X3870.00 Y8205.00
G1 X5070.00 Y8923.00
G1 X5125.00 Y8928.00
G1 X5245.00 Y8920.00
G1 X6524.00 Y6774.00
G1 X5132.00 Y6760.00
G1 X3773.00 Y6760.00
G1 X3739.00 Y6783.00
G1 X3660.00 Y6881.00
G1 X5140.00 Y6889.00
G1 X6620.00 Y6877.00
G1 X3722.00 Y3062.00
G1 X3694.00 Y3074.00
G1 X3722.00 Y3118.00
G1 X3745.00 Y3090.00
G1 X6529.00 Y3056.00
G1 X6527.00 Y3113.00
G1 X6569.00 Y3106.00
G1 X2695.00 Y2690.00
G1 X2687.00 Y2744.00
G1 X2738.00 Y2724.00
G1 X7555.00 Y2685.00
G1 X7532.00 Y2718.00
G1 X7570.00 Y2735.00
G1 X4150.00 Y1575.00
G1 X4122.00 Y1593.00
G1 X4152.00 Y1638.00
G1 X4175.00 Y1605.00
G1 X6120.00 Y1575.00
G1 X6092.00 Y1593.00
G1 X6120.00 Y1640.00
G1 X6140.00 Y1625.00
G1 X5140.00 Y1305.00
G1 X5112.00 Y1333.00
G1 X5137.00 Y1358.00
G1 X5165.00 Y1330.00
G0 X4635.00 Y8719.00
G1 X4005.00 Y8065.00
G1 X3903.00 Y7745.00
G1 X3924.00 Y7682.00
G1 X4020.00 Y7765.00
G1 X4431.00 Y8444.00
G1 X4725.00 Y8640.00
G1 X4786.00 Y8735.00
G1 X4635.00 Y8719.00
G0 X5484.00 Y8735.00
G1 X5576.00 Y8625.00
G1 X5738.00 Y8531.00
G1 X5800.00 Y8487.00
G1 X5835.00 Y8526.00
G1 X5870.00 Y8572.00
G1 X5529.00 Y8760.00
G1 X5484.00 Y8735.00
G0 X5090.00 Y8711.00
G1 X5082.00 Y8033.00
G1 X5085.00 Y7375.00
G1 X5135.00 Y7375.00
G1 X5185.00 Y7375.00
G1 X5188.00 Y8039.00
G1 X5179.00 Y8716.00
G1 X5090.00 Y8711.00
G0 X5917.00 Y8453.00
G1 X5978.00 Y8312.00
G1 X6260.00 Y7752.00
G1 X6338.00 Y7676.00
G1 X6355.00 Y7840.00
G1 X6105.00 Y8340.00
G1 X5958.00 Y8490.00
G1 X5917.00 Y8453.00
G0 X5326.00 Y8189.00
G1 X5300.00 Y8140.00
G1 X5371.00 Y8070.00
G1 X5430.00 Y8146.00
G1 X5365.00 Y8210.00
G1 X5326.00 Y8189.00
G0 X3890.00 Y8900.00
G1 X3933.00 Y8800.00
G1 X3990.00 Y8861.00
G1 X3924.00 Y8920.00
G1 X3890.00 Y8900.00
G0 X6311.00 Y8901.00
G1 X6349.00 Y8800.00
G1 X6393.00 Y8888.00
G1 X6311.00 Y8901.00
G0 X3577.00 Y8512.00
G1 X3617.00 Y8420.00
G1 X3670.00 Y8477.00
G1 X3577.00 Y8512.00
G0 X6616.00 Y8508.00
G1 X6625.00 Y8434.00
G1 X6703.00 Y8452.00
G1 X6706.00 Y8504.00
G1 X6616.00 Y8508.00
G0 X3012.00 Y6854.00
G1 X3014.00 Y6765.00
G1 X3087.00 Y6779.00
G1 X3012.00 Y6854.00
G0 X7190.00 Y6850.00
G1 X7170.00 Y6810.00
G1 X7223.00 Y6750.00
G1 X7280.00 Y6810.00
G1 X7258.00 Y6854.00
G1 X7190.00 Y6850.00
G0 X2729.00 Y6362.00
G1 X2777.00 Y6240.00
G1 X2830.00 Y6272.00
G1 X2818.00 Y6363.00
G1 X2729.00 Y6362.00
G0 X7430.00 Y6360.00
G1 X7482.00 Y6240.00
G1 X7550.00 Y6310.00
G1 X7529.00 Y6354.00
G1 X7430.00 Y6360.00
G0 X3481.00 Y6344.00
G1 X3485.00 Y6245.00
G1 X3610.00 Y6295.00
G1 X3481.00 Y6344.00
G0 X6681.00 Y6344.00
G1 X6737.00 Y6220.00
G1 X6787.00 Y6348.00
G1 X6681.00 Y6344.00
G0 X2467.00 Y6142.00
G1 X2504.00 Y6050.00
G1 X2560.00 Y6103.00
G1 X2502.00 Y6160.00
G1 X2467.00 Y6142.00
G0 X3093.00 Y6140.00
G1 X3034.00 Y6036.00
G1 X3011.00 Y5984.00
G1 X2875.00 Y5973.00
G1 X2755.00 Y5968.00
G1 X2519.00 Y5733.00
G1 X2258.00 Y5505.00
G1 X2150.00 Y5449.00
G1 X2177.00 Y5330.00
G1 X2336.00 Y5377.00
G1 X2572.00 Y5629.00
G1 X2792.00 Y5845.00
G1 X2913.00 Y5852.00
G1 X3054.00 Y5878.00
G1 X3140.00 Y5893.00
G1 X3240.00 Y5912.00
G1 X3253.00 Y6127.00
G1 X3172.00 Y6160.00
G1 X3093.00 Y6140.00
G1 X3166.00 Y6000.00
G1 X3140.00 Y6023.00
G1 X3147.00 Y6054.00
G1 X3188.00 Y6027.00
G0 X7038.00 Y6144.00
G1 X6980.00 Y6021.00
G1 X7011.00 Y5935.00
G1 X7159.00 Y5891.00
G1 X7227.00 Y5880.00
G1 X7357.00 Y5858.00
G1 X7479.00 Y5846.00
G1 X7930.00 Y5387.00
G1 X7959.00 Y5339.00
G1 X8116.00 Y5457.00
G1 X8016.00 Y5506.00
G1 X7758.00 Y5736.00
G1 X7525.00 Y5972.00
G1 X7410.00 Y5974.00
G1 X7240.00 Y6035.00
G1 X7180.00 Y6145.00
G1 X7038.00 Y6144.00
G1 X7126.00 Y6001.00
G1 X7080.00 Y6024.00
G1 X7124.00 Y6054.00
G0 X7727.00 Y6142.00
G1 X7724.00 Y6061.00
G1 X7810.00 Y6083.00
G1 X7797.00 Y6136.00
G1 X7727.00 Y6142.00
G0 X3117.00 Y5672.00
G1 X3094.00 Y5622.00
G1 X3119.00 Y5559.00
G1 X3178.00 Y5534.00
G1 X3214.00 Y5669.00
G1 X3117.00 Y5672.00
G0 X7046.00 Y5667.00
G1 X7028.00 Y5574.00
G1 X7103.00 Y5530.00
G1 X7170.00 Y5613.00
G1 X7103.00 Y5686.00
G1 X7046.00 Y5667.00
G0 X2720.00 Y5591.00
G1 X2732.00 Y5516.00
G1 X2800.00 Y5520.00
G1 X2804.00 Y5594.00
G1 X2720.00 Y5591.00
G0 X7462.00 Y5598.00
G1 X7475.00 Y5514.00
G1 X7545.00 Y5590.00
G1 X7462.00 Y5598.00
G0 X3702.00 Y5530.00
G1 X3610.00 Y5369.00
G1 X3840.00 Y5332.00
G1 X3835.00 Y5489.00
G1 X3702.00 Y5530.00
G1 X3712.00 Y5383.00
G1 X3710.00 Y5419.00
G1 X3758.00 Y5409.00
G0 X6454.00 Y5496.00
G1 X6420.00 Y5407.00
G1 X6446.00 Y5321.00
G1 X6582.00 Y5279.00
G1 X6666.00 Y5440.00
G1 X6538.00 Y5530.00
G1 X6454.00 Y5496.00
G1 X6554.00 Y5376.00
G1 X6520.00 Y5404.00
G1 X6558.00 Y5428.00
G0 X3352.00 Y5157.00
G1 X3230.00 Y5034.00
G1 X3270.00 Y4995.00
G1 X3310.00 Y4956.00
G1 X3427.00 Y5070.00
G1 X3548.00 Y5187.00
G1 X3482.00 Y5280.00
G1 X3352.00 Y5157.00
G0 X4857.00 Y5259.00
G1 X4856.00 Y5161.00
G1 X4935.00 Y5165.00
G1 X4943.00 Y5248.00
G1 X4857.00 Y5259.00
G0 X5357.00 Y5273.00
G1 X5310.00 Y5200.00
G1 X5380.00 Y5140.00
G1 X5432.00 Y5246.00
G1 X5378.00 Y5279.00
G1 X5357.00 Y5273.00
G0 X6753.00 Y5231.00
G1 X6721.00 Y5192.00
G1 X6831.00 Y5084.00
G1 X6954.00 Y4968.00
G1 X7003.00 Y5003.00
G1 X7038.00 Y5046.00
G1 X6918.00 Y5158.00
G1 X6792.00 Y5270.00
G1 X6753.00 Y5231.00
G0 X3556.00 Y5071.00
G1 X3417.00 Y4933.00
G1 X3311.00 Y4898.00
G1 X3015.00 Y4789.00
G1 X2825.00 Y4715.00
G1 X2653.00 Y4545.00
G1 X2458.00 Y4368.00
G1 X2364.00 Y4341.00
G1 X2187.00 Y4215.00
G1 X2080.00 Y4109.00
G1 X2080.00 Y4001.00
G1 X2080.00 Y3892.00
G1 X2043.00 Y3873.00
G1 X1966.00 Y3751.00
G1 X2047.00 Y3628.00
G1 X2131.00 Y3619.00
G1 X2199.00 Y3665.00
G1 X2205.00 Y3834.00
G1 X2187.00 Y3965.00
G1 X2193.00 Y4059.00
G1 X2279.00 Y4143.00
G1 X2445.00 Y4244.00
G1 X2525.00 Y4263.00
G1 X2705.00 Y4440.00
G1 X2885.00 Y4618.00
G1 X3025.00 Y4673.00
G1 X3445.00 Y4826.00
G1 X3779.00 Y5136.00
G1 X3702.00 Y5210.00
G1 X3556.00 Y5071.00
G1 X2100.00 Y3720.00
G1 X2075.00 Y3770.00
G1 X2125.00 Y3760.00
G0 X6532.00 Y5179.00
G1 X6500.00 Y5136.00
G1 X6648.00 Y4978.00
G1 X6795.00 Y4832.00
G1 X6905.00 Y4797.00
G1 X7200.00 Y4691.00
G1 X7385.00 Y4621.00
G1 X7561.00 Y4441.00
G1 X7738.00 Y4262.00
G1 X7808.00 Y4246.00
G1 X7892.00 Y4230.00
G1 X7992.00 Y4143.00
G1 X8080.00 Y4055.00
G1 X8080.00 Y3959.00
G1 X8061.00 Y3846.00
G1 X8031.00 Y3785.00
G1 X8239.00 Y3639.00
G1 X8217.00 Y3873.00
G1 X8180.00 Y3892.00
G1 X8180.00 Y4004.00
G1 X8180.00 Y4116.00
G1 X8073.00 Y4222.00
G1 X7920.00 Y4340.00
G1 X7617.00 Y4543.00
G1 X7423.00 Y4723.00
G1 X6915.00 Y4915.00
G1 X6714.00 Y5071.00
G1 X6569.00 Y5210.00
G1 X6532.00 Y5179.00
G1 X8162.00 Y3722.00
G1 X8134.00 Y3734.00
G1 X8162.00 Y3778.00
G1 X8185.00 Y3750.00
G0 X2417.00 Y5152.00
G1 X2456.00 Y5050.00
G1 X2520.00 Y5104.00
G1 X2456.00 Y5170.00
G1 X2417.00 Y5152.00
G0 X7777.00 Y5152.00
G1 X7822.00 Y5050.00
G1 X7858.00 Y5154.00
G1 X7777.00 Y5152.00
G0 X2975.00 Y5023.00
G1 X2540.00 Y4940.00
G1 X2385.00 Y4940.00
G1 X2272.00 Y4827.00
G1 X2159.00 Y4713.00
G1 X2105.00 Y4718.00
G1 X1980.00 Y4657.00
G1 X2019.00 Y4477.00
G1 X2160.00 Y4475.00
G1 X2230.00 Y4592.00
G1 X2326.00 Y4723.00
G1 X2422.00 Y4820.00
G1 X2549.00 Y4820.00
G1 X2835.00 Y4866.00
G1 X3063.00 Y4923.00
G1 X3130.00 Y4966.00
G1 X3092.00 Y5059.00
G1 X2975.00 Y5023.00
G1 X2092.00 Y4552.00
G1 X2066.00 Y4604.00
G1 X2117.00 Y4604.00
G0 X7155.00 Y5047.00
G1 X7133.00 Y4944.00
G1 X7353.00 Y4881.00
G1 X7570.00 Y4820.00
G1 X7706.00 Y4820.00
G1 X7841.00 Y4820.00
G1 X7939.00 Y4725.00
G1 X8042.00 Y4578.00
G1 X8084.00 Y4493.00
G1 X8294.00 Y4645.00
G1 X8159.00 Y4717.00
G1 X8103.00 Y4712.00
G1 X7996.00 Y4826.00
G1 X7889.00 Y4940.00
G1 X7725.00 Y4940.00
G1 X7561.00 Y4940.00
G1 X7408.00 Y4985.00
G1 X7207.00 Y5044.00
G1 X7155.00 Y5047.00
G1 X8210.00 Y4589.00
G1 X8169.00 Y4550.00
G1 X8147.00 Y4608.00
G1 X8198.00 Y4608.00
G0 X5349.00 Y5010.00
G1 X5320.00 Y4970.00
G1 X5330.00 Y4915.00
G1 X5416.00 Y4901.00
G1 X5419.00 Y4994.00
G1 X5349.00 Y5010.00
G0 X4847.00 Y4992.00
G1 X4856.00 Y4901.00
G1 X4895.00 Y4880.00
G1 X4950.00 Y4952.00
G1 X4847.00 Y4992.00
G0 X4847.00 Y4732.00
G1 X4887.00 Y4624.00
G1 X4955.00 Y4680.00
G1 X4847.00 Y4732.00
G0 X5345.00 Y4741.00
G1 X5330.00 Y4429.00
G1 X5335.00 Y4125.00
G1 X5385.00 Y4125.00
G1 X5435.00 Y4125.00
G1 X5438.00 Y4429.00
G1 X5428.00 Y4742.00
G1 X5345.00 Y4741.00
G0 X6860.00 Y4638.00
G1 X6836.00 Y4490.00
G1 X6889.00 Y4462.00
G1 X7000.00 Y4374.00
G1 X7085.00 Y4283.00
G1 X7085.00 Y4114.00
G1 X7096.00 Y3927.00
G1 X7258.00 Y3757.00
G1 X7410.00 Y3604.00
G1 X7404.00 Y3540.00
G1 X7473.00 Y3397.00
G1 X7629.00 Y3434.00
G1 X7640.00 Y3588.00
G1 X7532.00 Y3650.00
G1 X7357.00 Y3810.00
G1 X7200.00 Y3969.00
G1 X7200.00 Y4145.00
G1 X7200.00 Y4320.00
G1 X7104.00 Y4425.00
G1 X6999.00 Y4530.00
G1 X6990.00 Y4559.00
G1 X6860.00 Y4638.00
G1 X7553.00 Y3503.00
G1 X7504.00 Y3505.00
G1 X7548.00 Y3533.00
G0 X3322.00 Y4633.00
G1 X3280.00 Y4554.00
G1 X3175.00 Y4428.00
G1 X3070.00 Y4319.00
G1 X3070.00 Y4147.00
G1 X3070.00 Y3976.00
G1 X2952.00 Y3855.00
G1 X2799.00 Y3694.00
G1 X2716.00 Y3648.00
G1 X2609.00 Y3559.00
G1 X2640.00 Y3421.00
G1 X2825.00 Y3426.00
G1 X2862.00 Y3560.00
G1 X3014.00 Y3759.00
G1 X3177.00 Y3927.00
G1 X3184.00 Y4105.00
G1 X3191.00 Y4282.00
G1 X3273.00 Y4371.00
G1 X3383.00 Y4460.00
G1 X3456.00 Y4575.00
G1 X3373.00 Y4639.00
G1 X3322.00 Y4633.00
G1 X2719.00 Y3486.00
G1 X2723.00 Y3543.00
G1 X2758.00 Y3518.00
G0 X4150.00 Y4620.00
G1 X4124.00 Y4573.00
G1 X4048.00 Y4469.00
G1 X3980.00 Y4392.00
G1 X3980.00 Y4304.00
G1 X3980.00 Y4215.00
G1 X3720.00 Y3955.00
G1 X3460.00 Y3695.00
G1 X3460.00 Y3342.00
G1 X3460.00 Y2989.00
G1 X3280.00 Y2803.00
G1 X3100.00 Y2616.00
G1 X3100.00 Y2360.00
G1 X3100.00 Y2103.00
G1 X3062.00 Y2073.00
G1 X3057.00 Y1850.00
G1 X3260.00 Y1883.00
G1 X3224.00 Y2078.00
G1 X3207.00 Y2325.00
G1 X3203.00 Y2565.00
G1 X3343.00 Y2710.00
G1 X3527.00 Y2896.00
G1 X3570.00 Y2937.00
G1 X3570.00 Y3291.00
G1 X3571.00 Y3645.00
G1 X3829.00 Y3907.00
G1 X4088.00 Y4170.00
G1 X4092.00 Y4258.00
G1 X4137.00 Y4397.00
G1 X4214.00 Y4454.00
G1 X4300.00 Y4552.00
G1 X4150.00 Y4620.00
G1 X3138.00 Y1920.00
G1 X3120.00 Y1941.00
G1 X3121.00 Y1976.00
G1 X3168.00 Y1961.00
G0 X6005.00 Y4615.00
G1 X5990.00 Y4499.00
G1 X6078.00 Y4454.00
G1 X6143.00 Y4398.00
G1 X6190.00 Y4337.00
G1 X6190.00 Y4252.00
G1 X6190.00 Y4167.00
G1 X6443.00 Y3910.00
G1 X6697.00 Y3653.00
G1 X6704.00 Y3289.00
G1 X6711.00 Y2926.00
G1 X6886.00 Y2748.00
G1 X7060.00 Y2570.00
G1 X7060.00 Y2329.00
G1 X7060.00 Y2088.00
G1 X7034.00 Y2067.00
G1 X6980.00 Y1958.00
G1 X7054.00 Y1835.00
G1 X7260.00 Y1962.00
G1 X7195.00 Y2076.00
G1 X7170.00 Y2092.00
G1 X7170.00 Y2352.00
G1 X7170.00 Y2611.00
G1 X7103.00 Y2683.00
G1 X6929.00 Y2866.00
G1 X6821.00 Y2976.00
G1 X6814.00 Y3336.00
G1 X6807.00 Y3695.00
G1 X6556.00 Y3953.00
G1 X6298.00 Y4228.00
G1 X6297.00 Y4316.00
G1 X6303.00 Y4388.00
G1 X6239.00 Y4456.00
G1 X6163.00 Y4533.00
G1 X6150.00 Y4566.00
G1 X6005.00 Y4615.00
G1 X7134.00 Y1926.00
G1 X7102.00 Y1978.00
G1 X7134.00 Y1984.00
G0 X4830.00 Y4056.00
G1 X4838.00 Y3627.00
G1 X4925.00 Y3626.00
G1 X4948.00 Y4060.00
G1 X4951.00 Y4480.00
G1 X4890.00 Y4480.00
G1 X4830.00 Y4480.00
G1 X4830.00 Y4056.00
G0 X2742.00 Y4234.00
G1 X2720.00 Y4186.00
G1 X2788.00 Y4120.00
G1 X2835.00 Y4150.00
G1 X2824.00 Y4229.00
G1 X2742.00 Y4234.00
G0 X7437.00 Y4232.00
G1 X7438.00 Y4137.00
G1 X7540.00 Y4188.00
G1 X7437.00 Y4232.00
G0 X5330.00 Y3792.00
G1 X5390.00 Y3600.00
G1 X5438.00 Y3802.00
G1 X5435.00 Y3965.00
G1 X5383.00 Y3968.00
G1 X5330.00 Y3971.00
G1 X5330.00 Y3792.00
G0 X2430.00 Y3910.00
G1 X2433.00 Y3812.00
G1 X2525.00 Y3816.00
G1 X2527.00 Y3908.00
G1 X2430.00 Y3910.00
G0 X7736.00 Y3908.00
G1 X7746.00 Y3811.00
G1 X7831.00 Y3808.00
G1 X7853.00 Y3860.00
G1 X7736.00 Y3908.00
G0 X4317.00 Y3802.00
G1 X4289.00 Y3750.00
G1 X4175.00 Y3611.00
G1 X4032.00 Y3458.00
G1 X3992.00 Y3411.00
G1 X3996.00 Y3185.00
G1 X4000.00 Y2959.00
G1 X3822.00 Y2772.00
G1 X3608.00 Y2588.00
G1 X3460.00 Y2441.00
G1 X3499.00 Y2349.00
G1 X3588.00 Y2310.00
G1 X3727.00 Y2472.00
G1 X3730.00 Y2520.00
G1 X3923.00 Y2717.00
G1 X4108.00 Y2914.00
G1 X4103.00 Y3039.00
G1 X4105.00 Y3275.00
G1 X4112.00 Y3384.00
G1 X4238.00 Y3512.00
G1 X4381.00 Y3640.00
G1 X4461.00 Y3717.00
G1 X4375.00 Y3820.00
G1 X4317.00 Y3802.00
G1 X3573.00 Y2423.00
G1 X3592.00 Y2468.00
G1 X3618.00 Y2442.00
G0 X5842.00 Y3798.00
G1 X5820.00 Y3689.00
G1 X5893.00 Y3640.00
G1 X6045.00 Y3506.00
G1 X6172.00 Y3371.00
G1 X6169.00 Y3143.00
G1 X6176.00 Y2898.00
G1 X6367.00 Y2695.00
G1 X6550.00 Y2507.00
G1 X6544.00 Y2469.00
G1 X6614.00 Y2326.00
G1 X6820.00 Y2451.00
G1 X6673.00 Y2587.00
G1 X6567.00 Y2648.00
G1 X6393.00 Y2832.00
G1 X6280.00 Y2950.00
G1 X6278.00 Y3158.00
G1 X6230.00 Y3477.00
G1 X6000.00 Y3710.00
G1 X5990.00 Y3740.00
G1 X5842.00 Y3798.00
G1 X6664.00 Y2421.00
G1 X6662.00 Y2468.00
G1 X6708.00 Y2449.00
G0 X2198.00 Y3458.00
G1 X2189.00 Y3381.00
G1 X2263.00 Y3378.00
G1 X2198.00 Y3458.00
G0 X8007.00 Y3452.00
G1 X8008.00 Y3377.00
G1 X8079.00 Y3386.00
G1 X8080.00 Y3448.00
G1 X8007.00 Y3452.00
G0 X4353.00 Y3390.00
G1 X4390.00 Y3240.00
G1 X4470.00 Y3319.00
G1 X4439.00 Y3374.00
G1 X4353.00 Y3390.00
G0 X5839.00 Y3388.00
G1 X5800.00 Y3312.00
G1 X5880.00 Y3240.00
G1 X5960.00 Y3314.00
G1 X5839.00 Y3388.00
G0 X4847.00 Y3322.00
G1 X4830.00 Y2699.00
G1 X4830.00 Y2094.00
G1 X4795.00 Y2077.00
G1 X4728.00 Y1952.00
G1 X4990.00 Y1920.00
G1 X4960.00 Y2055.00
G1 X4940.00 Y2694.00
G1 X4930.00 Y3325.00
G1 X4847.00 Y3322.00
G1 X4860.00 Y1930.00
G1 X4834.00 Y1975.00
G1 X4880.00 Y1975.00
G0 X2202.00 Y3193.00
G1 X2185.00 Y3114.00
G1 X2280.00 Y3144.00
G1 X2202.00 Y3193.00
G0 X8012.00 Y3184.00
G1 X8023.00 Y3096.00
G1 X8088.00 Y3138.00
G1 X8068.00 Y3184.00
G1 X8040.00 Y3200.00
G1 X8012.00 Y3184.00
G0 X5340.00 Y3164.00
G1 X5326.00 Y3108.00
G1 X5352.00 Y3051.00
G1 X5435.00 Y3146.00
G1 X5387.00 Y3180.00
G1 X5340.00 Y3164.00
G0 X5357.00 Y2903.00
G1 X5329.00 Y2899.00
G1 X5332.00 Y2802.00
G1 X5335.00 Y2705.00
G1 X5388.00 Y2702.00
G1 X5440.00 Y2699.00
G1 X5440.00 Y2798.00
G1 X5424.00 Y2904.00
G1 X5357.00 Y2903.00
G0 X4106.00 Y2683.00
G1 X4038.00 Y2609.00
G1 X4078.00 Y2569.00
G1 X4119.00 Y2530.00
G1 X4182.00 Y2596.00
G1 X4248.00 Y2674.00
G1 X4181.00 Y2759.00
G1 X4106.00 Y2683.00
G0 X6052.00 Y2717.00
G1 X6020.00 Y2676.00
G1 X6136.00 Y2546.00
G1 X6185.00 Y2580.00
G1 X6222.00 Y2618.00
G1 X6160.00 Y2684.00
G1 X6091.00 Y2750.00
G1 X6052.00 Y2717.00
G0 X5338.00 Y2326.00
G1 X5343.00 Y2091.00
G1 X5312.00 Y2056.00
G1 X5340.00 Y1842.00
G1 X5417.00 Y1823.00
G1 X5532.00 Y1907.00
G1 X5540.00 Y1996.00
G1 X5462.00 Y2092.00
G1 X5447.00 Y2325.00
G1 X5441.00 Y2555.00
G1 X5387.00 Y2558.00
G1 X5333.00 Y2561.00
G1 X5338.00 Y2326.00
G1 X5412.00 Y1932.00
G1 X5384.00 Y1975.00
G1 X5428.00 Y1981.00
G0 X5598.00 Y2318.00
G1 X5574.00 Y2229.00
G1 X5690.00 Y2255.00
G1 X5650.00 Y2320.00
G1 X5628.00 Y2325.00
G1 X5598.00 Y2318.00
G0 X2726.00 Y2304.00
G1 X2732.00 Y2226.00
G1 X2803.00 Y2228.00
G1 X2726.00 Y2304.00
G0 X4602.00 Y2304.00
G1 X4580.00 Y2256.00
G1 X4689.00 Y2216.00
G1 X4685.00 Y2295.00
G1 X4602.00 Y2304.00
G0 X7466.00 Y2307.00
G1 X7452.00 Y2260.00
G1 X7550.00 Y2271.00
G1 X7466.00 Y2307.00
G0 X3906.00 Y2279.00
G1 X3941.00 Y2160.00
G1 X3999.00 Y2197.00
G1 X3985.00 Y2275.00
G1 X3906.00 Y2279.00
G0 X6285.00 Y2275.00
G1 X6283.00 Y2182.00
G1 X6393.00 Y2213.00
G1 X6327.00 Y2300.00
G1 X6285.00 Y2275.00
G0 X6630.00 Y1560.00
G1 X6667.00 Y1460.00
G1 X6720.00 Y1518.00
G1 X6665.00 Y1580.00
G1 X6630.00 Y1560.00
G0 X3560.00 Y1555.00
G1 X3606.00 Y1460.00
G1 X3660.00 Y1521.00
G1 X3560.00 Y1555.00
G0 X4730.00 Y1391.00
G1 X4746.00 Y1304.00
G1 X4798.00 Y1307.00
G1 X4811.00 Y1389.00
G1 X4730.00 Y1391.00
G0 X5467.00 Y1392.00
G1 X5469.00 Y1310.00
G1 X5544.00 Y1322.00
G1 X5540.00 Y1390.00
G1 X5467.00 Y1392.00
M2 ; End of program
