; G-code generated from SVG
G21 ; Set units to mm
G90 ; Absolute positioning
G0 X5185.00 Y9505.00
G1 X4976.00 Y9490.00
G1 X4711.00 Y9461.00
G1 X4528.00 Y9425.00
G1 X4245.00 Y9356.00
G1 X4110.00 Y9315.00
G1 X3942.00 Y9259.00
G1 X3782.00 Y9199.00
G1 X3358.00 Y8985.00
G1 X3281.00 Y8935.00
G1 X2829.00 Y8575.00
G1 X2326.00 Y8024.00
G1 X1940.00 Y7434.00
G1 X1885.00 Y7310.00
G1 X1730.00 Y6895.00
G1 X1711.00 Y6815.00
G1 X1639.00 Y6588.00
G1 X1589.00 Y6362.00
G1 X1500.00 Y5989.00
G1 X1480.00 Y5948.00
G1 X1430.00 Y5686.00
G1 X1425.00 Y5580.00
G1 X1418.00 Y5390.00
G1 X1415.00 Y5275.00
G1 X1368.00 Y5217.00
G1 X1315.00 Y5045.00
G1 X1351.00 Y4944.00
G1 X1380.00 Y4898.00
G1 X1395.00 Y4849.00
G1 X1389.00 Y4781.00
G1 X1373.00 Y4713.00
G1 X1364.00 Y4669.00
G1 X1346.00 Y4606.00
G1 X1332.00 Y4548.00
G1 X1320.00 Y4507.00
G1 X1294.00 Y4444.00
G1 X1274.00 Y4371.00
G1 X1246.00 Y4311.00
G1 X1200.00 Y4221.00
G1 X1185.00 Y4153.00
G1 X1181.00 Y4091.00
G1 X1166.00 Y4031.00
G1 X1139.00 Y3922.00
G1 X1125.00 Y3864.00
G1 X1116.00 Y3759.00
G1 X1117.00 Y3707.00
G1 X1090.00 Y3647.00
G1 X1095.00 Y3564.00
G1 X1096.00 Y3466.00
G1 X1097.00 Y3328.00
G1 X1111.00 Y3237.00
G1 X1129.00 Y3138.00
G1 X1149.00 Y3048.00
G1 X1179.00 Y2911.00
G1 X1195.00 Y2822.00
G1 X1222.00 Y2736.00
G1 X1250.00 Y2674.00
G1 X1274.00 Y2587.00
G1 X1306.00 Y2503.00
G1 X1374.00 Y2361.00
G1 X1424.00 Y2261.00
G1 X1524.00 Y2092.00
G1 X1572.00 Y2020.00
G1 X1698.00 Y1910.00
G1 X1793.00 Y1833.00
G1 X1930.00 Y1705.00
G1 X2120.00 Y1517.00
G1 X2161.00 Y1458.00
G1 X2195.00 Y1400.00
G1 X2197.00 Y1391.00
G1 X2230.00 Y1380.00
G1 X2219.00 Y1370.00
G1 X2194.00 Y1353.00
G1 X2180.00 Y1352.00
G1 X2166.00 Y1364.00
G1 X2178.00 Y1305.00
G1 X2200.00 Y1311.00
G1 X2214.00 Y1311.00
G1 X2211.00 Y1300.00
G1 X2204.00 Y1268.00
G1 X2225.00 Y1218.00
G1 X2230.00 Y1200.00
G1 X2209.00 Y1200.00
G1 X2203.00 Y1200.00
G1 X2220.00 Y1185.00
G1 X2257.00 Y1229.00
G1 X2275.00 Y1216.00
G1 X2310.00 Y1215.00
G1 X2290.00 Y1225.00
G1 X2275.00 Y1250.00
G1 X2310.00 Y1233.00
G1 X2329.00 Y1189.00
G1 X2332.00 Y1160.00
G1 X2337.00 Y1166.00
G1 X2341.00 Y1193.00
G1 X2361.00 Y1199.00
G1 X2383.00 Y1204.00
G1 X2420.00 Y1197.00
G1 X2411.00 Y1199.00
G1 X2391.00 Y1192.00
G1 X2392.00 Y1168.00
G1 X2410.00 Y1160.00
G1 X2429.00 Y1162.00
G1 X2452.00 Y1166.00
G1 X2450.00 Y1134.00
G1 X2449.00 Y1120.00
G1 X2460.00 Y1131.00
G1 X2475.00 Y1136.00
G1 X2503.00 Y1125.00
G1 X2528.00 Y1142.00
G1 X2539.00 Y1165.00
G1 X2539.00 Y1143.00
G1 X2518.00 Y1106.00
G1 X2502.00 Y1085.00
G1 X2533.00 Y1105.00
G1 X2560.00 Y1095.00
G1 X2564.00 Y1080.00
G1 X2580.00 Y1090.00
G1 X2611.00 Y1093.00
G1 X2647.00 Y1109.00
G1 X2660.00 Y1125.00
G1 X2663.00 Y1101.00
G1 X2691.00 Y1071.00
G1 X2722.00 Y1072.00
G1 X2723.00 Y1091.00
G1 X2745.00 Y1088.00
G1 X2747.00 Y1077.00
G1 X2760.00 Y1065.00
G1 X2780.00 Y1056.00
G1 X2790.00 Y1040.00
G1 X2800.00 Y1054.00
G1 X2835.00 Y1052.00
G1 X2858.00 Y1010.00
G1 X2853.00 Y1004.00
G1 X2883.00 Y1037.00
G1 X2900.00 Y1045.00
G1 X2915.00 Y1050.00
G1 X2879.00 Y1056.00
G1 X2857.00 Y1066.00
G1 X2876.00 Y1076.00
G1 X2890.00 Y1080.00
G1 X2900.00 Y1090.00
G1 X2908.00 Y1078.00
G1 X2923.00 Y1066.00
G1 X2930.00 Y1033.00
G1 X2920.00 Y1005.00
G1 X2940.00 Y1029.00
G1 X2975.00 Y1034.00
G1 X3015.00 Y1043.00
G1 X3040.00 Y1062.00
G1 X3020.00 Y1030.00
G1 X3010.00 Y990.00
G1 X3020.00 Y1000.00
G1 X3030.00 Y1010.00
G1 X3040.00 Y993.00
G1 X3050.00 Y990.00
G1 X3110.00 Y993.00
G1 X3121.00 Y980.00
G1 X3126.00 Y996.00
G1 X3132.00 Y1007.00
G1 X3143.00 Y979.00
G1 X3151.00 Y973.00
G1 X3170.00 Y990.00
G1 X3181.00 Y973.00
G1 X3190.00 Y980.00
G1 X3205.00 Y988.00
G1 X3226.00 Y986.00
G1 X3235.00 Y990.00
G1 X3239.00 Y964.00
G1 X3234.00 Y950.00
G1 X3261.00 Y983.00
G1 X3277.00 Y993.00
G1 X3298.00 Y993.00
G1 X3309.00 Y998.00
G1 X3333.00 Y993.00
G1 X3333.00 Y983.00
G1 X3362.00 Y982.00
G1 X3376.00 Y994.00
G1 X3390.00 Y965.00
G1 X3398.00 Y978.00
G1 X3394.00 Y990.00
G1 X3416.00 Y975.00
G1 X3455.00 Y970.00
G1 X3459.00 Y980.00
G1 X3470.00 Y965.00
G1 X3459.00 Y950.00
G1 X3455.00 Y940.00
G1 X3478.00 Y937.00
G1 X3485.00 Y964.00
G1 X3479.00 Y991.00
G1 X3478.00 Y1000.00
G1 X3497.00 Y984.00
G1 X3515.00 Y974.00
G1 X3525.00 Y962.00
G1 X3504.00 Y948.00
G1 X3504.00 Y936.00
G1 X3540.00 Y951.00
G1 X3550.00 Y970.00
G1 X3558.00 Y953.00
G1 X3578.00 Y932.00
G1 X3600.00 Y946.00
G1 X3616.00 Y949.00
G1 X3641.00 Y951.00
G1 X3644.00 Y940.00
G1 X3652.00 Y928.00
G1 X3700.00 Y912.00
G1 X3713.00 Y913.00
G1 X3753.00 Y900.00
G1 X3759.00 Y903.00
G1 X3770.00 Y920.00
G1 X3780.00 Y934.00
G1 X3790.00 Y955.00
G1 X3790.00 Y936.00
G1 X3787.00 Y910.00
G1 X3782.00 Y898.00
G1 X3770.00 Y876.00
G1 X3790.00 Y895.00
G1 X3816.00 Y907.00
G1 X3832.00 Y890.00
G1 X3835.00 Y900.00
G1 X3871.00 Y894.00
G1 X3896.00 Y864.00
G1 X3900.00 Y855.00
G1 X3904.00 Y889.00
G1 X3909.00 Y924.00
G1 X3914.00 Y916.00
G1 X3938.00 Y923.00
G1 X3944.00 Y915.00
G1 X3953.00 Y903.00
G1 X3973.00 Y903.00
G1 X3978.00 Y894.00
G1 X3990.00 Y916.00
G1 X4000.00 Y925.00
G1 X4003.00 Y905.00
G1 X4030.00 Y915.00
G1 X4052.00 Y934.00
G1 X4043.00 Y914.00
G1 X4044.00 Y885.00
G1 X4069.00 Y876.00
G1 X4061.00 Y889.00
G1 X4060.00 Y905.00
G1 X4080.00 Y900.00
G1 X4094.00 Y912.00
G1 X4101.00 Y935.00
G1 X4110.00 Y913.00
G1 X4129.00 Y903.00
G1 X4139.00 Y936.00
G1 X4143.00 Y910.00
G1 X4149.00 Y890.00
G1 X4160.00 Y899.00
G1 X4180.00 Y903.00
G1 X4200.00 Y909.00
G1 X4211.00 Y914.00
G1 X4212.00 Y901.00
G1 X4209.00 Y881.00
G1 X4225.00 Y889.00
G1 X4255.00 Y899.00
G1 X4244.00 Y874.00
G1 X4240.00 Y863.00
G1 X4267.00 Y891.00
G1 X4280.00 Y893.00
G1 X4321.00 Y876.00
G1 X4342.00 Y867.00
G1 X4337.00 Y847.00
G1 X4355.00 Y857.00
G1 X4374.00 Y862.00
G1 X4364.00 Y836.00
G1 X4359.00 Y820.00
G1 X4379.00 Y837.00
G1 X4396.00 Y848.00
G1 X4440.00 Y900.00
G1 X4454.00 Y901.00
G1 X4448.00 Y868.00
G1 X4436.00 Y842.00
G1 X4447.00 Y848.00
G1 X4462.00 Y860.00
G1 X4493.00 Y883.00
G1 X4494.00 Y855.00
G1 X4499.00 Y840.00
G1 X4510.00 Y855.00
G1 X4537.00 Y854.00
G1 X4562.00 Y852.00
G1 X4577.00 Y852.00
G1 X4611.00 Y872.00
G1 X4640.00 Y905.00
G1 X4629.00 Y872.00
G1 X4608.00 Y840.00
G1 X4605.00 Y830.00
G1 X4650.00 Y882.00
G1 X4659.00 Y881.00
G1 X4663.00 Y853.00
G1 X4669.00 Y840.00
G1 X4680.00 Y862.00
G1 X4693.00 Y865.00
G1 X4715.00 Y859.00
G1 X4711.00 Y883.00
G1 X4700.00 Y903.00
G1 X4719.00 Y889.00
G1 X4728.00 Y852.00
G1 X4725.00 Y832.00
G1 X4737.00 Y838.00
G1 X4757.00 Y850.00
G1 X4785.00 Y864.00
G1 X4827.00 Y874.00
G1 X4863.00 Y883.00
G1 X4869.00 Y875.00
G1 X4891.00 Y861.00
G1 X4906.00 Y868.00
G1 X4894.00 Y833.00
G1 X4909.00 Y840.00
G1 X4925.00 Y880.00
G1 X4933.00 Y878.00
G1 X4961.00 Y871.00
G1 X4984.00 Y854.00
G1 X4989.00 Y834.00
G1 X4995.00 Y851.00
G1 X5000.00 Y860.00
G1 X5007.00 Y873.00
G1 X5016.00 Y887.00
G1 X5024.00 Y866.00
G1 X5021.00 Y835.00
G1 X5036.00 Y859.00
G1 X5057.00 Y845.00
G1 X5078.00 Y839.00
G1 X5101.00 Y850.00
G1 X5120.00 Y865.00
G1 X5130.00 Y880.00
G1 X5140.00 Y860.00
G1 X5123.00 Y840.00
G1 X5120.00 Y830.00
G1 X5149.00 Y848.00
G1 X5176.00 Y888.00
G1 X5190.00 Y886.00
G1 X5213.00 Y883.00
G1 X5213.00 Y873.00
G1 X5225.00 Y850.00
G1 X5240.00 Y838.00
G1 X5246.00 Y833.00
G1 X5240.00 Y855.00
G1 X5270.00 Y855.00
G1 X5283.00 Y869.00
G1 X5277.00 Y880.00
G1 X5316.00 Y852.00
G1 X5335.00 Y848.00
G1 X5357.00 Y853.00
G1 X5365.00 Y865.00
G1 X5369.00 Y881.00
G1 X5389.00 Y874.00
G1 X5400.00 Y871.00
G1 X5390.00 Y855.00
G1 X5381.00 Y837.00
G1 X5387.00 Y837.00
G1 X5413.00 Y838.00
G1 X5421.00 Y844.00
G1 X5413.00 Y866.00
G1 X5445.00 Y830.00
G1 X5449.00 Y820.00
G1 X5460.00 Y830.00
G1 X5471.00 Y840.00
G1 X5474.00 Y818.00
G1 X5493.00 Y824.00
G1 X5514.00 Y862.00
G1 X5519.00 Y870.00
G1 X5530.00 Y858.00
G1 X5547.00 Y865.00
G1 X5557.00 Y863.00
G1 X5575.00 Y863.00
G1 X5587.00 Y873.00
G1 X5607.00 Y873.00
G1 X5621.00 Y886.00
G1 X5625.00 Y854.00
G1 X5610.00 Y828.00
G1 X5630.00 Y841.00
G1 X5659.00 Y851.00
G1 X5675.00 Y850.00
G1 X5669.00 Y871.00
G1 X5661.00 Y885.00
G1 X5691.00 Y866.00
G1 X5727.00 Y855.00
G1 X5740.00 Y877.00
G1 X5763.00 Y896.00
G1 X5800.00 Y855.00
G1 X5800.00 Y830.00
G1 X5810.00 Y841.00
G1 X5822.00 Y848.00
G1 X5860.00 Y880.00
G1 X5880.00 Y885.00
G1 X5900.00 Y889.00
G1 X5890.00 Y900.00
G1 X5880.00 Y912.00
G1 X5899.00 Y906.00
G1 X5912.00 Y872.00
G1 X5924.00 Y869.00
G1 X5936.00 Y897.00
G1 X5940.00 Y905.00
G1 X5945.00 Y872.00
G1 X5946.00 Y858.00
G1 X5965.00 Y870.00
G1 X5994.00 Y892.00
G1 X6016.00 Y907.00
G1 X6010.00 Y884.00
G1 X6011.00 Y859.00
G1 X6065.00 Y874.00
G1 X6094.00 Y892.00
G1 X6100.00 Y903.00
G1 X6116.00 Y913.00
G1 X6141.00 Y921.00
G1 X6150.00 Y916.00
G1 X6157.00 Y903.00
G1 X6178.00 Y897.00
G1 X6197.00 Y898.00
G1 X6217.00 Y910.00
G1 X6227.00 Y930.00
G1 X6230.00 Y950.00
G1 X6243.00 Y930.00
G1 X6239.00 Y910.00
G1 X6230.00 Y900.00
G1 X6270.00 Y913.00
G1 X6318.00 Y927.00
G1 X6340.00 Y908.00
G1 X6360.00 Y912.00
G1 X6376.00 Y937.00
G1 X6386.00 Y943.00
G1 X6400.00 Y929.00
G1 X6411.00 Y920.00
G1 X6415.00 Y930.00
G1 X6419.00 Y940.00
G1 X6430.00 Y925.00
G1 X6450.00 Y900.00
G1 X6470.00 Y900.00
G1 X6455.00 Y910.00
G1 X6457.00 Y948.00
G1 X6467.00 Y948.00
G1 X6470.00 Y930.00
G1 X6480.00 Y939.00
G1 X6496.00 Y954.00
G1 X6505.00 Y951.00
G1 X6510.00 Y935.00
G1 X6514.00 Y918.00
G1 X6519.00 Y914.00
G1 X6525.00 Y941.00
G1 X6528.00 Y958.00
G1 X6559.00 Y979.00
G1 X6580.00 Y992.00
G1 X6565.00 Y966.00
G1 X6550.00 Y946.00
G1 X6565.00 Y940.00
G1 X6580.00 Y930.00
G1 X6606.00 Y936.00
G1 X6618.00 Y961.00
G1 X6618.00 Y970.00
G1 X6637.00 Y950.00
G1 X6651.00 Y930.00
G1 X6654.00 Y945.00
G1 X6677.00 Y949.00
G1 X6709.00 Y959.00
G1 X6741.00 Y980.00
G1 X6744.00 Y992.00
G1 X6748.00 Y996.00
G1 X6750.00 Y969.00
G1 X6768.00 Y930.00
G1 X6766.00 Y943.00
G1 X6765.00 Y964.00
G1 X6795.00 Y960.00
G1 X6814.00 Y959.00
G1 X6808.00 Y973.00
G1 X6818.00 Y979.00
G1 X6828.00 Y1003.00
G1 X6837.00 Y1004.00
G1 X6862.00 Y1011.00
G1 X6888.00 Y1009.00
G1 X6920.00 Y1010.00
G1 X6930.00 Y1015.00
G1 X6920.00 Y990.00
G1 X6898.00 Y988.00
G1 X6860.00 Y983.00
G1 X6872.00 Y978.00
G1 X6897.00 Y968.00
G1 X6910.00 Y958.00
G1 X6933.00 Y966.00
G1 X6943.00 Y966.00
G1 X6939.00 Y1000.00
G1 X6952.00 Y988.00
G1 X6969.00 Y998.00
G1 X7000.00 Y1005.00
G1 X6990.00 Y990.00
G1 X6980.00 Y973.00
G1 X6995.00 Y974.00
G1 X7037.00 Y975.00
G1 X7057.00 Y965.00
G1 X7067.00 Y992.00
G1 X7072.00 Y1022.00
G1 X7060.00 Y1044.00
G1 X7075.00 Y1034.00
G1 X7097.00 Y1027.00
G1 X7123.00 Y1025.00
G1 X7131.00 Y1006.00
G1 X7117.00 Y1012.00
G1 X7105.00 Y1017.00
G1 X7108.00 Y998.00
G1 X7139.00 Y1004.00
G1 X7179.00 Y1011.00
G1 X7210.00 Y1016.00
G1 X7230.00 Y1025.00
G1 X7250.00 Y1030.00
G1 X7240.00 Y1035.00
G1 X7247.00 Y1061.00
G1 X7256.00 Y1062.00
G1 X7264.00 Y1035.00
G1 X7286.00 Y1035.00
G1 X7290.00 Y1050.00
G1 X7300.00 Y1066.00
G1 X7309.00 Y1076.00
G1 X7323.00 Y1082.00
G1 X7334.00 Y1088.00
G1 X7320.00 Y1060.00
G1 X7305.00 Y1032.00
G1 X7319.00 Y1039.00
G1 X7339.00 Y1046.00
G1 X7353.00 Y1087.00
G1 X7362.00 Y1094.00
G1 X7366.00 Y1075.00
G1 X7376.00 Y1056.00
G1 X7420.00 Y1065.00
G1 X7397.00 Y1068.00
G1 X7384.00 Y1063.00
G1 X7404.00 Y1097.00
G1 X7425.00 Y1101.00
G1 X7446.00 Y1098.00
G1 X7460.00 Y1098.00
G1 X7450.00 Y1075.00
G1 X7441.00 Y1057.00
G1 X7447.00 Y1058.00
G1 X7466.00 Y1070.00
G1 X7475.00 Y1081.00
G1 X7490.00 Y1097.00
G1 X7506.00 Y1129.00
G1 X7510.00 Y1138.00
G1 X7558.00 Y1143.00
G1 X7569.00 Y1146.00
G1 X7586.00 Y1134.00
G1 X7616.00 Y1129.00
G1 X7649.00 Y1157.00
G1 X7645.00 Y1178.00
G1 X7657.00 Y1173.00
G1 X7680.00 Y1171.00
G1 X7695.00 Y1196.00
G1 X7685.00 Y1157.00
G1 X7686.00 Y1134.00
G1 X7700.00 Y1159.00
G1 X7710.00 Y1170.00
G1 X7721.00 Y1188.00
G1 X7727.00 Y1192.00
G1 X7712.00 Y1145.00
G1 X7705.00 Y1116.00
G1 X7735.00 Y1157.00
G1 X7771.00 Y1197.00
G1 X7784.00 Y1223.00
G1 X7794.00 Y1228.00
G1 X7803.00 Y1193.00
G1 X7813.00 Y1192.00
G1 X7830.00 Y1222.00
G1 X7850.00 Y1211.00
G1 X7870.00 Y1199.00
G1 X7879.00 Y1206.00
G1 X7893.00 Y1220.00
G1 X7889.00 Y1246.00
G1 X7880.00 Y1236.00
G1 X7870.00 Y1220.00
G1 X7869.00 Y1249.00
G1 X7889.00 Y1256.00
G1 X7920.00 Y1280.00
G1 X7899.00 Y1280.00
G1 X7894.00 Y1284.00
G1 X7887.00 Y1297.00
G1 X7859.00 Y1302.00
G1 X7862.00 Y1306.00
G1 X7885.00 Y1311.00
G1 X7906.00 Y1305.00
G1 X7931.00 Y1290.00
G1 X7928.00 Y1313.00
G1 X7925.00 Y1319.00
G1 X7950.00 Y1309.00
G1 X7953.00 Y1293.00
G1 X7940.00 Y1279.00
G1 X7918.00 Y1240.00
G1 X7902.00 Y1204.00
G1 X7925.00 Y1224.00
G1 X7966.00 Y1250.00
G1 X7990.00 Y1261.00
G1 X7970.00 Y1265.00
G1 X7956.00 Y1275.00
G1 X7978.00 Y1285.00
G1 X7977.00 Y1297.00
G1 X7970.00 Y1330.00
G1 X7971.00 Y1365.00
G1 X7954.00 Y1371.00
G1 X7939.00 Y1369.00
G1 X7930.00 Y1372.00
G1 X7943.00 Y1393.00
G1 X7949.00 Y1404.00
G1 X7923.00 Y1390.00
G1 X7898.00 Y1398.00
G1 X7881.00 Y1393.00
G1 X7843.00 Y1386.00
G1 X7835.00 Y1408.00
G1 X7847.00 Y1403.00
G1 X7861.00 Y1390.00
G1 X7865.00 Y1400.00
G1 X7869.00 Y1410.00
G1 X7880.00 Y1420.00
G1 X7864.00 Y1423.00
G1 X7980.00 Y1572.00
G1 X8145.00 Y1753.00
G1 X8234.00 Y1827.00
G1 X8486.00 Y2125.00
G1 X8563.00 Y2205.00
G1 X8670.00 Y2353.00
G1 X8700.00 Y2427.00
G1 X8726.00 Y2489.00
G1 X8745.00 Y2540.00
G1 X8840.00 Y2750.00
G1 X8875.00 Y2826.00
G1 X8911.00 Y2928.00
G1 X8953.00 Y3117.00
G1 X8970.00 Y3163.00
G1 X8986.00 Y3235.00
G1 X9000.00 Y3348.00
G1 X9005.00 Y3461.00
G1 X9001.00 Y3528.00
G1 X9010.00 Y3584.00
G1 X9020.00 Y3742.00
G1 X9006.00 Y3925.00
G1 X8988.00 Y4016.00
G1 X8977.00 Y4068.00
G1 X8967.00 Y4111.00
G1 X8957.00 Y4160.00
G1 X8927.00 Y4226.00
G1 X8888.00 Y4319.00
G1 X8859.00 Y4393.00
G1 X8838.00 Y4432.00
G1 X8823.00 Y4478.00
G1 X8804.00 Y4525.00
G1 X8802.00 Y4587.00
G1 X8783.00 Y4646.00
G1 X8769.00 Y4692.00
G1 X8762.00 Y4733.00
G1 X8747.00 Y4791.00
G1 X8775.00 Y4861.00
G1 X8850.00 Y5016.00
G1 X8804.00 Y5222.00
G1 X8764.00 Y5409.00
G1 X8766.00 Y5745.00
G1 X8762.00 Y5887.00
G1 X8745.00 Y5953.00
G1 X8715.00 Y6106.00
G1 X8565.00 Y6830.00
G1 X8093.00 Y7905.00
G1 X7955.00 Y8101.00
G1 X7714.00 Y8395.00
G1 X7590.00 Y8530.00
G1 X7485.00 Y8639.00
G1 X7375.00 Y8747.00
G1 X7035.00 Y8993.00
G1 X6300.00 Y9323.00
G1 X6115.00 Y9374.00
G1 X5950.00 Y9411.00
G1 X5770.00 Y9445.00
G1 X5560.00 Y9484.00
G1 X5185.00 Y9505.00
G1 X5601.00 Y9446.00
G1 X5634.00 Y9441.00
G1 X5646.00 Y9447.00
G1 X5710.00 Y9435.00
G1 X6073.00 Y9310.00
G1 X6105.00 Y9288.00
G1 X6075.00 Y9314.00
G1 X5996.00 Y9365.00
G1 X6012.00 Y9376.00
G1 X6100.00 Y9356.00
G1 X6401.00 Y9218.00
G1 X6523.00 Y9116.00
G1 X6588.00 Y9060.00
G1 X6395.00 Y9242.00
G1 X6360.00 Y9285.00
G1 X6579.00 Y9195.00
G1 X6794.00 Y9000.00
G1 X6821.00 Y8965.00
G1 X6799.00 Y9000.00
G1 X6701.00 Y9114.00
G1 X6660.00 Y9175.00
G1 X6836.00 Y9026.00
G1 X6880.00 Y8973.00
G1 X6807.00 Y9088.00
G1 X6894.00 Y9051.00
G1 X6978.00 Y8980.00
G1 X6995.00 Y8973.00
G1 X6975.00 Y9010.00
G1 X7127.00 Y8876.00
G1 X7173.00 Y8815.00
G1 X7128.00 Y8895.00
G1 X7120.00 Y8912.00
G1 X7221.00 Y8826.00
G1 X7244.00 Y8816.00
G1 X7232.00 Y8845.00
G1 X7391.00 Y8690.00
G1 X7423.00 Y8657.00
G1 X7447.00 Y8652.00
G1 X7569.00 Y8497.00
G1 X7597.00 Y8454.00
G1 X7585.00 Y8490.00
G1 X7578.00 Y8516.00
G1 X7722.00 Y8305.00
G1 X7734.00 Y8304.00
G1 X7713.00 Y8366.00
G1 X7841.00 Y8196.00
G1 X7860.00 Y8183.00
G1 X7978.00 Y8022.00
G1 X8025.00 Y7945.00
G1 X8078.00 Y7877.00
G1 X8112.00 Y7832.00
G1 X8146.00 Y7791.00
G1 X8209.00 Y7686.00
G1 X8415.00 Y7215.00
G1 X8462.00 Y6920.00
G1 X8469.00 Y6960.00
G1 X8475.00 Y7045.00
G1 X8498.00 Y6964.00
G1 X8520.00 Y6714.00
G1 X8505.00 Y6440.00
G1 X8495.00 Y6310.00
G1 X8532.00 Y6678.00
G1 X8535.00 Y6828.00
G1 X8581.00 Y6656.00
G1 X8589.00 Y6640.00
G1 X8659.00 Y6325.00
G1 X8690.00 Y5952.00
G1 X8664.00 Y5944.00
G1 X8645.00 Y5938.00
G1 X8609.00 Y5879.00
G1 X8615.00 Y5872.00
G1 X8675.00 Y5879.00
G1 X8702.00 Y5918.00
G1 X8708.00 Y5950.00
G1 X8724.00 Y5878.00
G1 X8540.00 Y5840.00
G1 X8415.00 Y5833.00
G1 X8520.00 Y5832.00
G1 X8660.00 Y5839.00
G1 X8715.00 Y5840.00
G1 X8706.00 Y5821.00
G1 X8591.00 Y5795.00
G1 X8505.00 Y5781.00
G1 X8591.00 Y5785.00
G1 X8709.00 Y5801.00
G1 X8747.00 Y5806.00
G1 X8673.00 Y5764.00
G1 X8615.00 Y5751.00
G1 X8682.00 Y5754.00
G1 X8749.00 Y5758.00
G1 X8735.00 Y5730.00
G1 X8343.00 Y5712.00
G1 X8339.00 Y5740.00
G1 X8372.00 Y5730.00
G1 X8358.00 Y5746.00
G1 X8348.00 Y5775.00
G1 X8363.00 Y5776.00
G1 X8353.00 Y5807.00
G1 X8420.00 Y5795.00
G1 X8465.00 Y5790.00
G1 X8411.00 Y5805.00
G1 X8343.00 Y5831.00
G1 X8349.00 Y5850.00
G1 X8392.00 Y5841.00
G1 X8387.00 Y5850.00
G1 X8330.00 Y5909.00
G1 X8330.00 Y5935.00
G1 X8343.00 Y5910.00
G1 X8380.00 Y5883.00
G1 X8393.00 Y5886.00
G1 X8415.00 Y6034.00
G1 X8424.00 Y6090.00
G1 X8383.00 Y6010.00
G1 X8373.00 Y6105.00
G1 X8400.00 Y6324.00
G1 X8417.00 Y6436.00
G1 X8389.00 Y6325.00
G1 X8359.00 Y6210.00
G1 X8333.00 Y6439.00
G1 X8324.00 Y6597.00
G1 X8309.00 Y6635.00
G1 X8313.00 Y6572.00
G1 X8308.00 Y6518.00
G1 X8270.00 Y6730.00
G1 X8261.00 Y6780.00
G1 X8254.00 Y6755.00
G1 X8241.00 Y6778.00
G1 X8195.00 Y7110.00
G1 X8169.00 Y7385.00
G1 X8170.00 Y7310.00
G1 X8178.00 Y7110.00
G1 X8175.00 Y6996.00
G1 X8138.00 Y7087.00
G1 X8019.00 Y7615.00
G1 X7993.00 Y7750.00
G1 X7994.00 Y7710.00
G1 X8011.00 Y7590.00
G1 X8034.00 Y7427.00
G1 X8039.00 Y7347.00
G1 X7915.00 Y7640.00
G1 X7896.00 Y7630.00
G1 X7901.00 Y7595.00
G1 X7876.00 Y7642.00
G1 X7830.00 Y7763.00
G1 X7781.00 Y7916.00
G1 X7740.00 Y8048.00
G1 X7723.00 Y8096.00
G1 X7755.00 Y7953.00
G1 X7797.00 Y7795.00
G1 X7801.00 Y7775.00
G1 X7785.00 Y7795.00
G1 X7644.00 Y8110.00
G1 X7601.00 Y8227.00
G1 X7660.00 Y8006.00
G1 X7676.00 Y7943.00
G1 X7596.00 Y8075.00
G1 X7580.00 Y8085.00
G1 X7579.00 Y8065.00
G1 X7470.00 Y8299.00
G1 X7443.00 Y8353.00
G1 X7474.00 Y8244.00
G1 X7486.00 Y8174.00
G1 X7350.00 Y8443.00
G1 X7324.00 Y8497.00
G1 X7399.00 Y8286.00
G1 X7416.00 Y8233.00
G1 X7285.00 Y8442.00
G1 X7233.00 Y8526.00
G1 X7265.00 Y8445.00
G1 X7297.00 Y8363.00
G1 X7256.00 Y8400.00
G1 X7211.00 Y8440.00
G1 X6933.00 Y8877.00
G1 X6890.00 Y8945.00
G1 X7075.00 Y8595.00
G1 X7103.00 Y8545.00
G1 X7061.00 Y8585.00
G1 X6988.00 Y8673.00
G1 X6954.00 Y8720.00
G1 X7012.00 Y8608.00
G1 X7025.00 Y8580.00
G1 X6874.00 Y8728.00
G1 X6614.00 Y9040.00
G1 X6631.00 Y9010.00
G1 X6865.00 Y8710.00
G1 X6717.00 Y8844.00
G1 X6699.00 Y8856.00
G1 X6674.00 Y8851.00
G1 X6655.00 Y8858.00
G1 X6705.00 Y8810.00
G1 X6721.00 Y8781.00
G1 X6603.00 Y8878.00
G1 X6546.00 Y8918.00
G1 X6545.00 Y8871.00
G1 X6228.00 Y9083.00
G1 X6020.00 Y9237.00
G1 X6083.00 Y9185.00
G1 X6215.00 Y9075.00
G1 X6318.00 Y8987.00
G1 X6345.00 Y8960.00
G1 X5945.00 Y9188.00
G1 X5859.00 Y9237.00
G1 X6094.00 Y9075.00
G1 X6059.00 Y9065.00
G1 X5911.00 Y9111.00
G1 X5728.00 Y9170.00
G1 X5670.00 Y9180.00
G1 X5695.00 Y9156.00
G1 X5364.00 Y9256.00
G1 X5234.00 Y9297.00
G1 X5508.00 Y9185.00
G1 X5468.00 Y9167.00
G1 X5115.00 Y9259.00
G1 X4811.00 Y9330.00
G1 X4925.00 Y9295.00
G1 X5140.00 Y9232.00
G1 X5225.00 Y9202.00
G1 X5142.00 Y9201.00
G1 X4987.00 Y9210.00
G1 X4820.00 Y9235.00
G1 X4645.00 Y9254.00
G1 X4680.00 Y9241.00
G1 X4880.00 Y9210.00
G1 X4925.00 Y9171.00
G1 X4657.00 Y9169.00
G1 X4463.00 Y9177.00
G1 X4731.00 Y9149.00
G1 X4775.00 Y9147.00
G1 X4720.00 Y9138.00
G1 X4620.00 Y9114.00
G1 X4545.00 Y9105.00
G1 X4445.00 Y9101.00
G1 X4375.00 Y9093.00
G1 X4450.00 Y9091.00
G1 X4160.00 Y9030.00
G1 X3965.00 Y9016.00
G1 X4070.00 Y9011.00
G1 X4176.00 Y8994.00
G1 X3981.00 Y8950.00
G1 X3415.00 Y8818.00
G1 X2960.00 Y8619.00
G1 X3030.00 Y8649.00
G1 X3445.00 Y8818.00
G1 X3815.00 Y8900.00
G1 X3970.00 Y8925.00
G1 X3937.00 Y8902.00
G1 X3862.00 Y8877.00
G1 X3820.00 Y8871.00
G1 X3835.00 Y8865.00
G1 X3875.00 Y8870.00
G1 X3833.00 Y8850.00
G1 X3496.00 Y8743.00
G1 X3377.00 Y8703.00
G1 X3645.00 Y8765.00
G1 X3665.00 Y8772.00
G1 X3645.00 Y8759.00
G1 X3574.00 Y8713.00
G1 X3314.00 Y8596.00
G1 X2930.00 Y8426.00
G1 X2988.00 Y8447.00
G1 X3378.00 Y8596.00
G1 X3337.00 Y8564.00
G1 X3077.00 Y8362.00
G1 X2852.00 Y8181.00
G1 X2730.00 Y8093.00
G1 X2844.00 Y8158.00
G1 X2895.00 Y8193.00
G1 X2835.00 Y8131.00
G1 X2673.00 Y7987.00
G1 X2575.00 Y7902.00
G1 X2645.00 Y7944.00
G1 X2704.00 Y7978.00
G1 X2245.00 Y7510.00
G1 X1898.00 Y7160.00
G1 X1843.00 Y7088.00
G1 X1795.00 Y7010.00
G1 X1763.00 Y6954.00
G1 X1882.00 Y7257.00
G1 X2034.00 Y7469.00
G1 X2105.00 Y7570.00
G1 X2018.00 Y7472.00
G1 X1964.00 Y7413.00
G1 X2030.00 Y7574.00
G1 X2359.00 Y8010.00
G1 X2400.00 Y8041.00
G1 X2435.00 Y8072.00
G1 X2402.00 Y8050.00
G1 X2365.00 Y8032.00
G1 X2553.00 Y8258.00
G1 X2673.00 Y8361.00
G1 X2720.00 Y8397.00
G1 X2695.00 Y8386.00
G1 X2663.00 Y8370.00
G1 X2813.00 Y8521.00
G1 X2855.00 Y8560.00
G1 X3078.00 Y8767.00
G1 X3206.00 Y8862.00
G1 X3322.00 Y8937.00
G1 X3462.00 Y9019.00
G1 X3780.00 Y9176.00
G1 X3955.00 Y9241.00
G1 X4140.00 Y9301.00
G1 X4276.00 Y9341.00
G1 X4660.00 Y9411.00
G1 X4710.00 Y9419.00
G1 X4675.00 Y9426.00
G1 X4720.00 Y9439.00
G1 X4780.00 Y9457.00
G1 X5467.00 Y9471.00
G1 X5538.00 Y9143.00
G1 X6115.00 Y9022.00
G1 X6895.00 Y8651.00
G1 X7030.00 Y8555.00
G1 X7294.00 Y8328.00
G1 X7732.00 Y7832.00
G1 X7974.00 Y7416.00
G1 X8023.00 Y7323.00
G1 X8086.00 Y7169.00
G1 X8147.00 Y7000.00
G1 X8251.00 Y6637.00
G1 X8290.00 Y6497.00
G1 X8310.00 Y6365.00
G1 X8324.00 Y6230.00
G1 X8343.00 Y6085.00
G1 X8328.00 Y5962.00
G1 X8307.00 Y5682.00
G1 X8309.00 Y5386.00
G1 X8252.00 Y5320.00
G1 X8225.00 Y5340.00
G1 X8215.00 Y5360.00
G1 X8207.00 Y5372.00
G1 X8205.00 Y5433.00
G1 X8210.00 Y5450.00
G1 X8211.00 Y5460.00
G1 X8203.00 Y5475.00
G1 X8199.00 Y5496.00
G1 X8194.00 Y5515.00
G1 X8189.00 Y5532.00
G1 X8177.00 Y5563.00
G1 X8168.00 Y5590.00
G1 X8160.00 Y5605.00
G1 X8150.00 Y5620.00
G1 X8146.00 Y5635.00
G1 X8141.00 Y5650.00
G1 X8131.00 Y5663.00
G1 X8113.00 Y5713.00
G1 X8104.00 Y5725.00
G1 X8099.00 Y5750.00
G1 X8080.00 Y5886.00
G1 X8048.00 Y6090.00
G1 X8030.00 Y6115.00
G1 X7983.00 Y6125.00
G1 X7841.00 Y6015.00
G1 X7773.00 Y5968.00
G1 X7754.00 Y5969.00
G1 X7720.00 Y5981.00
G1 X7700.00 Y5996.00
G1 X7683.00 Y6001.00
G1 X7674.00 Y6000.00
G1 X7666.00 Y6004.00
G1 X7661.00 Y6031.00
G1 X7651.00 Y6043.00
G1 X7617.00 Y6079.00
G1 X7597.00 Y6103.00
G1 X7590.00 Y6117.00
G1 X7569.00 Y6143.00
G1 X7555.00 Y6169.00
G1 X7553.00 Y6202.00
G1 X7545.00 Y6230.00
G1 X7528.00 Y6244.00
G1 X7510.00 Y6261.00
G1 X7500.00 Y6280.00
G1 X7490.00 Y6302.00
G1 X7478.00 Y6312.00
G1 X7450.00 Y6316.00
G1 X7440.00 Y6325.00
G1 X7430.00 Y6335.00
G1 X7416.00 Y6347.00
G1 X7395.00 Y6358.00
G1 X7380.00 Y6360.00
G1 X7370.00 Y6364.00
G1 X7355.00 Y6370.00
G1 X7340.00 Y6376.00
G1 X7330.00 Y6380.00
G1 X7305.00 Y6385.00
G1 X7292.00 Y6381.00
G1 X7346.00 Y6336.00
G1 X7414.00 Y6298.00
G1 X7441.00 Y6280.00
G1 X7450.00 Y6267.00
G1 X7473.00 Y6245.00
G1 X7500.00 Y6188.00
G1 X7498.00 Y6146.00
G1 X7490.00 Y6164.00
G1 X7394.00 Y6147.00
G1 X7367.00 Y6120.00
G1 X7392.00 Y6120.00
G1 X7470.00 Y6053.00
G1 X7383.00 Y5964.00
G1 X7364.00 Y5955.00
G1 X7334.00 Y5940.00
G1 X7310.00 Y5930.00
G1 X7298.00 Y5922.00
G1 X7200.00 Y5900.00
G1 X7125.00 Y5923.00
G1 X6933.00 Y5934.00
G1 X6906.00 Y5896.00
G1 X6860.00 Y5890.00
G1 X6859.00 Y5900.00
G1 X6850.00 Y5920.00
G1 X6833.00 Y5947.00
G1 X6817.00 Y5965.00
G1 X6798.00 Y5992.00
G1 X6780.00 Y6015.00
G1 X6760.00 Y6040.00
G1 X6749.00 Y6066.00
G1 X6744.00 Y6096.00
G1 X6736.00 Y6120.00
G1 X6718.00 Y6145.00
G1 X6722.00 Y6170.00
G1 X6703.00 Y6209.00
G1 X6683.00 Y6208.00
G1 X6700.00 Y6140.00
G1 X6656.00 Y6208.00
G1 X6601.00 Y6305.00
G1 X6653.00 Y6392.00
G1 X6670.00 Y6401.00
G1 X6563.00 Y6382.00
G1 X6541.00 Y6379.00
G1 X6537.00 Y6409.00
G1 X6533.00 Y6413.00
G1 X6508.00 Y6419.00
G1 X6489.00 Y6448.00
G1 X6369.00 Y6328.00
G1 X6345.00 Y6164.00
G1 X6355.00 Y6213.00
G1 X6442.00 Y6400.00
G1 X6472.00 Y6422.00
G1 X6511.00 Y6384.00
G1 X6670.00 Y6116.00
G1 X6612.00 Y6175.00
G1 X6600.00 Y6177.00
G1 X6646.00 Y6093.00
G1 X6668.00 Y6092.00
G1 X6701.00 Y6061.00
G1 X6732.00 Y6020.00
G1 X6740.00 Y6007.00
G1 X6760.00 Y5975.00
G1 X6740.00 Y5940.00
G1 X6700.00 Y5929.00
G1 X6719.00 Y5925.00
G1 X6790.00 Y5906.00
G1 X6826.00 Y5861.00
G1 X6856.00 Y5814.00
G1 X6860.00 Y5798.00
G1 X6882.00 Y5708.00
G1 X6890.00 Y5690.00
G1 X6889.00 Y5663.00
G1 X6889.00 Y5632.00
G1 X6893.00 Y5613.00
G1 X6901.00 Y5589.00
G1 X6900.00 Y5580.00
G1 X6910.00 Y5559.00
G1 X6935.00 Y5539.00
G1 X6910.00 Y5545.00
G1 X6885.00 Y5551.00
G1 X6910.00 Y5531.00
G1 X6935.00 Y5511.00
G1 X6910.00 Y5517.00
G1 X6905.00 Y5506.00
G1 X6898.00 Y5493.00
G1 X6870.00 Y5497.00
G1 X6895.00 Y5474.00
G1 X6905.00 Y5444.00
G1 X6901.00 Y5427.00
G1 X6897.00 Y5419.00
G1 X6880.00 Y5423.00
G1 X6830.00 Y5370.00
G1 X6831.00 Y5353.00
G1 X6818.00 Y5343.00
G1 X6785.00 Y5340.00
G1 X6759.00 Y5330.00
G1 X6740.00 Y5320.00
G1 X6825.00 Y5319.00
G1 X6884.00 Y5309.00
G1 X6887.00 Y5300.00
G1 X6916.00 Y5285.00
G1 X6910.00 Y5276.00
G1 X6920.00 Y5265.00
G1 X6937.00 Y5241.00
G1 X6944.00 Y5222.00
G1 X6964.00 Y5195.00
G1 X6976.00 Y5179.00
G1 X6981.00 Y5173.00
G1 X6981.00 Y5159.00
G1 X6981.00 Y5150.00
G1 X6980.00 Y5135.00
G1 X6979.00 Y5119.00
G1 X6985.00 Y5110.00
G1 X6965.00 Y5100.00
G1 X6925.00 Y5098.00
G1 X6963.00 Y5088.00
G1 X6974.00 Y5060.00
G1 X6955.00 Y5050.00
G1 X6973.00 Y5046.00
G1 X7005.00 Y5036.00
G1 X7000.00 Y5027.00
G1 X7010.00 Y5001.00
G1 X7015.00 Y4985.00
G1 X6950.00 Y5021.00
G1 X6935.00 Y5028.00
G1 X7050.00 Y4908.00
G1 X7072.00 Y4867.00
G1 X7093.00 Y4835.00
G1 X7060.00 Y4865.00
G1 X7075.00 Y4828.00
G1 X7090.00 Y4800.00
G1 X7054.00 Y4828.00
G1 X7035.00 Y4833.00
G1 X7031.00 Y4810.00
G1 X7020.00 Y4821.00
G1 X7000.00 Y4825.00
G1 X6981.00 Y4827.00
G1 X6966.00 Y4834.00
G1 X6936.00 Y4835.00
G1 X6920.00 Y4833.00
G1 X6914.00 Y4810.00
G1 X6889.00 Y4833.00
G1 X6871.00 Y4855.00
G1 X6870.00 Y4833.00
G1 X6842.00 Y4833.00
G1 X6831.00 Y4855.00
G1 X6831.00 Y4831.00
G1 X6815.00 Y4826.00
G1 X6800.00 Y4825.00
G1 X6785.00 Y4835.00
G1 X6772.00 Y4865.00
G1 X6771.00 Y4838.00
G1 X6759.00 Y4810.00
G1 X6756.00 Y4798.00
G1 X6746.00 Y4793.00
G1 X6723.00 Y4785.00
G1 X6704.00 Y4781.00
G1 X6690.00 Y4781.00
G1 X6653.00 Y4741.00
G1 X6635.00 Y4740.00
G1 X6594.00 Y4730.00
G1 X6545.00 Y4762.00
G1 X6528.00 Y4770.00
G1 X6493.00 Y4742.00
G1 X6407.00 Y4793.00
G1 X6393.00 Y4825.00
G1 X6387.00 Y4798.00
G1 X6360.00 Y4785.00
G1 X6350.00 Y4800.00
G1 X6335.00 Y4906.00
G1 X6366.00 Y4967.00
G1 X6390.00 Y5000.00
G1 X6446.00 Y5045.00
G1 X6566.00 Y5087.00
G1 X6625.00 Y5100.00
G1 X6599.00 Y5103.00
G1 X6569.00 Y5111.00
G1 X6560.00 Y5113.00
G1 X6538.00 Y5100.00
G1 X6320.00 Y4929.00
G1 X6270.00 Y4920.00
G1 X6260.00 Y4920.00
G1 X6250.00 Y4929.00
G1 X6237.00 Y4935.00
G1 X6217.00 Y4941.00
G1 X6200.00 Y4954.00
G1 X6225.00 Y4891.00
G1 X6261.00 Y4811.00
G1 X6265.00 Y4766.00
G1 X6238.00 Y4757.00
G1 X6224.00 Y4767.00
G1 X6219.00 Y4681.00
G1 X6197.00 Y4658.00
G1 X6185.00 Y4681.00
G1 X6172.00 Y4703.00
G1 X6165.00 Y4679.00
G1 X6137.00 Y4639.00
G1 X6095.00 Y4649.00
G1 X6067.00 Y4690.00
G1 X6061.00 Y4679.00
G1 X6042.00 Y4636.00
G1 X5989.00 Y4634.00
G1 X5940.00 Y4643.00
G1 X5939.00 Y4648.00
G1 X5945.00 Y4679.00
G1 X5920.00 Y4681.00
G1 X5910.00 Y4655.00
G1 X5854.00 Y4714.00
G1 X5828.00 Y4743.00
G1 X5813.00 Y4779.00
G1 X5809.00 Y4812.00
G1 X5815.00 Y4853.00
G1 X5842.00 Y4884.00
G1 X5847.00 Y4887.00
G1 X5854.00 Y4916.00
G1 X5857.00 Y4950.00
G1 X5860.00 Y4953.00
G1 X5887.00 Y4955.00
G1 X5892.00 Y4976.00
G1 X5896.00 Y4972.00
G1 X5946.00 Y4979.00
G1 X6096.00 Y4999.00
G1 X6140.00 Y4978.00
G1 X6150.00 Y4970.00
G1 X6160.00 Y4984.00
G1 X6062.00 Y5023.00
G1 X6023.00 Y5033.00
G1 X5980.00 Y5030.00
G1 X5969.00 Y5020.00
G1 X5964.00 Y5035.00
G1 X5942.00 Y5045.00
G1 X5915.00 Y5040.00
G1 X5945.00 Y5055.00
G1 X5975.00 Y5071.00
G1 X5935.00 Y5066.00
G1 X5920.00 Y5074.00
G1 X6070.00 Y5105.00
G1 X6160.00 Y5135.00
G1 X6131.00 Y5133.00
G1 X6044.00 Y5139.00
G1 X6022.00 Y5142.00
G1 X6009.00 Y5153.00
G1 X6012.00 Y5170.00
G1 X5995.00 Y5161.00
G1 X5970.00 Y5153.00
G1 X5960.00 Y5164.00
G1 X5943.00 Y5173.00
G1 X5917.00 Y5155.00
G1 X5934.00 Y5181.00
G1 X5951.00 Y5207.00
G1 X5923.00 Y5202.00
G1 X5914.00 Y5219.00
G1 X5898.00 Y5223.00
G1 X5880.00 Y5218.00
G1 X5890.00 Y5230.00
G1 X5900.00 Y5241.00
G1 X5878.00 Y5244.00
G1 X5869.00 Y5254.00
G1 X5866.00 Y5270.00
G1 X5856.00 Y5283.00
G1 X5849.00 Y5283.00
G1 X5830.00 Y5285.00
G1 X5826.00 Y5300.00
G1 X5823.00 Y5323.00
G1 X5810.00 Y5330.00
G1 X5804.00 Y5345.00
G1 X5794.00 Y5361.00
G1 X5765.00 Y5361.00
G1 X5790.00 Y5372.00
G1 X5797.00 Y5387.00
G1 X5785.00 Y5401.00
G1 X5780.00 Y5410.00
G1 X5775.00 Y5419.00
G1 X5771.00 Y5435.00
G1 X5789.00 Y5471.00
G1 X5788.00 Y5477.00
G1 X5783.00 Y5500.00
G1 X5780.00 Y5510.00
G1 X5777.00 Y5531.00
G1 X5783.00 Y5555.00
G1 X5789.00 Y5588.00
G1 X5780.00 Y5603.00
G1 X5760.00 Y5589.00
G1 X5706.00 Y5653.00
G1 X5640.00 Y5775.00
G1 X5610.00 Y5850.00
G1 X5620.00 Y5860.00
G1 X5630.00 Y5857.00
G1 X5620.00 Y5875.00
G1 X5622.00 Y5940.00
G1 X5620.00 Y5966.00
G1 X5619.00 Y6004.00
G1 X5625.00 Y6053.00
G1 X5634.00 Y6090.00
G1 X5849.00 Y6026.00
G1 X5940.00 Y6005.00
G1 X5985.00 Y6009.00
G1 X5983.00 Y6021.00
G1 X6009.00 Y6060.00
G1 X6020.00 Y6071.00
G1 X6030.00 Y6075.00
G1 X6049.00 Y6096.00
G1 X6054.00 Y6104.00
G1 X6070.00 Y6110.00
G1 X6080.00 Y6115.00
G1 X6090.00 Y6126.00
G1 X6105.00 Y6130.00
G1 X6120.00 Y6130.00
G1 X6141.00 Y6137.00
G1 X6156.00 Y6146.00
G1 X6175.00 Y6154.00
G1 X6195.00 Y6162.00
G1 X6238.00 Y6166.00
G1 X6250.00 Y6176.00
G1 X6265.00 Y6174.00
G1 X6280.00 Y6168.00
G1 X6300.00 Y6175.00
G1 X6320.00 Y6207.00
G1 X6325.00 Y6270.00
G1 X6311.00 Y6256.00
G1 X6271.00 Y6213.00
G1 X6271.00 Y6246.00
G1 X6302.00 Y6285.00
G1 X6271.00 Y6264.00
G1 X6226.00 Y6227.00
G1 X6205.00 Y6220.00
G1 X6230.00 Y6256.00
G1 X6265.00 Y6298.00
G1 X6227.00 Y6273.00
G1 X6165.00 Y6235.00
G1 X6135.00 Y6228.00
G1 X6160.00 Y6256.00
G1 X6185.00 Y6283.00
G1 X6149.00 Y6262.00
G1 X6130.00 Y6266.00
G1 X6155.00 Y6298.00
G1 X6131.00 Y6286.00
G1 X6121.00 Y6308.00
G1 X6128.00 Y6331.00
G1 X6118.00 Y6349.00
G1 X6110.00 Y6360.00
G1 X6085.00 Y6361.00
G1 X6113.00 Y6376.00
G1 X6118.00 Y6395.00
G1 X6120.00 Y6411.00
G1 X6145.00 Y6433.00
G1 X6115.00 Y6427.00
G1 X6108.00 Y6430.00
G1 X6153.00 Y6450.00
G1 X6145.00 Y6454.00
G1 X6133.00 Y6462.00
G1 X6168.00 Y6488.00
G1 X6163.00 Y6490.00
G1 X6153.00 Y6509.00
G1 X6148.00 Y6515.00
G1 X6161.00 Y6566.00
G1 X6185.00 Y6593.00
G1 X6150.00 Y6576.00
G1 X6115.00 Y6559.00
G1 X6143.00 Y6580.00
G1 X6165.00 Y6610.00
G1 X6186.00 Y6639.00
G1 X6225.00 Y6647.00
G1 X6235.00 Y6630.00
G1 X6296.00 Y6623.00
G1 X6323.00 Y6638.00
G1 X6282.00 Y6650.00
G1 X6262.00 Y6653.00
G1 X6260.00 Y6665.00
G1 X6253.00 Y6678.00
G1 X6229.00 Y6688.00
G1 X6223.00 Y6692.00
G1 X6210.00 Y6685.00
G1 X6207.00 Y6705.00
G1 X6196.00 Y6720.00
G1 X6180.00 Y6735.00
G1 X6170.00 Y6750.00
G1 X6160.00 Y6765.00
G1 X6139.00 Y6770.00
G1 X6136.00 Y6785.00
G1 X6134.00 Y6810.00
G1 X6115.00 Y6830.00
G1 X6112.00 Y6850.00
G1 X6090.00 Y6860.00
G1 X6100.00 Y6870.00
G1 X6110.00 Y6879.00
G1 X6090.00 Y6883.00
G1 X6093.00 Y6910.00
G1 X6090.00 Y6920.00
G1 X6085.00 Y6930.00
G1 X6087.00 Y6939.00
G1 X6075.00 Y6960.00
G1 X6069.00 Y6980.00
G1 X6068.00 Y6992.00
G1 X6068.00 Y7018.00
G1 X6069.00 Y7040.00
G1 X6070.00 Y7055.00
G1 X6071.00 Y7072.00
G1 X6072.00 Y7087.00
G1 X6071.00 Y7106.00
G1 X6076.00 Y7120.00
G1 X6077.00 Y7133.00
G1 X6087.00 Y7165.00
G1 X6112.00 Y7201.00
G1 X6133.00 Y7217.00
G1 X6110.00 Y7223.00
G1 X6093.00 Y7292.00
G1 X6103.00 Y7480.00
G1 X6167.00 Y7708.00
G1 X6343.00 Y7606.00
G1 X6421.00 Y7547.00
G1 X6427.00 Y7553.00
G1 X6470.00 Y7556.00
G1 X6490.00 Y7565.00
G1 X6510.00 Y7570.00
G1 X6524.00 Y7577.00
G1 X6545.00 Y7578.00
G1 X6628.00 Y7589.00
G1 X6650.00 Y7604.00
G1 X6615.00 Y7615.00
G1 X6580.00 Y7624.00
G1 X6570.00 Y7620.00
G1 X6550.00 Y7620.00
G1 X6540.00 Y7618.00
G1 X6519.00 Y7613.00
G1 X6514.00 Y7613.00
G1 X6494.00 Y7607.00
G1 X6480.00 Y7600.00
G1 X6465.00 Y7600.00
G1 X6450.00 Y7600.00
G1 X6436.00 Y7593.00
G1 X6413.00 Y7589.00
G1 X6318.00 Y7654.00
G1 X6206.00 Y7734.00
G1 X6180.00 Y7750.00
G1 X6170.00 Y7760.00
G1 X6160.00 Y7749.00
G1 X6138.00 Y7716.00
G1 X6113.00 Y7675.00
G1 X6095.00 Y7580.00
G1 X6084.00 Y7438.00
G1 X6078.00 Y7370.00
G1 X6073.00 Y7340.00
G1 X6063.00 Y7302.00
G1 X6059.00 Y7286.00
G1 X6062.00 Y7262.00
G1 X6055.00 Y7200.00
G1 X6047.00 Y7143.00
G1 X6045.00 Y7120.00
G1 X6040.00 Y7110.00
G1 X6035.00 Y7091.00
G1 X6025.00 Y7057.00
G1 X6021.00 Y7035.00
G1 X6026.00 Y7014.00
G1 X6031.00 Y7000.00
G1 X6037.00 Y6985.00
G1 X6039.00 Y6966.00
G1 X6045.00 Y6918.00
G1 X6052.00 Y6863.00
G1 X6052.00 Y6850.00
G1 X6026.00 Y6872.00
G1 X5976.00 Y6894.00
G1 X5792.00 Y6789.00
G1 X5738.00 Y6768.00
G1 X5714.00 Y6773.00
G1 X5700.00 Y6779.00
G1 X5685.00 Y6784.00
G1 X5670.00 Y6796.00
G1 X5660.00 Y6800.00
G1 X5640.00 Y6800.00
G1 X5629.00 Y6795.00
G1 X5623.00 Y6793.00
G1 X5604.00 Y6806.00
G1 X5590.00 Y6810.00
G1 X5570.00 Y6817.00
G1 X5571.00 Y6760.00
G1 X5580.00 Y6763.00
G1 X5611.00 Y6759.00
G1 X5646.00 Y6744.00
G1 X5645.00 Y6645.00
G1 X5649.00 Y6640.00
G1 X5703.00 Y6721.00
G1 X5702.00 Y6698.00
G1 X5690.00 Y6676.00
G1 X5709.00 Y6688.00
G1 X5744.00 Y6699.00
G1 X5760.00 Y6700.00
G1 X5769.00 Y6721.00
G1 X5894.00 Y6841.00
G1 X6054.00 Y6739.00
G1 X6029.00 Y6390.00
G1 X6020.00 Y6406.00
G1 X6010.00 Y6415.00
G1 X6000.00 Y6419.00
G1 X6010.00 Y6435.00
G1 X5999.00 Y6460.00
G1 X6001.00 Y6496.00
G1 X6023.00 Y6532.00
G1 X5982.00 Y6505.00
G1 X5936.00 Y6464.00
G1 X5939.00 Y6455.00
G1 X5971.00 Y6436.00
G1 X5990.00 Y6380.00
G1 X5994.00 Y6369.00
G1 X6001.00 Y6349.00
G1 X5978.00 Y6340.00
G1 X5988.00 Y6322.00
G1 X5999.00 Y6280.00
G1 X5995.00 Y6264.00
G1 X5973.00 Y6254.00
G1 X5954.00 Y6270.00
G1 X5950.00 Y6285.00
G1 X5946.00 Y6300.00
G1 X5945.00 Y6308.00
G1 X5915.00 Y6370.00
G1 X5896.00 Y6380.00
G1 X5862.00 Y6395.00
G1 X5814.00 Y6402.00
G1 X5775.00 Y6393.00
G1 X5815.00 Y6382.00
G1 X5904.00 Y6298.00
G1 X5910.00 Y6280.00
G1 X5916.00 Y6253.00
G1 X5924.00 Y6211.00
G1 X5923.00 Y6203.00
G1 X5906.00 Y6201.00
G1 X5917.00 Y6186.00
G1 X5920.00 Y6170.00
G1 X5922.00 Y6160.00
G1 X5946.00 Y6149.00
G1 X5931.00 Y6145.00
G1 X5939.00 Y6115.00
G1 X5965.00 Y6092.00
G1 X5938.00 Y6104.00
G1 X5915.00 Y6100.00
G1 X5923.00 Y6080.00
G1 X5900.00 Y6095.00
G1 X5876.00 Y6110.00
G1 X5883.00 Y6096.00
G1 X5873.00 Y6076.00
G1 X5853.00 Y6066.00
G1 X5847.00 Y6051.00
G1 X5748.00 Y6089.00
G1 X5751.00 Y6135.00
G1 X5730.00 Y6119.00
G1 X5718.00 Y6098.00
G1 X5695.00 Y6120.00
G1 X5667.00 Y6128.00
G1 X5598.00 Y6176.00
G1 X5587.00 Y6297.00
G1 X5598.00 Y6325.00
G1 X5568.00 Y6332.00
G1 X5541.00 Y6520.00
G1 X5520.00 Y6733.00
G1 X5441.00 Y6803.00
G1 X5318.00 Y6742.00
G1 X5300.00 Y6775.00
G1 X5315.00 Y6792.00
G1 X5325.00 Y6773.00
G1 X5333.00 Y6798.00
G1 X5341.00 Y6808.00
G1 X5360.00 Y6790.00
G1 X5363.00 Y6808.00
G1 X5373.00 Y6811.00
G1 X5396.00 Y6813.00
G1 X5496.00 Y6809.00
G1 X5510.00 Y6809.00
G1 X5521.00 Y6815.00
G1 X5526.00 Y6795.00
G1 X5547.00 Y6713.00
G1 X5545.00 Y6780.00
G1 X5524.00 Y6836.00
G1 X5510.00 Y6838.00
G1 X5490.00 Y6848.00
G1 X5453.00 Y6851.00
G1 X5428.00 Y6864.00
G1 X5420.00 Y6860.00
G1 X5406.00 Y6863.00
G1 X5385.00 Y6870.00
G1 X5364.00 Y6871.00
G1 X5356.00 Y6864.00
G1 X5331.00 Y6875.00
G1 X5243.00 Y7025.00
G1 X5239.00 Y7055.00
G1 X5235.00 Y7085.00
G1 X5209.00 Y7163.00
G1 X5210.00 Y7180.00
G1 X5208.00 Y7203.00
G1 X5198.00 Y7238.00
G1 X5190.00 Y7250.00
G1 X5185.00 Y7259.00
G1 X5173.00 Y7279.00
G1 X5168.00 Y7298.00
G1 X5155.00 Y7318.00
G1 X5113.00 Y7330.00
G1 X5112.00 Y7318.00
G1 X5134.00 Y7275.00
G1 X5143.00 Y7233.00
G1 X5170.00 Y7201.00
G1 X5195.00 Y7181.00
G1 X5170.00 Y7187.00
G1 X5145.00 Y7193.00
G1 X5168.00 Y7168.00
G1 X5173.00 Y7136.00
G1 X5173.00 Y7127.00
G1 X5194.00 Y7087.00
G1 X5209.00 Y7046.00
G1 X5198.00 Y7037.00
G1 X5193.00 Y7023.00
G1 X5193.00 Y6997.00
G1 X5200.00 Y6970.00
G1 X5206.00 Y6943.00
G1 X5197.00 Y6937.00
G1 X5198.00 Y6860.00
G1 X5200.00 Y6845.00
G1 X5195.00 Y6836.00
G1 X5185.00 Y6821.00
G1 X5168.00 Y6811.00
G1 X5164.00 Y6801.00
G1 X5175.00 Y6780.00
G1 X5185.00 Y6760.00
G1 X5174.00 Y6755.00
G1 X5151.00 Y6749.00
G1 X5158.00 Y6734.00
G1 X5140.00 Y6730.00
G1 X5150.00 Y6720.00
G1 X5160.00 Y6712.00
G1 X5112.00 Y6714.00
G1 X5100.00 Y6710.00
G1 X5073.00 Y6717.00
G1 X5053.00 Y6723.00
G1 X5028.00 Y6733.00
G1 X5014.00 Y6738.00
G1 X5013.00 Y6720.00
G1 X4993.00 Y6738.00
G1 X4984.00 Y6730.00
G1 X4975.00 Y6724.00
G1 X4960.00 Y6756.00
G1 X4951.00 Y6775.00
G1 X4952.00 Y6744.00
G1 X4956.00 Y6703.00
G1 X4945.00 Y6723.00
G1 X4924.00 Y6761.00
G1 X4920.00 Y6746.00
G1 X4916.00 Y6713.00
G1 X4897.00 Y6718.00
G1 X4881.00 Y6720.00
G1 X4869.00 Y6708.00
G1 X4855.00 Y6706.00
G1 X4840.00 Y6721.00
G1 X4830.00 Y6730.00
G1 X4820.00 Y6715.00
G1 X4794.00 Y6718.00
G1 X4780.00 Y6711.00
G1 X4765.00 Y6700.00
G1 X4750.00 Y6700.00
G1 X4736.00 Y6699.00
G1 X4715.00 Y6689.00
G1 X4708.00 Y6667.00
G1 X4694.00 Y6691.00
G1 X4681.00 Y6715.00
G1 X4680.00 Y6690.00
G1 X4679.00 Y6665.00
G1 X4660.00 Y6689.00
G1 X4640.00 Y6712.00
G1 X4640.00 Y6685.00
G1 X4603.00 Y6691.00
G1 X4599.00 Y6762.00
G1 X4614.00 Y6790.00
G1 X4637.00 Y6818.00
G1 X4647.00 Y6830.00
G1 X4655.00 Y6919.00
G1 X4663.00 Y7014.00
G1 X4695.00 Y7144.00
G1 X4692.00 Y7156.00
G1 X4691.00 Y7182.00
G1 X4690.00 Y7195.00
G1 X4684.00 Y7214.00
G1 X4679.00 Y7234.00
G1 X4672.00 Y7254.00
G1 X4668.00 Y7280.00
G1 X4664.00 Y7306.00
G1 X4659.00 Y7324.00
G1 X4653.00 Y7333.00
G1 X4666.00 Y7365.00
G1 X4661.00 Y7380.00
G1 X4659.00 Y7398.00
G1 X4655.00 Y7483.00
G1 X4658.00 Y7500.00
G1 X4673.00 Y7514.00
G1 X4662.00 Y7523.00
G1 X4608.00 Y7666.00
G1 X4595.00 Y7730.00
G1 X4556.00 Y7836.00
G1 X4524.00 Y7886.00
G1 X4491.00 Y8057.00
G1 X4530.00 Y8081.00
G1 X4560.00 Y8035.00
G1 X4590.00 Y8007.00
G1 X4571.00 Y8036.00
G1 X4554.00 Y8125.00
G1 X4613.00 Y8138.00
G1 X4619.00 Y8141.00
G1 X4661.00 Y8155.00
G1 X4713.00 Y8141.00
G1 X4747.00 Y8130.00
G1 X4776.00 Y8116.00
G1 X4799.00 Y8107.00
G1 X4860.00 Y8039.00
G1 X4873.00 Y8026.00
G1 X4980.00 Y7683.00
G1 X4994.00 Y7663.00
G1 X5039.00 Y7529.00
G1 X5057.00 Y7518.00
G1 X5075.00 Y7491.00
G1 X5077.00 Y7460.00
G1 X5097.00 Y7435.00
G1 X5098.00 Y7410.00
G1 X5105.00 Y7390.00
G1 X5104.00 Y7375.00
G1 X5105.00 Y7369.00
G1 X5136.00 Y7342.00
G1 X5159.00 Y7334.00
G1 X5154.00 Y7361.00
G1 X5143.00 Y7393.00
G1 X5129.00 Y7424.00
G1 X5116.00 Y7451.00
G1 X5113.00 Y7469.00
G1 X5094.00 Y7561.00
G1 X5087.00 Y7567.00
G1 X5063.00 Y7578.00
G1 X5039.00 Y7637.00
G1 X5020.00 Y7717.00
G1 X5005.00 Y7736.00
G1 X4990.00 Y7753.00
G1 X4969.00 Y7850.00
G1 X4954.00 Y7919.00
G1 X4945.00 Y7940.00
G1 X4930.00 Y7972.00
G1 X4915.00 Y8007.00
G1 X4903.00 Y8033.00
G1 X4888.00 Y8062.00
G1 X4870.00 Y8095.00
G1 X4854.00 Y8103.00
G1 X4824.00 Y8118.00
G1 X4795.00 Y8134.00
G1 X4780.00 Y8139.00
G1 X4760.00 Y8150.00
G1 X4740.00 Y8160.00
G1 X4725.00 Y8170.00
G1 X4710.00 Y8179.00
G1 X4621.00 Y8175.00
G1 X4597.00 Y8178.00
G1 X4550.00 Y8144.00
G1 X4504.00 Y8100.00
G1 X4487.00 Y8079.00
G1 X4461.00 Y8053.00
G1 X4448.00 Y8026.00
G1 X4455.00 Y7977.00
G1 X4427.00 Y7904.00
G1 X4358.00 Y7819.00
G1 X4297.00 Y7750.00
G1 X4284.00 Y7749.00
G1 X4232.00 Y7746.00
G1 X4220.00 Y7750.00
G1 X4200.00 Y7750.00
G1 X4180.00 Y7751.00
G1 X4166.00 Y7751.00
G1 X4145.00 Y7750.00
G1 X4125.00 Y7750.00
G1 X4101.00 Y7757.00
G1 X4090.00 Y7758.00
G1 X4070.00 Y7753.00
G1 X4062.00 Y7754.00
G1 X4038.00 Y7746.00
G1 X4020.00 Y7740.00
G1 X4000.00 Y7735.00
G1 X3980.00 Y7728.00
G1 X3965.00 Y7730.00
G1 X3950.00 Y7725.00
G1 X3935.00 Y7720.00
G1 X3920.00 Y7717.00
G1 X3905.00 Y7706.00
G1 X3890.00 Y7699.00
G1 X3880.00 Y7700.00
G1 X3864.00 Y7697.00
G1 X3849.00 Y7686.00
G1 X3840.00 Y7680.00
G1 X3830.00 Y7675.00
G1 X3820.00 Y7670.00
G1 X3810.00 Y7665.00
G1 X3792.00 Y7649.00
G1 X3776.00 Y7638.00
G1 X3750.00 Y7630.00
G1 X3735.00 Y7616.00
G1 X3720.00 Y7606.00
G1 X3695.00 Y7596.00
G1 X3670.00 Y7586.00
G1 X3609.00 Y7597.00
G1 X3488.00 Y7630.00
G1 X3426.00 Y7613.00
G1 X3416.00 Y7590.00
G1 X3409.00 Y7573.00
G1 X3429.00 Y7482.00
G1 X3474.00 Y7325.00
G1 X3496.00 Y7230.00
G1 X3499.00 Y7220.00
G1 X3506.00 Y7195.00
G1 X3510.00 Y7170.00
G1 X3511.00 Y7152.00
G1 X3509.00 Y7121.00
G1 X3515.00 Y7069.00
G1 X3523.00 Y7030.00
G1 X3520.00 Y7015.00
G1 X3525.00 Y6986.00
G1 X3532.00 Y6966.00
G1 X3536.00 Y6940.00
G1 X3546.00 Y6916.00
G1 X3550.00 Y6888.00
G1 X3563.00 Y6862.00
G1 X3577.00 Y6840.00
G1 X3580.00 Y6810.00
G1 X3588.00 Y6794.00
G1 X3602.00 Y6783.00
G1 X3617.00 Y6770.00
G1 X3617.00 Y6752.00
G1 X3615.00 Y6730.00
G1 X3642.00 Y6708.00
G1 X3650.00 Y6680.00
G1 X3670.00 Y6665.00
G1 X3680.00 Y6650.00
G1 X3690.00 Y6639.00
G1 X3730.00 Y6608.00
G1 X3730.00 Y6595.00
G1 X3739.00 Y6585.00
G1 X3758.00 Y6579.00
G1 X3762.00 Y6541.00
G1 X3757.00 Y6501.00
G1 X3754.00 Y6438.00
G1 X3755.00 Y6430.00
G1 X3743.00 Y6400.00
G1 X3752.00 Y6376.00
G1 X3756.00 Y6372.00
G1 X3734.00 Y6360.00
G1 X3728.00 Y6343.00
G1 X3713.00 Y6300.00
G1 X3704.00 Y6285.00
G1 X3695.00 Y6264.00
G1 X3680.00 Y6245.00
G1 X3654.00 Y6226.00
G1 X3633.00 Y6200.00
G1 X3625.00 Y6180.00
G1 X3594.00 Y6131.00
G1 X3578.00 Y6109.00
G1 X3574.00 Y6100.00
G1 X3570.00 Y6085.00
G1 X3565.00 Y6070.00
G1 X3557.00 Y6052.00
G1 X3518.00 Y6035.00
G1 X3444.00 Y6097.00
G1 X3438.00 Y6110.00
G1 X3433.00 Y6117.00
G1 X3430.00 Y6135.00
G1 X3417.00 Y6166.00
G1 X3407.00 Y6198.00
G1 X3405.00 Y6220.00
G1 X3401.00 Y6230.00
G1 X3390.00 Y6244.00
G1 X3378.00 Y6263.00
G1 X3379.00 Y6283.00
G1 X3375.00 Y6300.00
G1 X3364.00 Y6316.00
G1 X3355.00 Y6346.00
G1 X3340.00 Y6381.00
G1 X3325.00 Y6400.00
G1 X3303.00 Y6550.00
G1 X3285.00 Y6655.00
G1 X3265.00 Y6676.00
G1 X3193.00 Y6623.00
G1 X3117.00 Y6583.00
G1 X3101.00 Y6580.00
G1 X3090.00 Y6585.00
G1 X3080.00 Y6590.00
G1 X3060.00 Y6590.00
G1 X3050.00 Y6595.00
G1 X3040.00 Y6600.00
G1 X3030.00 Y6601.00
G1 X3017.00 Y6599.00
G1 X2997.00 Y6603.00
G1 X2990.00 Y6607.00
G1 X2968.00 Y6615.00
G1 X2933.00 Y6623.00
G1 X2920.00 Y6624.00
G1 X2867.00 Y6615.00
G1 X2808.00 Y6605.00
G1 X2791.00 Y6610.00
G1 X2778.00 Y6593.00
G1 X2840.00 Y6583.00
G1 X2855.00 Y6580.00
G1 X2870.00 Y6577.00
G1 X2935.00 Y6586.00
G1 X3000.00 Y6578.00
G1 X3015.00 Y6576.00
G1 X3030.00 Y6571.00
G1 X3046.00 Y6560.00
G1 X3107.00 Y6533.00
G1 X3162.00 Y6521.00
G1 X3167.00 Y6519.00
G1 X3171.00 Y6489.00
G1 X3180.00 Y6513.00
G1 X3160.00 Y6540.00
G1 X3140.00 Y6543.00
G1 X3227.00 Y6624.00
G1 X3274.00 Y6624.00
G1 X3281.00 Y6500.00
G1 X3270.00 Y6504.00
G1 X3261.00 Y6526.00
G1 X3250.00 Y6499.00
G1 X3240.00 Y6485.00
G1 X3230.00 Y6480.00
G1 X3209.00 Y6508.00
G1 X3208.00 Y6535.00
G1 X3201.00 Y6510.00
G1 X3203.00 Y6463.00
G1 X3243.00 Y6436.00
G1 X3280.00 Y6400.00
G1 X3321.00 Y6346.00
G1 X3333.00 Y6314.00
G1 X3339.00 Y6300.00
G1 X3344.00 Y6276.00
G1 X3354.00 Y6247.00
G1 X3364.00 Y6225.00
G1 X3370.00 Y6210.00
G1 X3376.00 Y6195.00
G1 X3388.00 Y6170.00
G1 X3375.00 Y6167.00
G1 X3345.00 Y6173.00
G1 X3373.00 Y6137.00
G1 X3394.00 Y6100.00
G1 X3401.00 Y6084.00
G1 X3416.00 Y6021.00
G1 X3435.00 Y5920.00
G1 X3431.00 Y5910.00
G1 X3414.00 Y5888.00
G1 X3406.00 Y5865.00
G1 X3399.00 Y5890.00
G1 X3391.00 Y5880.00
G1 X3390.00 Y5845.00
G1 X3350.00 Y5900.00
G1 X3327.00 Y6055.00
G1 X3326.00 Y6101.00
G1 X3318.00 Y6130.00
G1 X3328.00 Y6154.00
G1 X3262.00 Y6198.00
G1 X3280.00 Y6118.00
G1 X3248.00 Y6070.00
G1 X3253.00 Y6040.00
G1 X3241.00 Y5905.00
G1 X3185.00 Y5864.00
G1 X3144.00 Y5879.00
G1 X3035.00 Y5863.00
G1 X3005.00 Y5754.00
G1 X2997.00 Y5620.00
G1 X2998.00 Y5604.00
G1 X3022.00 Y5584.00
G1 X3025.00 Y5554.00
G1 X3015.00 Y5541.00
G1 X3031.00 Y5494.00
G1 X3034.00 Y5480.00
G1 X3012.00 Y5501.00
G1 X2999.00 Y5486.00
G1 X2979.00 Y5482.00
G1 X2963.00 Y5493.00
G1 X2978.00 Y5453.00
G1 X3000.00 Y5380.00
G1 X2993.00 Y5365.00
G1 X2990.00 Y5345.00
G1 X2987.00 Y5323.00
G1 X2977.00 Y5313.00
G1 X2974.00 Y5285.00
G1 X2983.00 Y5250.00
G1 X2995.00 Y5216.00
G1 X2996.00 Y5200.00
G1 X2990.00 Y5175.00
G1 X2985.00 Y5150.00
G1 X2969.00 Y5163.00
G1 X2959.00 Y5151.00
G1 X2950.00 Y5128.00
G1 X2929.00 Y5151.00
G1 X2914.00 Y5158.00
G1 X2895.00 Y5150.00
G1 X2875.00 Y5153.00
G1 X2843.00 Y5161.00
G1 X2833.00 Y5156.00
G1 X2816.00 Y5154.00
G1 X2791.00 Y5154.00
G1 X2783.00 Y5144.00
G1 X2743.00 Y5141.00
G1 X2806.00 Y5130.00
G1 X2921.00 Y5119.00
G1 X2995.00 Y5059.00
G1 X3000.00 Y5045.00
G1 X3030.00 Y4994.00
G1 X3005.00 Y4872.00
G1 X2970.00 Y4875.00
G1 X2940.00 Y4880.00
G1 X2910.00 Y4873.00
G1 X2896.00 Y4877.00
G1 X2873.00 Y4887.00
G1 X2863.00 Y4915.00
G1 X2856.00 Y4882.00
G1 X2840.00 Y4855.00
G1 X2822.00 Y4843.00
G1 X2769.00 Y4839.00
G1 X2713.00 Y4862.00
G1 X2700.00 Y4858.00
G1 X2674.00 Y4830.00
G1 X2640.00 Y4830.00
G1 X2630.00 Y4826.00
G1 X2605.00 Y4831.00
G1 X2580.00 Y4863.00
G1 X2540.00 Y4900.00
G1 X2519.00 Y4913.00
G1 X2513.00 Y4918.00
G1 X2489.00 Y4918.00
G1 X2478.00 Y4910.00
G1 X2468.00 Y4885.00
G1 X2458.00 Y4910.00
G1 X2448.00 Y4935.00
G1 X2437.00 Y4913.00
G1 X2416.00 Y4926.00
G1 X2420.00 Y4962.00
G1 X2400.00 Y4939.00
G1 X2380.00 Y4933.00
G1 X2396.00 Y4983.00
G1 X2412.00 Y5015.00
G1 X2380.00 Y4985.00
G1 X2352.00 Y4970.00
G1 X2366.00 Y5004.00
G1 X2345.00 Y5004.00
G1 X2324.00 Y5008.00
G1 X2318.00 Y5025.00
G1 X2304.00 Y5040.00
G1 X2311.00 Y5060.00
G1 X2323.00 Y5074.00
G1 X2314.00 Y5083.00
G1 X2323.00 Y5114.00
G1 X2312.00 Y5115.00
G1 X2280.00 Y5109.00
G1 X2300.00 Y5123.00
G1 X2320.00 Y5139.00
G1 X2305.00 Y5144.00
G1 X2312.00 Y5171.00
G1 X2323.00 Y5187.00
G1 X2291.00 Y5180.00
G1 X2270.00 Y5179.00
G1 X2290.00 Y5200.00
G1 X2288.00 Y5223.00
G1 X2265.00 Y5217.00
G1 X2288.00 Y5242.00
G1 X2288.00 Y5274.00
G1 X2284.00 Y5289.00
G1 X2284.00 Y5310.00
G1 X2280.00 Y5320.00
G1 X2284.00 Y5330.00
G1 X2295.00 Y5372.00
G1 X2290.00 Y5379.00
G1 X2284.00 Y5395.00
G1 X2284.00 Y5411.00
G1 X2277.00 Y5416.00
G1 X2283.00 Y5436.00
G1 X2296.00 Y5451.00
G1 X2295.00 Y5460.00
G1 X2305.00 Y5480.00
G1 X2335.00 Y5493.00
G1 X2310.00 Y5501.00
G1 X2285.00 Y5508.00
G1 X2309.00 Y5516.00
G1 X2314.00 Y5531.00
G1 X2330.00 Y5540.00
G1 X2345.00 Y5550.00
G1 X2337.00 Y5559.00
G1 X2366.00 Y5567.00
G1 X2377.00 Y5563.00
G1 X2406.00 Y5564.00
G1 X2442.00 Y5575.00
G1 X2410.00 Y5578.00
G1 X2392.00 Y5597.00
G1 X2383.00 Y5602.00
G1 X2348.00 Y5602.00
G1 X2338.00 Y5623.00
G1 X2328.00 Y5631.00
G1 X2326.00 Y5654.00
G1 X2317.00 Y5670.00
G1 X2299.00 Y5685.00
G1 X2289.00 Y5689.00
G1 X2290.00 Y5740.00
G1 X2275.00 Y5765.00
G1 X2268.00 Y5790.00
G1 X2264.00 Y5805.00
G1 X2254.00 Y5820.00
G1 X2243.00 Y5835.00
G1 X2239.00 Y5855.00
G1 X2235.00 Y5870.00
G1 X2230.00 Y5885.00
G1 X2225.00 Y5901.00
G1 X2215.00 Y5916.00
G1 X2212.00 Y5931.00
G1 X2206.00 Y5940.00
G1 X2198.00 Y5952.00
G1 X2193.00 Y5976.00
G1 X2190.00 Y5982.00
G1 X2199.00 Y6040.00
G1 X2197.00 Y6053.00
G1 X2195.00 Y6153.00
G1 X2195.00 Y6168.00
G1 X2204.00 Y6198.00
G1 X2211.00 Y6226.00
G1 X2213.00 Y6245.00
G1 X2217.00 Y6260.00
G1 X2225.00 Y6283.00
G1 X2233.00 Y6318.00
G1 X2221.00 Y6330.00
G1 X2205.00 Y6320.00
G1 X2196.00 Y6295.00
G1 X2186.00 Y6265.00
G1 X2184.00 Y6250.00
G1 X2172.00 Y6213.00
G1 X2157.00 Y6168.00
G1 X2155.00 Y6160.00
G1 X2157.00 Y6043.00
G1 X2162.00 Y6030.00
G1 X2158.00 Y6020.00
G1 X2147.00 Y5988.00
G1 X2136.00 Y5984.00
G1 X2120.00 Y6017.00
G1 X2054.00 Y6070.00
G1 X2026.00 Y6048.00
G1 X2032.00 Y5952.00
G1 X2034.00 Y5940.00
G1 X2033.00 Y5883.00
G1 X2034.00 Y5856.00
G1 X2040.00 Y5840.00
G1 X2046.00 Y5822.00
G1 X2060.00 Y5785.00
G1 X2084.00 Y5792.00
G1 X2065.00 Y5855.00
G1 X2053.00 Y5904.00
G1 X2048.00 Y5966.00
G1 X2067.00 Y5989.00
G1 X2074.00 Y6006.00
G1 X2067.00 Y6035.00
G1 X2091.00 Y6009.00
G1 X2183.00 Y5876.00
G1 X2204.00 Y5809.00
G1 X2208.00 Y5800.00
G1 X2217.00 Y5788.00
G1 X2226.00 Y5755.00
G1 X2209.00 Y5755.00
G1 X2213.00 Y5744.00
G1 X2233.00 Y5706.00
G1 X2240.00 Y5689.00
G1 X2240.00 Y5670.00
G1 X2240.00 Y5660.00
G1 X2244.00 Y5652.00
G1 X2243.00 Y5574.00
G1 X2235.00 Y5550.00
G1 X2230.00 Y5525.00
G1 X2229.00 Y5500.00
G1 X2224.00 Y5485.00
G1 X2219.00 Y5470.00
G1 X2215.00 Y5460.00
G1 X2210.00 Y5430.00
G1 X2165.00 Y5447.00
G1 X2143.00 Y5500.00
G1 X2130.00 Y5520.00
G1 X2118.00 Y5540.00
G1 X2115.00 Y5570.00
G1 X2115.00 Y5594.00
G1 X2114.00 Y5620.00
G1 X2088.00 Y5653.00
G1 X2096.00 Y5666.00
G1 X2091.00 Y5684.00
G1 X2079.00 Y5710.00
G1 X2064.00 Y5769.00
G1 X2047.00 Y5758.00
G1 X2054.00 Y5718.00
G1 X2061.00 Y5685.00
G1 X2065.00 Y5670.00
G1 X2076.00 Y5635.00
G1 X2081.00 Y5610.00
G1 X2079.00 Y5591.00
G1 X2084.00 Y5567.00
G1 X2094.00 Y5532.00
G1 X2103.00 Y5497.00
G1 X2114.00 Y5465.00
G1 X2118.00 Y5440.00
G1 X2126.00 Y5425.00
G1 X2136.00 Y5410.00
G1 X2140.00 Y5395.00
G1 X2140.00 Y5380.00
G1 X2145.00 Y5360.00
G1 X2052.00 Y5340.00
G1 X1928.00 Y5354.00
G1 X1923.00 Y5481.00
G1 X1909.00 Y5981.00
G1 X1923.00 Y6131.00
G1 X1964.00 Y6295.00
G1 X2039.00 Y6615.00
G1 X2100.00 Y6890.00
G1 X2156.00 Y7010.00
G1 X2236.00 Y7164.00
G1 X2291.00 Y7279.00
G1 X2500.00 Y7662.00
G1 X2625.00 Y7837.00
G1 X2760.00 Y8005.00
G1 X3097.00 Y8347.00
G1 X3771.00 Y8796.00
G1 X3947.00 Y8880.00
G1 X4108.00 Y8951.00
G1 X4225.00 Y8989.00
G1 X4365.00 Y9024.00
G1 X4520.00 Y9060.00
G1 X4902.00 Y9139.00
G1 X5023.00 Y9162.00
G1 X5390.00 Y9156.00
G1 X4544.00 Y7795.00
G1 X4573.00 Y7722.00
G1 X4572.00 Y7610.00
G1 X4563.00 Y7635.00
G1 X4569.00 Y7675.00
G1 X4557.00 Y7641.00
G1 X4525.00 Y7632.00
G1 X4530.00 Y7665.00
G1 X4516.00 Y7635.00
G1 X4499.00 Y7625.00
G1 X4497.00 Y7658.00
G1 X4485.00 Y7660.00
G1 X4467.00 Y7662.00
G1 X4461.00 Y7652.00
G1 X4520.00 Y7580.00
G1 X4524.00 Y7568.00
G1 X4533.00 Y7569.00
G1 X4550.00 Y7561.00
G1 X4559.00 Y7540.00
G1 X4573.00 Y7519.00
G1 X4590.00 Y7505.00
G1 X4595.00 Y7490.00
G1 X4603.00 Y7473.00
G1 X4613.00 Y7379.00
G1 X4615.00 Y7360.00
G1 X4627.00 Y7341.00
G1 X4611.00 Y7315.00
G1 X4584.00 Y7309.00
G1 X4570.00 Y7314.00
G1 X4559.00 Y7325.00
G1 X4531.00 Y7339.00
G1 X4501.00 Y7360.00
G1 X4489.00 Y7394.00
G1 X4470.00 Y7397.00
G1 X4450.00 Y7406.00
G1 X4434.00 Y7413.00
G1 X4411.00 Y7418.00
G1 X4367.00 Y7418.00
G1 X4355.00 Y7393.00
G1 X4530.00 Y7315.00
G1 X4605.00 Y7286.00
G1 X4630.00 Y7290.00
G1 X4610.00 Y7273.00
G1 X4615.00 Y7252.00
G1 X4640.00 Y7253.00
G1 X4615.00 Y7240.00
G1 X4606.00 Y7210.00
G1 X4610.00 Y7195.00
G1 X4620.00 Y7180.00
G1 X4631.00 Y7166.00
G1 X4622.00 Y7139.00
G1 X4600.00 Y7119.00
G1 X4598.00 Y7111.00
G1 X4593.00 Y7083.00
G1 X4565.00 Y7072.00
G1 X4595.00 Y7070.00
G1 X4625.00 Y7069.00
G1 X4600.00 Y7059.00
G1 X4535.00 Y7054.00
G1 X4515.00 Y7051.00
G1 X4573.00 Y7041.00
G1 X4610.00 Y7030.00
G1 X4573.00 Y7019.00
G1 X4565.00 Y7013.00
G1 X4579.00 Y6989.00
G1 X4545.00 Y6988.00
G1 X4580.00 Y6977.00
G1 X4615.00 Y6966.00
G1 X4580.00 Y6960.00
G1 X4570.00 Y6950.00
G1 X4578.00 Y6943.00
G1 X4573.00 Y6917.00
G1 X4563.00 Y6911.00
G1 X4546.00 Y6896.00
G1 X4523.00 Y6888.00
G1 X4509.00 Y6877.00
G1 X4489.00 Y6865.00
G1 X4468.00 Y6864.00
G1 X4444.00 Y6844.00
G1 X4414.00 Y6833.00
G1 X4400.00 Y6825.00
G1 X4380.00 Y6822.00
G1 X4400.00 Y6807.00
G1 X4420.00 Y6810.00
G1 X4439.00 Y6823.00
G1 X4500.00 Y6784.00
G1 X4509.00 Y6775.00
G1 X4505.00 Y6807.00
G1 X4520.00 Y6825.00
G1 X4540.00 Y6826.00
G1 X4550.00 Y6830.00
G1 X4560.00 Y6789.00
G1 X4575.00 Y6734.00
G1 X4580.00 Y6666.00
G1 X4557.00 Y6740.00
G1 X4536.00 Y6779.00
G1 X4539.00 Y6714.00
G1 X4545.00 Y6672.00
G1 X4520.00 Y6731.00
G1 X4509.00 Y6740.00
G1 X4505.00 Y6718.00
G1 X4501.00 Y6710.00
G1 X4484.00 Y6718.00
G1 X4501.00 Y6678.00
G1 X4524.00 Y6645.00
G1 X4499.00 Y6665.00
G1 X4470.00 Y6690.00
G1 X4383.00 Y6738.00
G1 X4239.00 Y6743.00
G1 X4200.00 Y6525.00
G1 X4176.00 Y6293.00
G1 X4180.00 Y6264.00
G1 X4180.00 Y6240.00
G1 X4177.00 Y6223.00
G1 X4163.00 Y6223.00
G1 X4134.00 Y6225.00
G1 X4103.00 Y6238.00
G1 X3972.00 Y6332.00
G1 X3968.00 Y6360.00
G1 X3989.00 Y6370.00
G1 X3924.00 Y6365.00
G1 X3875.00 Y6360.00
G1 X3845.00 Y6360.00
G1 X3802.00 Y6360.00
G1 X3799.00 Y6370.00
G1 X3806.00 Y6386.00
G1 X3812.00 Y6418.00
G1 X3808.00 Y6427.00
G1 X3800.00 Y6445.00
G1 X3790.00 Y6460.00
G1 X3815.00 Y6484.00
G1 X3818.00 Y6499.00
G1 X3853.00 Y6545.00
G1 X3946.00 Y6606.00
G1 X3964.00 Y6636.00
G1 X3904.00 Y6629.00
G1 X3853.00 Y6622.00
G1 X3830.00 Y6631.00
G1 X3814.00 Y6637.00
G1 X3768.00 Y6642.00
G1 X3760.00 Y6675.00
G1 X3740.00 Y6680.00
G1 X3708.00 Y6671.00
G1 X3726.00 Y6692.00
G1 X3725.00 Y6706.00
G1 X3690.00 Y6692.00
G1 X3735.00 Y6752.00
G1 X3740.00 Y6770.00
G1 X3707.00 Y6750.00
G1 X3679.00 Y6730.00
G1 X3680.00 Y6745.00
G1 X3664.00 Y6780.00
G1 X3679.00 Y6820.00
G1 X3708.00 Y6840.00
G1 X3702.00 Y6841.00
G1 X3682.00 Y6834.00
G1 X3660.00 Y6825.00
G1 X3632.00 Y6810.00
G1 X3638.00 Y6829.00
G1 X3641.00 Y6850.00
G1 X3616.00 Y6861.00
G1 X3613.00 Y6876.00
G1 X3608.00 Y6903.00
G1 X3601.00 Y6915.00
G1 X3583.00 Y6929.00
G1 X3578.00 Y6950.00
G1 X3573.00 Y6970.00
G1 X3563.00 Y6990.00
G1 X3565.00 Y7010.00
G1 X3564.00 Y7031.00
G1 X3568.00 Y7042.00
G1 X3573.00 Y7063.00
G1 X3575.00 Y7080.00
G1 X3595.00 Y7103.00
G1 X3571.00 Y7095.00
G1 X3554.00 Y7099.00
G1 X3576.00 Y7110.00
G1 X3585.00 Y7120.00
G1 X3592.00 Y7148.00
G1 X3577.00 Y7147.00
G1 X3559.00 Y7149.00
G1 X3655.00 Y7248.00
G1 X3645.00 Y7257.00
G1 X3596.00 Y7245.00
G1 X3590.00 Y7260.00
G1 X3588.00 Y7278.00
G1 X3572.00 Y7229.00
G1 X3559.00 Y7176.00
G1 X3546.00 Y7210.00
G1 X3507.00 Y7300.00
G1 X3513.00 Y7615.00
G1 X3650.00 Y7544.00
G1 X3689.00 Y7539.00
G1 X3717.00 Y7553.00
G1 X3730.00 Y7565.00
G1 X3745.00 Y7570.00
G1 X3760.00 Y7579.00
G1 X3790.00 Y7550.00
G1 X3812.00 Y7510.00
G1 X3815.00 Y7533.00
G1 X3819.00 Y7619.00
G1 X3840.00 Y7648.00
G1 X3854.00 Y7654.00
G1 X3884.00 Y7665.00
G1 X3900.00 Y7668.00
G1 X3909.00 Y7669.00
G1 X3929.00 Y7676.00
G1 X3940.00 Y7680.00
G1 X3950.00 Y7685.00
G1 X3960.00 Y7688.00
G1 X3980.00 Y7703.00
G1 X4000.00 Y7697.00
G1 X4010.00 Y7700.00
G1 X4030.00 Y7700.00
G1 X4040.00 Y7699.00
G1 X4054.00 Y7707.00
G1 X4074.00 Y7713.00
G1 X4089.00 Y7710.00
G1 X4110.00 Y7710.00
G1 X4105.00 Y7603.00
G1 X4100.00 Y7475.00
G1 X4121.00 Y7502.00
G1 X4122.00 Y7516.00
G1 X4133.00 Y7655.00
G1 X4146.00 Y7705.00
G1 X4219.00 Y7705.00
G1 X4293.00 Y7705.00
G1 X4357.00 Y7790.00
G1 X4470.00 Y7920.00
G1 X4509.00 Y7875.00
G1 X2361.00 Y7450.00
G1 X2200.00 Y7145.00
G1 X2072.00 Y6902.00
G1 X2015.00 Y6780.00
G1 X1869.00 Y6480.00
G1 X1825.00 Y6390.00
G1 X1965.00 Y6631.00
G1 X2046.00 Y6794.00
G1 X2057.00 Y6817.00
G1 X1969.00 Y6415.00
G1 X1918.00 Y6195.00
G1 X1792.00 Y5866.00
G1 X1800.00 Y5853.00
G1 X1900.00 Y5861.00
G1 X1870.00 Y5839.00
G1 X1843.00 Y5817.00
G1 X1800.00 Y5791.00
G1 X1778.00 Y5772.00
G1 X1841.00 Y5794.00
G1 X1910.00 Y5811.00
G1 X1783.00 Y5740.00
G1 X1793.00 Y5735.00
G1 X1871.00 Y5757.00
G1 X1900.00 Y5745.00
G1 X1778.00 Y5691.00
G1 X1725.00 Y5682.00
G1 X1786.00 Y5681.00
G1 X1866.00 Y5695.00
G1 X1910.00 Y5700.00
G1 X1863.00 Y5665.00
G1 X1815.00 Y5639.00
G1 X1855.00 Y5645.00
G1 X1877.00 Y5636.00
G1 X1787.00 Y5610.00
G1 X1700.00 Y5594.00
G1 X1875.00 Y5607.00
G1 X1902.00 Y5597.00
G1 X1685.00 Y5555.00
G1 X1520.00 Y5563.00
G1 X1498.00 Y5558.00
G1 X1868.00 Y5553.00
G1 X1900.00 Y5551.00
G1 X1802.00 Y5511.00
G1 X1745.00 Y5502.00
G1 X1823.00 Y5501.00
G1 X1900.00 Y5491.00
G1 X1740.00 Y5460.00
G1 X1769.00 Y5456.00
G1 X1887.00 Y5467.00
G1 X1900.00 Y5461.00
G1 X1778.00 Y5422.00
G1 X1755.00 Y5412.00
G1 X1850.00 Y5420.00
G1 X1881.00 Y5404.00
G1 X1440.00 Y5410.00
G1 X1448.00 Y5435.00
G1 X1480.00 Y5443.00
G1 X1440.00 Y5476.00
G1 X1470.00 Y5475.00
G1 X1493.00 Y5480.00
G1 X1447.00 Y5543.00
G1 X1478.00 Y5530.00
G1 X1519.00 Y5510.00
G1 X1515.00 Y5522.00
G1 X1450.00 Y5586.00
G1 X1563.00 Y5595.00
G1 X1605.00 Y5601.00
G1 X1505.00 Y5612.00
G1 X1450.00 Y5640.00
G1 X1473.00 Y5642.00
G1 X1479.00 Y5656.00
G1 X1506.00 Y5696.00
G1 X1565.00 Y5690.00
G1 X1521.00 Y5705.00
G1 X1501.00 Y5748.00
G1 X1516.00 Y5764.00
G1 X1482.00 Y5806.00
G1 X1555.00 Y5798.00
G1 X1477.00 Y5860.00
G1 X1503.00 Y5865.00
G1 X1551.00 Y5850.00
G1 X1573.00 Y5873.00
G1 X1599.00 Y5969.00
G1 X1626.00 Y6047.00
G1 X1569.00 Y5916.00
G1 X1515.00 Y5880.00
G1 X1536.00 Y5998.00
G1 X1626.00 Y6210.00
G1 X1580.00 Y6133.00
G1 X1546.00 Y6070.00
G1 X1625.00 Y6403.00
G1 X1700.00 Y6616.00
G1 X1701.00 Y6643.00
G1 X1670.00 Y6616.00
G1 X1783.00 Y6904.00
G1 X1792.00 Y6926.00
G1 X1891.00 Y7125.00
G1 X2120.00 Y7385.00
G1 X2148.00 Y7405.00
G1 X2172.00 Y7424.00
G1 X2214.00 Y7461.00
G1 X2214.00 Y7439.00
G1 X2211.00 Y7431.00
G1 X2278.00 Y7509.00
G1 X2321.00 Y7550.00
G1 X2324.00 Y7538.00
G1 X2329.00 Y7534.00
G1 X2336.00 Y7549.00
G1 X2386.00 Y7611.00
G1 X2442.00 Y7665.00
G1 X2401.00 Y7601.00
G1 X2360.00 Y7527.00
G1 X2454.00 Y7648.00
G1 X2473.00 Y7658.00
G1 X6122.00 Y6678.00
G1 X6112.00 Y6652.00
G1 X6086.00 Y6630.00
G1 X6077.00 Y6698.00
G1 X6065.00 Y6800.00
G1 X6084.00 Y6775.00
G1 X6109.00 Y6698.00
G1 X5525.00 Y6485.00
G1 X5507.00 Y6253.00
G1 X5514.00 Y6240.00
G1 X5513.00 Y6213.00
G1 X5517.00 Y6203.00
G1 X5538.00 Y6162.00
G1 X5549.00 Y6155.00
G1 X5565.00 Y6150.00
G1 X5566.00 Y6090.00
G1 X5563.00 Y6064.00
G1 X5562.00 Y6050.00
G1 X5551.00 Y6020.00
G1 X5553.00 Y6009.00
G1 X5555.00 Y5970.00
G1 X5558.00 Y5944.00
G1 X5558.00 Y5930.00
G1 X5540.00 Y5921.00
G1 X5558.00 Y5907.00
G1 X5550.00 Y5901.00
G1 X5544.00 Y5885.00
G1 X5546.00 Y5870.00
G1 X5541.00 Y5853.00
G1 X5537.00 Y5843.00
G1 X5530.00 Y5830.00
G1 X5525.00 Y5816.00
G1 X5517.00 Y5804.00
G1 X5507.00 Y5793.00
G1 X5500.00 Y5781.00
G1 X5494.00 Y5756.00
G1 X5485.00 Y5740.00
G1 X5469.00 Y5730.00
G1 X5459.00 Y5716.00
G1 X5443.00 Y5708.00
G1 X5434.00 Y5691.00
G1 X5442.00 Y5670.00
G1 X5425.00 Y5680.00
G1 X5404.00 Y5690.00
G1 X5395.00 Y5669.00
G1 X5402.00 Y5647.00
G1 X5372.00 Y5669.00
G1 X5341.00 Y5690.00
G1 X5356.00 Y5660.00
G1 X5403.00 Y5628.00
G1 X5490.00 Y5654.00
G1 X5454.00 Y5634.00
G1 X5422.00 Y5614.00
G1 X5464.00 Y5625.00
G1 X5498.00 Y5628.00
G1 X5444.00 Y5604.00
G1 X5425.00 Y5591.00
G1 X5503.00 Y5605.00
G1 X5507.00 Y5585.00
G1 X5475.00 Y5571.00
G1 X5505.00 Y5577.00
G1 X5544.00 Y5591.00
G1 X5556.00 Y5575.00
G1 X5551.00 Y5550.00
G1 X5557.00 Y5520.00
G1 X5561.00 Y5490.00
G1 X5560.00 Y5475.00
G1 X5560.00 Y5460.00
G1 X5543.00 Y5430.00
G1 X5503.00 Y5400.00
G1 X5496.00 Y5386.00
G1 X5483.00 Y5367.00
G1 X5485.00 Y5355.00
G1 X5549.00 Y5289.00
G1 X5545.00 Y5280.00
G1 X5578.00 Y5279.00
G1 X5580.00 Y5261.00
G1 X5630.00 Y5240.00
G1 X5668.00 Y5217.00
G1 X5680.00 Y5211.00
G1 X5692.00 Y5200.00
G1 X5613.00 Y5212.00
G1 X5603.00 Y5227.00
G1 X5612.00 Y5196.00
G1 X5670.00 Y5180.00
G1 X5690.00 Y5170.00
G1 X5616.00 Y5181.00
G1 X5580.00 Y5181.00
G1 X5674.00 Y5150.00
G1 X5690.00 Y5140.00
G1 X5700.00 Y5121.00
G1 X5714.00 Y5111.00
G1 X5659.00 Y5130.00
G1 X5590.00 Y5149.00
G1 X5585.00 Y5140.00
G1 X5663.00 Y5109.00
G1 X5675.00 Y5089.00
G1 X5698.00 Y5068.00
G1 X5725.00 Y5050.00
G1 X5723.00 Y5039.00
G1 X5718.00 Y5020.00
G1 X5725.00 Y5006.00
G1 X5717.00 Y4991.00
G1 X5725.00 Y4976.00
G1 X5755.00 Y4950.00
G1 X5725.00 Y4960.00
G1 X5695.00 Y4971.00
G1 X5725.00 Y4946.00
G1 X5697.00 Y4940.00
G1 X5679.00 Y4943.00
G1 X5724.00 Y4907.00
G1 X5710.00 Y4905.00
G1 X5657.00 Y4931.00
G1 X5634.00 Y4937.00
G1 X5680.00 Y4906.00
G1 X5667.00 Y4891.00
G1 X5670.00 Y4881.00
G1 X5707.00 Y4860.00
G1 X5726.00 Y4848.00
G1 X5720.00 Y4845.00
G1 X5713.00 Y4837.00
G1 X5707.00 Y4817.00
G1 X5710.00 Y4794.00
G1 X5690.00 Y4805.00
G1 X5666.00 Y4820.00
G1 X5640.00 Y4804.00
G1 X5643.00 Y4794.00
G1 X5653.00 Y4762.00
G1 X5642.00 Y4756.00
G1 X5633.00 Y4746.00
G1 X5620.00 Y4732.00
G1 X5631.00 Y4710.00
G1 X5594.00 Y4745.00
G1 X5562.00 Y4775.00
G1 X5572.00 Y4753.00
G1 X5588.00 Y4715.00
G1 X5540.00 Y4765.00
G1 X5492.00 Y4814.00
G1 X5514.00 Y4778.00
G1 X5542.00 Y4710.00
G1 X5515.00 Y4743.00
G1 X5451.00 Y4815.00
G1 X5405.00 Y4854.00
G1 X5451.00 Y4805.00
G1 X5504.00 Y4735.00
G1 X5474.00 Y4755.00
G1 X5459.00 Y4763.00
G1 X5443.00 Y4751.00
G1 X5407.00 Y4785.00
G1 X5436.00 Y4745.00
G1 X5464.00 Y4705.00
G1 X5436.00 Y4730.00
G1 X5408.00 Y4755.00
G1 X5414.00 Y4730.00
G1 X5404.00 Y4725.00
G1 X5393.00 Y4723.00
G1 X5361.00 Y4706.00
G1 X5162.00 Y4707.00
G1 X5124.00 Y4712.00
G1 X5103.00 Y4709.00
G1 X5079.00 Y4711.00
G1 X5070.00 Y4711.00
G1 X5057.00 Y4709.00
G1 X5032.00 Y4708.00
G1 X5019.00 Y4741.00
G1 X5018.00 Y4785.00
G1 X5004.00 Y4753.00
G1 X4984.00 Y4720.00
G1 X4996.00 Y4805.00
G1 X4992.00 Y4815.00
G1 X4966.00 Y4760.00
G1 X4949.00 Y4735.00
G1 X4941.00 Y4715.00
G1 X4934.00 Y4675.00
G1 X4923.00 Y4710.00
G1 X4912.00 Y4745.00
G1 X4911.00 Y4716.00
G1 X4910.00 Y4686.00
G1 X4890.00 Y4708.00
G1 X4862.00 Y4730.00
G1 X4843.00 Y4758.00
G1 X4832.00 Y4785.00
G1 X4830.00 Y4750.00
G1 X4829.00 Y4715.00
G1 X4810.00 Y4756.00
G1 X4763.00 Y4806.00
G1 X4768.00 Y4788.00
G1 X4780.00 Y4770.00
G1 X4705.00 Y4837.00
G1 X4608.00 Y4895.00
G1 X4586.00 Y4880.00
G1 X4611.00 Y4880.00
G1 X4687.00 Y4828.00
G1 X4743.00 Y4678.00
G1 X4692.00 Y4683.00
G1 X4681.00 Y4684.00
G1 X4574.00 Y4648.00
G1 X4555.00 Y4679.00
G1 X4547.00 Y4704.00
G1 X4533.00 Y4676.00
G1 X4487.00 Y4652.00
G1 X4445.00 Y4678.00
G1 X4420.00 Y4686.00
G1 X4409.00 Y4664.00
G1 X4360.00 Y4736.00
G1 X4374.00 Y4817.00
G1 X4499.00 Y4890.00
G1 X4530.00 Y4898.00
G1 X4430.00 Y4891.00
G1 X4380.00 Y4856.00
G1 X4370.00 Y4855.00
G1 X4409.00 Y4904.00
G1 X4435.00 Y4933.00
G1 X4403.00 Y4910.00
G1 X4363.00 Y4894.00
G1 X4370.00 Y4910.00
G1 X4375.00 Y4920.00
G1 X4352.00 Y4908.00
G1 X4351.00 Y4936.00
G1 X4353.00 Y4951.00
G1 X4336.00 Y4962.00
G1 X4332.00 Y4977.00
G1 X4315.00 Y5001.00
G1 X4306.00 Y5024.00
G1 X4300.00 Y5044.00
G1 X4301.00 Y5070.00
G1 X4298.00 Y5096.00
G1 X4291.00 Y5116.00
G1 X4280.00 Y5118.00
G1 X4297.00 Y5134.00
G1 X4300.00 Y5150.00
G1 X4300.00 Y5160.00
G1 X4296.00 Y5175.00
G1 X4304.00 Y5196.00
G1 X4313.00 Y5216.00
G1 X4328.00 Y5236.00
G1 X4335.00 Y5254.00
G1 X4302.00 Y5261.00
G1 X4331.00 Y5279.00
G1 X4335.00 Y5290.00
G1 X4340.00 Y5308.00
G1 X4365.00 Y5319.00
G1 X4341.00 Y5319.00
G1 X4328.00 Y5332.00
G1 X4312.00 Y5362.00
G1 X4285.00 Y5380.00
G1 X4310.00 Y5380.00
G1 X4317.00 Y5391.00
G1 X4306.00 Y5411.00
G1 X4300.00 Y5435.00
G1 X4306.00 Y5450.00
G1 X4307.00 Y5464.00
G1 X4307.00 Y5484.00
G1 X4310.00 Y5500.00
G1 X4335.00 Y5511.00
G1 X4348.00 Y5522.00
G1 X4353.00 Y5557.00
G1 X4365.00 Y5564.00
G1 X4330.00 Y5570.00
G1 X4335.00 Y5580.00
G1 X4343.00 Y5588.00
G1 X4415.00 Y5597.00
G1 X4500.00 Y5590.00
G1 X4511.00 Y5580.00
G1 X4510.00 Y5595.00
G1 X4506.00 Y5621.00
G1 X4497.00 Y5627.00
G1 X4465.00 Y5614.00
G1 X4456.00 Y5625.00
G1 X4442.00 Y5631.00
G1 X4418.00 Y5632.00
G1 X4418.00 Y5653.00
G1 X4387.00 Y5637.00
G1 X4386.00 Y5656.00
G1 X4376.00 Y5670.00
G1 X4355.00 Y5688.00
G1 X4353.00 Y5698.00
G1 X4327.00 Y5680.00
G1 X4334.00 Y5730.00
G1 X4329.00 Y5733.00
G1 X4311.00 Y5743.00
G1 X4309.00 Y5753.00
G1 X4289.00 Y5754.00
G1 X4263.00 Y5773.00
G1 X4265.00 Y5790.00
G1 X4285.00 Y5813.00
G1 X4265.00 Y5806.00
G1 X4257.00 Y5811.00
G1 X4252.00 Y5836.00
G1 X4250.00 Y5851.00
G1 X4240.00 Y5860.00
G1 X4215.00 Y5867.00
G1 X4239.00 Y5877.00
G1 X4264.00 Y5887.00
G1 X4239.00 Y5894.00
G1 X4235.00 Y5910.00
G1 X4238.00 Y5919.00
G1 X4219.00 Y5978.00
G1 X4212.00 Y6000.00
G1 X4204.00 Y6020.00
G1 X4215.00 Y6040.00
G1 X4210.00 Y6050.00
G1 X4207.00 Y6071.00
G1 X4209.00 Y6097.00
G1 X4221.00 Y6111.00
G1 X4228.00 Y6117.00
G1 X4225.00 Y6140.00
G1 X4240.00 Y6150.00
G1 X4230.00 Y6160.00
G1 X4220.00 Y6170.00
G1 X4235.00 Y6180.00
G1 X4229.00 Y6227.00
G1 X4213.00 Y6455.00
G1 X4302.00 Y6750.00
G1 X4486.00 Y6644.00
G1 X4584.00 Y6593.00
G1 X4604.00 Y6595.00
G1 X4620.00 Y6598.00
G1 X4629.00 Y6616.00
G1 X4643.00 Y6622.00
G1 X4650.00 Y6615.00
G1 X4662.00 Y6620.00
G1 X4677.00 Y6633.00
G1 X4700.00 Y6636.00
G1 X4720.00 Y6645.00
G1 X4740.00 Y6657.00
G1 X4750.00 Y6660.00
G1 X4760.00 Y6659.00
G1 X4775.00 Y6660.00
G1 X4790.00 Y6665.00
G1 X4803.00 Y6673.00
G1 X4905.00 Y6666.00
G1 X5060.00 Y6628.00
G1 X5074.00 Y6635.00
G1 X5095.00 Y6629.00
G1 X5110.00 Y6624.00
G1 X5133.00 Y6626.00
G1 X5150.00 Y6617.00
G1 X5165.00 Y6606.00
G1 X5186.00 Y6603.00
G1 X5451.00 Y6790.00
G1 X5477.00 Y6768.00
G1 X4044.00 Y6259.00
G1 X4049.00 Y6250.00
G1 X4060.00 Y6233.00
G1 X4066.00 Y6223.00
G1 X4121.00 Y6128.00
G1 X4100.00 Y6139.00
G1 X4068.00 Y6186.00
G1 X4067.00 Y6179.00
G1 X4110.00 Y6065.00
G1 X4091.00 Y6057.00
G1 X4120.00 Y6005.00
G1 X4158.00 Y5946.00
G1 X4164.00 Y5903.00
G1 X4147.00 Y5894.00
G1 X4108.00 Y5933.00
G1 X4040.00 Y5950.00
G1 X4033.00 Y5941.00
G1 X4171.00 Y5703.00
G1 X4157.00 Y5453.00
G1 X4145.00 Y5410.00
G1 X4154.00 Y5398.00
G1 X4158.00 Y5393.00
G1 X4194.00 Y5379.00
G1 X4212.00 Y5370.00
G1 X4220.00 Y5357.00
G1 X4218.00 Y5300.00
G1 X4180.00 Y5279.00
G1 X4190.00 Y5265.00
G1 X4208.00 Y5245.00
G1 X4174.00 Y5244.00
G1 X4165.00 Y5240.00
G1 X4186.00 Y5230.00
G1 X4173.00 Y5209.00
G1 X4165.00 Y5203.00
G1 X4174.00 Y5179.00
G1 X4170.00 Y5170.00
G1 X4110.00 Y5164.00
G1 X4052.00 Y5175.00
G1 X4107.00 Y5151.00
G1 X4165.00 Y5130.00
G1 X4120.00 Y5135.00
G1 X4075.00 Y5140.00
G1 X4113.00 Y5120.00
G1 X4150.00 Y5095.00
G1 X4079.00 Y5116.00
G1 X4074.00 Y5111.00
G1 X4112.00 Y5084.00
G1 X4136.00 Y5063.00
G1 X4084.00 Y5084.00
G1 X4051.00 Y5089.00
G1 X4075.00 Y5069.00
G1 X4053.00 Y5075.00
G1 X4066.00 Y5050.00
G1 X4096.00 Y5022.00
G1 X4050.00 Y5044.00
G1 X4010.00 Y5060.00
G1 X4029.00 Y5041.00
G1 X4054.00 Y5015.00
G1 X4034.00 Y5019.00
G1 X4005.00 Y5020.00
G1 X3986.00 Y5015.00
G1 X3963.00 Y5012.00
G1 X3943.00 Y5001.00
G1 X3905.00 Y5022.00
G1 X3934.00 Y4991.00
G1 X3913.00 Y4992.00
G1 X3891.00 Y5005.00
G1 X3885.00 Y4990.00
G1 X3864.00 Y4997.00
G1 X3877.00 Y4964.00
G1 X3824.00 Y5009.00
G1 X3802.00 Y5018.00
G1 X3775.00 Y5020.00
G1 X3804.00 Y5001.00
G1 X3842.00 Y4950.00
G1 X3826.00 Y4965.00
G1 X3804.00 Y4968.00
G1 X3803.00 Y4963.00
G1 X3790.00 Y4965.00
G1 X3744.00 Y4985.00
G1 X3696.00 Y5009.00
G1 X3704.00 Y4997.00
G1 X3749.00 Y4962.00
G1 X3775.00 Y4938.00
G1 X3744.00 Y4959.00
G1 X3672.00 Y4993.00
G1 X3640.00 Y4990.00
G1 X3624.00 Y4978.00
G1 X3591.00 Y4972.00
G1 X3417.00 Y5043.00
G1 X3384.00 Y5095.00
G1 X3419.00 Y5148.00
G1 X3433.00 Y5194.00
G1 X3379.00 Y5180.00
G1 X3327.00 Y5185.00
G1 X3297.00 Y5179.00
G1 X3331.00 Y5129.00
G1 X3345.00 Y5014.00
G1 X3244.00 Y4956.00
G1 X3200.00 Y4951.00
G1 X3211.00 Y4940.00
G1 X3214.00 Y4929.00
G1 X3201.00 Y4928.00
G1 X3167.00 Y4906.00
G1 X3154.00 Y4893.00
G1 X3189.00 Y4957.00
G1 X3198.00 Y4976.00
G1 X3139.00 Y4921.00
G1 X3124.00 Y4902.00
G1 X3174.00 Y4988.00
G1 X3165.00 Y5000.00
G1 X3137.00 Y5002.00
G1 X3142.00 Y5020.00
G1 X3125.00 Y5010.00
G1 X3103.00 Y5000.00
G1 X3100.00 Y5015.00
G1 X3101.00 Y5030.00
G1 X3095.00 Y5040.00
G1 X3078.00 Y5059.00
G1 X3070.00 Y5070.00
G1 X3068.00 Y5080.00
G1 X3055.00 Y5115.00
G1 X3051.00 Y5140.00
G1 X3054.00 Y5219.00
G1 X3145.00 Y5317.00
G1 X3165.00 Y5288.00
G1 X3197.00 Y5240.00
G1 X3256.00 Y5235.00
G1 X3279.00 Y5217.00
G1 X3293.00 Y5219.00
G1 X3313.00 Y5279.00
G1 X3258.00 Y5376.00
G1 X3107.00 Y5304.00
G1 X3030.00 Y5269.00
G1 X3013.00 Y5293.00
G1 X3015.00 Y5297.00
G1 X3035.00 Y5314.00
G1 X3030.00 Y5356.00
G1 X3041.00 Y5403.00
G1 X3051.00 Y5436.00
G1 X3057.00 Y5457.00
G1 X3072.00 Y5481.00
G1 X3077.00 Y5500.00
G1 X3073.00 Y5523.00
G1 X3071.00 Y5544.00
G1 X3084.00 Y5560.00
G1 X3112.00 Y5553.00
G1 X3108.00 Y5559.00
G1 X3040.00 Y5702.00
G1 X3031.00 Y5826.00
G1 X3138.00 Y5851.00
G1 X3280.00 Y5742.00
G1 X3298.00 Y5750.00
G1 X3330.00 Y5778.00
G1 X3353.00 Y5796.00
G1 X3372.00 Y5804.00
G1 X3396.00 Y5815.00
G1 X3416.00 Y5817.00
G1 X3445.00 Y5826.00
G1 X3475.00 Y5831.00
G1 X3505.00 Y5838.00
G1 X3530.00 Y5845.00
G1 X3531.00 Y5825.00
G1 X3546.00 Y5845.00
G1 X3567.00 Y5852.00
G1 X3586.00 Y5851.00
G1 X3600.00 Y5850.00
G1 X3615.00 Y5850.00
G1 X3630.00 Y5852.00
G1 X3669.00 Y5854.00
G1 X3677.00 Y5847.00
G1 X3695.00 Y5836.00
G1 X3720.00 Y5830.00
G1 X3740.00 Y5825.00
G1 X3754.00 Y5816.00
G1 X3739.00 Y5800.00
G1 X3730.00 Y5788.00
G1 X3765.00 Y5810.00
G1 X3800.00 Y5831.00
G1 X3813.00 Y5825.00
G1 X3792.00 Y5803.00
G1 X3760.00 Y5768.00
G1 X3911.00 Y5865.00
G1 X3979.00 Y5919.00
G1 X3997.00 Y5937.00
G1 X3972.00 Y5931.00
G1 X3947.00 Y5933.00
G1 X3941.00 Y5927.00
G1 X3930.00 Y5915.00
G1 X3920.00 Y5908.00
G1 X3890.00 Y5875.00
G1 X3860.00 Y5848.00
G1 X3845.00 Y5840.00
G1 X3830.00 Y5855.00
G1 X3815.00 Y5864.00
G1 X3800.00 Y5868.00
G1 X3755.00 Y5874.00
G1 X3710.00 Y5882.00
G1 X3698.00 Y5887.00
G1 X3673.00 Y5899.00
G1 X3639.00 Y5902.00
G1 X3623.00 Y5904.00
G1 X3600.00 Y5908.00
G1 X3603.00 Y5923.00
G1 X3590.00 Y5935.00
G1 X3596.00 Y5967.00
G1 X3625.00 Y6005.00
G1 X3596.00 Y5986.00
G1 X3604.00 Y6019.00
G1 X3611.00 Y6048.00
G1 X3621.00 Y6072.00
G1 X3624.00 Y6085.00
G1 X3629.00 Y6134.00
G1 X3668.00 Y6190.00
G1 X3676.00 Y6199.00
G1 X3686.00 Y6214.00
G1 X3695.00 Y6230.00
G1 X3703.00 Y6240.00
G1 X3745.00 Y6266.00
G1 X3905.00 Y6299.00
G1 X3944.00 Y6292.00
G1 X3920.00 Y6313.00
G1 X3895.00 Y6333.00
G1 X3935.00 Y6326.00
G1 X4012.00 Y6293.00
G1 X6009.00 Y6210.00
G1 X5974.00 Y6225.00
G1 X5996.00 Y6225.00
G1 X5987.00 Y6159.00
G1 X5993.00 Y6164.00
G1 X6005.00 Y6152.00
G1 X7457.00 Y6124.00
G1 X7420.00 Y6145.00
G1 X7450.00 Y6145.00
G1 X7540.00 Y6120.00
G1 X7530.00 Y6136.00
G1 X7540.00 Y6145.00
G1 X7550.00 Y6129.00
G1 X5981.00 Y6110.00
G1 X5965.00 Y6120.00
G1 X5969.00 Y6130.00
G1 X5985.00 Y6120.00
G1 X7617.00 Y6031.00
G1 X7618.00 Y5998.00
G1 X7595.00 Y6000.00
G1 X7547.00 Y6014.00
G1 X7505.00 Y6037.00
G1 X7494.00 Y6096.00
G1 X7555.00 Y6087.00
G1 X8073.00 Y5678.00
G1 X8094.00 Y5626.00
G1 X8108.00 Y5614.00
G1 X8121.00 Y5587.00
G1 X8136.00 Y5553.00
G1 X8140.00 Y5540.00
G1 X8146.00 Y5508.00
G1 X8125.00 Y5478.00
G1 X8115.00 Y5471.00
G1 X8143.00 Y5459.00
G1 X8153.00 Y5453.00
G1 X8140.00 Y5435.00
G1 X8153.00 Y5417.00
G1 X8158.00 Y5405.00
G1 X8109.00 Y5444.00
G1 X7959.00 Y5525.00
G1 X7933.00 Y5507.00
G1 X7951.00 Y5499.00
G1 X8091.00 Y5438.00
G1 X8089.00 Y5409.00
G1 X8091.00 Y5400.00
G1 X8113.00 Y5386.00
G1 X8100.00 Y5377.00
G1 X8076.00 Y5371.00
G1 X8094.00 Y5360.00
G1 X8120.00 Y5350.00
G1 X8136.00 Y5340.00
G1 X8117.00 Y5320.00
G1 X8125.00 Y5303.00
G1 X8140.00 Y5282.00
G1 X8115.00 Y5263.00
G1 X8065.00 Y5255.00
G1 X7985.00 Y5265.00
G1 X7945.00 Y5269.00
G1 X7984.00 Y5259.00
G1 X8044.00 Y5232.00
G1 X8051.00 Y5233.00
G1 X8084.00 Y5235.00
G1 X8093.00 Y5215.00
G1 X8083.00 Y5210.00
G1 X8057.00 Y5205.00
G1 X7999.00 Y5230.00
G1 X8025.00 Y5209.00
G1 X8080.00 Y5160.00
G1 X8046.00 Y5175.00
G1 X8037.00 Y5165.00
G1 X8010.00 Y5165.00
G1 X8005.00 Y5155.00
G1 X8000.00 Y5137.00
G1 X7957.00 Y5142.00
G1 X7952.00 Y5134.00
G1 X7940.00 Y5129.00
G1 X7923.00 Y5131.00
G1 X7921.00 Y5122.00
G1 X7938.00 Y5110.00
G1 X7951.00 Y5114.00
G1 X7960.00 Y5120.00
G1 X7969.00 Y5126.00
G1 X7982.00 Y5131.00
G1 X8000.00 Y5124.00
G1 X7996.00 Y5113.00
G1 X7984.00 Y5104.00
G1 X7977.00 Y5098.00
G1 X7950.00 Y5100.00
G1 X7916.00 Y5108.00
G1 X7904.00 Y5113.00
G1 X7874.00 Y5128.00
G1 X7849.00 Y5155.00
G1 X7871.00 Y5115.00
G1 X7894.00 Y5075.00
G1 X7863.00 Y5103.00
G1 X7826.00 Y5115.00
G1 X7827.00 Y5087.00
G1 X7817.00 Y5083.00
G1 X7796.00 Y5077.00
G1 X7784.00 Y5078.00
G1 X7760.00 Y5074.00
G1 X7746.00 Y5063.00
G1 X7725.00 Y5052.00
G1 X7710.00 Y5050.00
G1 X7700.00 Y5054.00
G1 X7638.00 Y5026.00
G1 X7624.00 Y5017.00
G1 X7593.00 Y5025.00
G1 X7570.00 Y5009.00
G1 X7585.00 Y4990.00
G1 X7600.00 Y4986.00
G1 X7610.00 Y4975.00
G1 X7620.00 Y4960.00
G1 X7609.00 Y4946.00
G1 X7589.00 Y4939.00
G1 X7579.00 Y4950.00
G1 X7570.00 Y4955.00
G1 X7554.00 Y4958.00
G1 X7537.00 Y4930.00
G1 X7527.00 Y4925.00
G1 X7510.00 Y4960.00
G1 X7501.00 Y4962.00
G1 X7467.00 Y4990.00
G1 X7461.00 Y4988.00
G1 X7439.00 Y4998.00
G1 X7439.00 Y5025.00
G1 X7429.00 Y5000.00
G1 X7407.00 Y5028.00
G1 X7396.00 Y5020.00
G1 X7381.00 Y5003.00
G1 X7369.00 Y5020.00
G1 X7364.00 Y5038.00
G1 X7350.00 Y5031.00
G1 X7330.00 Y5008.00
G1 X7329.00 Y5031.00
G1 X7323.00 Y5036.00
G1 X7310.00 Y5030.00
G1 X7284.00 Y5029.00
G1 X7273.00 Y5039.00
G1 X7279.00 Y5062.00
G1 X7253.00 Y5039.00
G1 X7227.00 Y5015.00
G1 X7233.00 Y5038.00
G1 X7212.00 Y5048.00
G1 X7205.00 Y5070.00
G1 X7185.00 Y5074.00
G1 X7160.00 Y5069.00
G1 X7175.00 Y5086.00
G1 X7190.00 Y5101.00
G1 X7170.00 Y5100.00
G1 X7135.00 Y5111.00
G1 X7123.00 Y5121.00
G1 X7118.00 Y5127.00
G1 X7130.00 Y5141.00
G1 X7115.00 Y5144.00
G1 X7100.00 Y5149.00
G1 X7110.00 Y5160.00
G1 X7120.00 Y5170.00
G1 X7105.00 Y5174.00
G1 X7119.00 Y5193.00
G1 X7161.00 Y5200.00
G1 X7194.00 Y5211.00
G1 X7136.00 Y5211.00
G1 X7103.00 Y5197.00
G1 X7093.00 Y5205.00
G1 X7110.00 Y5224.00
G1 X7134.00 Y5257.00
G1 X7154.00 Y5291.00
G1 X7170.00 Y5305.00
G1 X7185.00 Y5320.00
G1 X7248.00 Y5382.00
G1 X7290.00 Y5401.00
G1 X7374.00 Y5385.00
G1 X7465.00 Y5377.00
G1 X7508.00 Y5385.00
G1 X7596.00 Y5383.00
G1 X7579.00 Y5390.00
G1 X7527.00 Y5440.00
G1 X7424.00 Y5503.00
G1 X7340.00 Y5436.00
G1 X7307.00 Y5423.00
G1 X7163.00 Y5348.00
G1 X7136.00 Y5308.00
G1 X7127.00 Y5300.00
G1 X7100.00 Y5270.00
G1 X7079.00 Y5246.00
G1 X7077.00 Y5234.00
G1 X7069.00 Y5222.00
G1 X7055.00 Y5241.00
G1 X7040.00 Y5264.00
G1 X7050.00 Y5281.00
G1 X7075.00 Y5288.00
G1 X7048.00 Y5289.00
G1 X7038.00 Y5310.00
G1 X7038.00 Y5324.00
G1 X7048.00 Y5351.00
G1 X7063.00 Y5357.00
G1 X7050.00 Y5376.00
G1 X7028.00 Y5391.00
G1 X7030.00 Y5403.00
G1 X7059.00 Y5417.00
G1 X7042.00 Y5443.00
G1 X6990.00 Y5569.00
G1 X6971.00 Y5622.00
G1 X6933.00 Y5866.00
G1 X7137.00 Y5895.00
G1 X7280.00 Y5847.00
G1 X7295.00 Y5850.00
G1 X7310.00 Y5860.00
G1 X7324.00 Y5871.00
G1 X7342.00 Y5877.00
G1 X7364.00 Y5838.00
G1 X7390.00 Y5780.00
G1 X7385.00 Y5821.00
G1 X7380.00 Y5905.00
G1 X7390.00 Y5911.00
G1 X7404.00 Y5911.00
G1 X7424.00 Y5916.00
G1 X7445.00 Y5926.00
G1 X7460.00 Y5932.00
G1 X7471.00 Y5933.00
G1 X7505.00 Y5930.00
G1 X7535.00 Y5932.00
G1 X7550.00 Y5940.00
G1 X7560.00 Y5935.00
G1 X7568.00 Y5927.00
G1 X7616.00 Y5928.00
G1 X7635.00 Y5926.00
G1 X7655.00 Y5920.00
G1 X7671.00 Y5921.00
G1 X7688.00 Y5925.00
G1 X7708.00 Y5914.00
G1 X7734.00 Y5883.00
G1 X7737.00 Y5875.00
G1 X7917.00 Y6060.00
G1 X8023.00 Y6075.00
G1 X7480.00 Y5965.00
G1 X7458.00 Y5978.00
G1 X7476.00 Y5986.00
G1 X7490.00 Y5990.00
G1 X7502.00 Y5982.00
G1 X1880.00 Y5895.00
G1 X1876.00 Y5911.00
G1 X1870.00 Y5935.00
G1 X1865.00 Y5961.00
G1 X1890.00 Y5917.00
G1 X3333.00 Y5839.00
G1 X3308.00 Y5839.00
G1 X3306.00 Y5825.00
G1 X3285.00 Y5820.00
G1 X3268.00 Y5830.00
G1 X3276.00 Y5808.00
G1 X3238.00 Y5822.00
G1 X3211.00 Y5841.00
G1 X3253.00 Y5893.00
G1 X3302.00 Y5929.00
G1 X3329.00 Y5900.00
G1 X1846.00 Y5912.00
G1 X1854.00 Y5935.00
G1 X1858.00 Y5912.00
G1 X1856.00 Y5882.00
G1 X6897.00 Y5850.00
G1 X6876.00 Y5859.00
G1 X6906.00 Y5857.00
G1 X8368.00 Y5635.00
G1 X8373.00 Y5663.00
G1 X8719.00 Y5674.00
G1 X8733.00 Y5660.00
G1 X8637.00 Y5570.00
G1 X8678.00 Y5564.00
G1 X8750.00 Y5570.00
G1 X8719.00 Y5545.00
G1 X8665.00 Y5535.00
G1 X8586.00 Y5519.00
G1 X8577.00 Y5513.00
G1 X8656.00 Y5519.00
G1 X8718.00 Y5526.00
G1 X8606.00 Y5485.00
G1 X8566.00 Y5471.00
G1 X8733.00 Y5512.00
G1 X8750.00 Y5511.00
G1 X8652.00 Y5444.00
G1 X8635.00 Y5431.00
G1 X8705.00 Y5450.00
G1 X8720.00 Y5437.00
G1 X8512.00 Y5402.00
G1 X8332.00 Y5461.00
G1 X8350.00 Y5470.00
G1 X8394.00 Y5451.00
G1 X8395.00 Y5457.00
G1 X8357.00 Y5481.00
G1 X8330.00 Y5500.00
G1 X8320.00 Y5508.00
G1 X8378.00 Y5514.00
G1 X8400.00 Y5519.00
G1 X8343.00 Y5539.00
G1 X8338.00 Y5565.00
G1 X8354.00 Y5585.00
G1 X8324.00 Y5627.00
G1 X8380.00 Y5615.00
G1 X8710.00 Y5623.00
G1 X8748.00 Y5639.00
G1 X8750.00 Y5625.00
G1 X7435.00 Y5420.00
G1 X7417.00 Y5444.00
G1 X7444.00 Y5435.00
G1 X5595.00 Y5418.00
G1 X5576.00 Y5421.00
G1 X5620.00 Y5426.00
G1 X8356.00 Y5225.00
G1 X8379.00 Y5207.00
G1 X8464.00 Y5192.00
G1 X8510.00 Y5171.00
G1 X8504.00 Y5198.00
G1 X8481.00 Y5255.00
G1 X8459.00 Y5305.00
G1 X8451.00 Y5292.00
G1 X8440.00 Y5265.00
G1 X8430.00 Y5261.00
G1 X8411.00 Y5250.00
G1 X8397.00 Y5318.00
G1 X8417.00 Y5383.00
G1 X8441.00 Y5370.00
G1 X8509.00 Y5215.00
G1 X8468.00 Y5117.00
G1 X8249.00 Y5026.00
G1 X8215.00 Y5040.00
G1 X8225.00 Y5088.00
G1 X8187.00 Y5010.00
G1 X8181.00 Y5015.00
G1 X8260.00 Y5153.00
G1 X8317.00 Y5190.00
G1 X8330.00 Y5253.00
G1 X8368.00 Y5331.00
G1 X5638.00 Y5380.00
G1 X5660.00 Y5369.00
G1 X5650.00 Y5365.00
G1 X5640.00 Y5361.00
G1 X5653.00 Y5349.00
G1 X5645.00 Y5340.00
G1 X5650.00 Y5330.00
G1 X5656.00 Y5315.00
G1 X5661.00 Y5299.00
G1 X5662.00 Y5293.00
G1 X5671.00 Y5270.00
G1 X5690.00 Y5259.00
G1 X5659.00 Y5254.00
G1 X5611.00 Y5261.00
G1 X5615.00 Y5270.00
G1 X5612.00 Y5286.00
G1 X5594.00 Y5306.00
G1 X5587.00 Y5323.00
G1 X5600.00 Y5338.00
G1 X5583.00 Y5343.00
G1 X5540.00 Y5349.00
G1 X5553.00 Y5361.00
G1 X5553.00 Y5367.00
G1 X5630.00 Y5409.00
G1 X5636.00 Y5395.00
G1 X2196.00 Y5370.00
G1 X2185.00 Y5380.00
G1 X2189.00 Y5390.00
G1 X2200.00 Y5380.00
G1 X8756.00 Y5142.00
G1 X8745.00 Y5066.00
G1 X8729.00 Y5066.00
G1 X8728.00 Y5115.00
G1 X8719.00 Y5065.00
G1 X8720.00 Y5012.00
G1 X8709.00 Y4990.00
G1 X8700.00 Y5020.00
G1 X8690.00 Y5050.00
G1 X8680.00 Y5020.00
G1 X8672.00 Y4990.00
G1 X8651.00 Y5113.00
G1 X8638.00 Y5370.00
G1 X8653.00 Y5353.00
G1 X8659.00 Y5357.00
G1 X8709.00 Y5345.00
G1 X8720.00 Y5355.00
G1 X8730.00 Y5373.00
G1 X8751.00 Y5265.00
G1 X8624.00 Y5118.00
G1 X8599.00 Y5040.00
G1 X8593.00 Y5095.00
G1 X8592.00 Y5043.00
G1 X8576.00 Y4996.00
G1 X8555.00 Y5063.00
G1 X8494.00 Y5362.00
G1 X8527.00 Y5375.00
G1 X8582.00 Y5365.00
G1 X1505.00 Y5164.00
G1 X1487.00 Y5011.00
G1 X1464.00 Y5005.00
G1 X1499.00 Y4979.00
G1 X1532.00 Y4939.00
G1 X1493.00 Y4938.00
G1 X1430.00 Y5242.00
G1 X1472.00 Y5358.00
G1 X1500.00 Y5342.00
G1 X1894.00 Y5308.00
G1 X1866.00 Y5083.00
G1 X1863.00 Y5200.00
G1 X1851.00 Y5172.00
G1 X1828.00 Y5075.00
G1 X1811.00 Y5084.00
G1 X1815.00 Y5156.00
G1 X1836.00 Y5270.00
G1 X1880.00 Y5370.00
G1 X1888.00 Y5363.00
G1 X1781.00 Y5136.00
G1 X1760.00 Y5065.00
G1 X1798.00 Y5026.00
G1 X1888.00 Y4899.00
G1 X1809.00 Y4873.00
G1 X1723.00 Y5002.00
G1 X1710.00 Y5018.00
G1 X1670.00 Y4975.00
G1 X1670.00 Y5017.00
G1 X1758.00 Y5339.00
G1 X1794.00 Y5350.00
G1 X1807.00 Y5273.00
G1 X1565.00 Y5316.00
G1 X1580.00 Y5296.00
G1 X1565.00 Y5276.00
G1 X1549.00 Y5229.00
G1 X1543.00 Y5188.00
G1 X1527.00 Y5193.00
G1 X1523.00 Y5204.00
G1 X1530.00 Y5281.00
G1 X1540.00 Y5340.00
G1 X1550.00 Y5325.00
G1 X1648.00 Y4870.00
G1 X1673.00 Y4788.00
G1 X1796.00 Y4733.00
G1 X1644.00 Y4762.00
G1 X1610.00 Y4799.00
G1 X1600.00 Y4825.00
G1 X1604.00 Y4797.00
G1 X1597.00 Y4779.00
G1 X1580.00 Y4882.00
G1 X1572.00 Y4913.00
G1 X1551.00 Y4953.00
G1 X1575.00 Y5184.00
G1 X1606.00 Y5321.00
G1 X1641.00 Y5330.00
G1 X1680.00 Y5308.00
G1 X1689.00 Y5306.00
G1 X1698.00 Y5334.00
G1 X1681.00 Y5189.00
G1 X3234.00 Y5316.00
G1 X3252.00 Y5322.00
G1 X3252.00 Y5298.00
G1 X1973.00 Y5284.00
G1 X1920.00 Y5299.00
G1 X1998.00 Y5319.00
G1 X2095.00 Y5311.00
G1 X8230.00 Y5259.00
G1 X8222.00 Y5282.00
G1 X8249.00 Y5288.00
G1 X8292.00 Y5289.00
G1 X8259.00 Y5264.00
G1 X2055.00 Y5251.00
G1 X1931.00 Y5255.00
G1 X2090.00 Y5278.00
G1 X2160.00 Y5266.00
G1 X8258.00 Y5223.00
G1 X8297.00 Y5269.00
G1 X8287.00 Y5247.00
G1 X8495.00 Y5202.00
G1 X8458.00 Y5213.00
G1 X8426.00 Y5232.00
G1 X8471.00 Y5221.00
G1 X2075.00 Y5211.00
G1 X2070.00 Y5220.00
G1 X2115.00 Y5229.00
G1 X2120.00 Y5220.00
G1 X1375.00 Y5075.00
G1 X1350.00 Y5031.00
G1 X1382.00 Y5197.00
G1 X1394.00 Y5189.00
G1 X8787.00 Y4891.00
G1 X8785.00 Y4923.00
G1 X8791.00 Y5152.00
G1 X8790.00 Y5185.00
G1 X8814.00 Y5110.00
G1 X2028.00 Y5173.00
G1 X2034.00 Y5179.00
G1 X2047.00 Y5174.00
G1 X1485.00 Y4930.00
G1 X1443.00 Y4937.00
G1 X1380.00 Y5085.00
G1 X1402.00 Y5093.00
G1 X1422.00 Y4992.00
G1 X3355.00 Y5160.00
G1 X3372.00 Y5156.00
G1 X3376.00 Y5132.00
G1 X1945.00 Y5070.00
G1 X1951.00 Y5030.00
G1 X1910.00 Y5135.00
G1 X1920.00 Y5160.00
G1 X1930.00 Y5128.00
G1 X1979.00 Y5062.00
G1 X1953.00 Y5101.00
G1 X1955.00 Y5115.00
G1 X1982.00 Y5076.00
G1 X7845.00 Y5090.00
G1 X7839.00 Y5110.00
G1 X7854.00 Y5094.00
G1 X8523.00 Y4944.00
G1 X8345.00 Y4941.00
G1 X8420.00 Y4935.00
G1 X8440.00 Y4932.00
G1 X8405.00 Y4924.00
G1 X8445.00 Y4917.00
G1 X8515.00 Y4911.00
G1 X8510.00 Y4919.00
G1 X8617.00 Y4925.00
G1 X8757.00 Y4915.00
G1 X8615.00 Y4884.00
G1 X8580.00 Y4880.00
G1 X8708.00 Y4880.00
G1 X8731.00 Y4876.00
G1 X8435.00 Y4905.00
G1 X8220.00 Y4937.00
G1 X8145.00 Y4932.00
G1 X8195.00 Y4946.00
G1 X8339.00 Y4975.00
G1 X8519.00 Y4979.00
G1 X8732.00 Y4973.00
G1 X8766.00 Y5030.00
G1 X8790.00 Y5051.00
G1 X4135.00 Y5029.00
G1 X4103.00 Y5045.00
G1 X4079.00 Y5070.00
G1 X4111.00 Y5050.00
G1 X1988.00 Y4965.00
G1 X2000.00 Y4980.00
G1 X2098.00 Y4872.00
G1 X2305.00 Y4652.00
G1 X2345.00 Y4620.00
G1 X2305.00 Y4639.00
G1 X2202.00 Y4714.00
G1 X2132.00 Y4770.00
G1 X2153.00 Y4747.00
G1 X2180.00 Y4713.00
G1 X2218.00 Y4684.00
G1 X2165.00 Y4679.00
G1 X1887.00 Y4945.00
G1 X1844.00 Y5037.00
G1 X1873.00 Y5031.00
G1 X1893.00 Y5035.00
G1 X1952.00 Y5003.00
G1 X7951.00 Y4913.00
G1 X7925.00 Y4890.00
G1 X7908.00 Y4913.00
G1 X7890.00 Y4922.00
G1 X7832.00 Y4900.00
G1 X7817.00 Y4902.00
G1 X7772.00 Y4888.00
G1 X7730.00 Y4904.00
G1 X7721.00 Y4908.00
G1 X7700.00 Y4890.00
G1 X7711.00 Y4994.00
G1 X7748.00 Y5028.00
G1 X7770.00 Y5033.00
G1 X7800.00 Y5044.00
G1 X7879.00 Y5045.00
G1 X7967.00 Y5018.00
G1 X8484.00 Y5028.00
G1 X8460.00 Y5015.00
G1 X8432.00 Y5000.00
G1 X8450.00 Y5024.00
G1 X8498.00 Y5035.00
G1 X8413.00 Y5019.00
G1 X8409.00 Y5023.00
G1 X8430.00 Y5036.00
G1 X3565.00 Y4945.00
G1 X3574.00 Y4902.00
G1 X3545.00 Y4898.00
G1 X3530.00 Y4885.00
G1 X3518.00 Y4872.00
G1 X3467.00 Y4867.00
G1 X3419.00 Y4849.00
G1 X3410.00 Y4850.00
G1 X3388.00 Y4867.00
G1 X3362.00 Y4880.00
G1 X3337.00 Y4848.00
G1 X3333.00 Y4858.00
G1 X3320.00 Y4920.00
G1 X3325.00 Y4957.00
G1 X3386.00 Y5030.00
G1 X3437.00 Y5010.00
G1 X5999.00 Y5010.00
G1 X5990.00 Y5020.00
G1 X6006.00 Y5030.00
G1 X6015.00 Y5020.00
G1 X2155.00 Y4963.00
G1 X2304.00 Y4839.00
G1 X2575.00 Y4613.00
G1 X2919.00 Y4500.00
G1 X2924.00 Y4489.00
G1 X2692.00 Y4506.00
G1 X2580.00 Y4546.00
G1 X2189.00 Y4797.00
G1 X2030.00 Y5002.00
G1 X2139.00 Y4966.00
G1 X7545.00 Y4820.00
G1 X7536.00 Y4824.00
G1 X7531.00 Y4840.00
G1 X7520.00 Y4823.00
G1 X7506.00 Y4823.00
G1 X7486.00 Y4825.00
G1 X7385.00 Y4830.00
G1 X7362.00 Y4833.00
G1 X7294.00 Y4827.00
G1 X7266.00 Y4827.00
G1 X7234.00 Y4826.00
G1 X7225.00 Y4830.00
G1 X7186.00 Y4860.00
G1 X7179.00 Y4885.00
G1 X7195.00 Y4860.00
G1 X7211.00 Y4835.00
G1 X7204.00 Y4860.00
G1 X7189.00 Y4888.00
G1 X7180.00 Y4901.00
G1 X7189.00 Y4906.00
G1 X7204.00 Y4923.00
G1 X7345.00 Y4968.00
G1 X7465.00 Y4945.00
G1 X4172.00 Y4926.00
G1 X4177.00 Y4923.00
G1 X4212.00 Y4874.00
G1 X4266.00 Y4698.00
G1 X4240.00 Y4718.00
G1 X4222.00 Y4710.00
G1 X4172.00 Y4672.00
G1 X4150.00 Y4695.00
G1 X4133.00 Y4705.00
G1 X4100.00 Y4685.00
G1 X4083.00 Y4685.00
G1 X4055.00 Y4680.00
G1 X4027.00 Y4720.00
G1 X4017.00 Y4745.00
G1 X4007.00 Y4718.00
G1 X3949.00 Y4722.00
G1 X3920.00 Y4754.00
G1 X3920.00 Y4727.00
G1 X3885.00 Y4720.00
G1 X3868.00 Y4791.00
G1 X3868.00 Y4842.00
G1 X3848.00 Y4799.00
G1 X3814.00 Y4774.00
G1 X3800.00 Y4762.00
G1 X3761.00 Y4729.00
G1 X3755.00 Y4721.00
G1 X3782.00 Y4710.00
G1 X3935.00 Y4664.00
G1 X3965.00 Y4650.00
G1 X3950.00 Y4665.00
G1 X3990.00 Y4670.00
G1 X4160.00 Y4649.00
G1 X4665.00 Y4540.00
G1 X5005.00 Y4449.00
G1 X5195.00 Y4398.00
G1 X5465.00 Y4396.00
G1 X5835.00 Y4381.00
G1 X6010.00 Y4380.00
G1 X6165.00 Y4389.00
G1 X6220.00 Y4378.00
G1 X5895.00 Y4364.00
G1 X5521.00 Y4349.00
G1 X5165.00 Y4347.00
G1 X5065.00 Y4370.00
G1 X4770.00 Y4435.00
G1 X4525.00 Y4500.00
G1 X4305.00 Y4556.00
G1 X4291.00 Y4557.00
G1 X4565.00 Y4460.00
G1 X4613.00 Y4441.00
G1 X4246.00 Y4555.00
G1 X4133.00 Y4597.00
G1 X4167.00 Y4577.00
G1 X4325.00 Y4510.00
G1 X4656.00 Y4420.00
G1 X4739.00 Y4414.00
G1 X4771.00 Y4407.00
G1 X4748.00 Y4391.00
G1 X4640.00 Y4376.00
G1 X4600.00 Y4370.00
G1 X4645.00 Y4363.00
G1 X4597.00 Y4362.00
G1 X4215.00 Y4465.00
G1 X3990.00 Y4561.00
G1 X3700.00 Y4703.00
G1 X3720.00 Y4710.00
G1 X3740.00 Y4720.00
G1 X3711.00 Y4730.00
G1 X3666.00 Y4763.00
G1 X3650.00 Y4795.00
G1 X3650.00 Y4765.00
G1 X3595.00 Y4720.00
G1 X3553.00 Y4751.00
G1 X3538.00 Y4770.00
G1 X3536.00 Y4758.00
G1 X3530.00 Y4757.00
G1 X3524.00 Y4793.00
G1 X3595.00 Y4880.00
G1 X3613.00 Y4913.00
G1 X3620.00 Y4910.00
G1 X3675.00 Y4907.00
G1 X3769.00 Y4923.00
G1 X3854.00 Y4889.00
G1 X3885.00 Y4853.00
G1 X3914.00 Y4886.00
G1 X3977.00 Y4926.00
G1 X4014.00 Y4939.00
G1 X4118.00 Y4932.00
G1 X2550.00 Y4756.00
G1 X2680.00 Y4648.00
G1 X2688.00 Y4630.00
G1 X2635.00 Y4656.00
G1 X2610.00 Y4665.00
G1 X2583.00 Y4678.00
G1 X2531.00 Y4710.00
G1 X2592.00 Y4650.00
G1 X2602.00 Y4624.00
G1 X2342.00 Y4815.00
G1 X2276.00 Y4933.00
G1 X2393.00 Y4878.00
G1 X1922.00 Y4794.00
G1 X2022.00 Y4729.00
G1 X2370.00 Y4588.00
G1 X2274.00 Y4585.00
G1 X2020.00 Y4678.00
G1 X1940.00 Y4712.00
G1 X1805.00 Y4774.00
G1 X1672.00 Y4864.00
G1 X1705.00 Y4871.00
G1 X1716.00 Y4880.00
G1 X1680.00 Y4925.00
G1 X1720.00 Y4913.00
G1 X3232.00 Y4864.00
G1 X3219.00 Y4869.00
G1 X3222.00 Y4913.00
G1 X3240.00 Y4905.00
G1 X3241.00 Y4860.00
G1 X8590.00 Y4830.00
G1 X8542.00 Y4818.00
G1 X8470.00 Y4836.00
G1 X8460.00 Y4830.00
G1 X8450.00 Y4825.00
G1 X8115.00 Y4840.00
G1 X7760.00 Y4861.00
G1 X7845.00 Y4870.00
G1 X7990.00 Y4903.00
G1 X8155.00 Y4924.00
G1 X8327.00 Y4909.00
G1 X1448.00 Y4862.00
G1 X1422.00 Y4895.00
G1 X1418.00 Y4925.00
G1 X1444.00 Y4901.00
G1 X1470.00 Y4868.00
G1 X3270.00 Y4860.00
G1 X3260.00 Y4878.00
G1 X3270.00 Y4910.00
G1 X3280.00 Y4893.00
G1 X3190.00 Y4880.00
G1 X3180.00 Y4890.00
G1 X3190.00 Y4900.00
G1 X3200.00 Y4890.00
G1 X3300.00 Y4850.00
G1 X3297.00 Y4893.00
G1 X3310.00 Y4875.00
G1 X3033.00 Y4864.00
G1 X3035.00 Y4879.00
G1 X3043.00 Y4875.00
G1 X1500.00 Y4845.00
G1 X1490.00 Y4866.00
G1 X1500.00 Y4875.00
G1 X1510.00 Y4854.00
G1 X2539.00 Y4835.00
G1 X2725.00 Y4721.00
G1 X3229.00 Y4480.00
G1 X3465.00 Y4440.00
G1 X3505.00 Y4401.00
G1 X3065.00 Y4469.00
G1 X2560.00 Y4765.00
G1 X2469.00 Y4859.00
G1 X2520.00 Y4850.00
G1 X3356.00 Y4831.00
G1 X3368.00 Y4831.00
G1 X3366.00 Y4813.00
G1 X8321.00 Y4714.00
G1 X8354.00 Y4700.00
G1 X8335.00 Y4726.00
G1 X8115.00 Y4809.00
G1 X8095.00 Y4825.00
G1 X8352.00 Y4753.00
G1 X8476.00 Y4775.00
G1 X8497.00 Y4776.00
G1 X8410.00 Y4700.00
G1 X8265.00 Y4710.00
G1 X7817.00 Y4724.00
G1 X7646.00 Y4707.00
G1 X7936.00 Y4675.00
G1 X8065.00 Y4645.00
G1 X8125.00 Y4656.00
G1 X8169.00 Y4645.00
G1 X8011.00 Y4614.00
G1 X7886.00 Y4630.00
G1 X7228.00 Y4638.00
G1 X7557.00 Y4607.00
G1 X7647.00 Y4591.00
G1 X7210.00 Y4615.00
G1 X7140.00 Y4614.00
G1 X7373.00 Y4570.00
G1 X7563.00 Y4548.00
G1 X7721.00 Y4573.00
G1 X7826.00 Y4600.00
G1 X7865.00 Y4600.00
G1 X7830.00 Y4580.00
G1 X7557.00 Y4490.00
G1 X7401.00 Y4496.00
G1 X7044.00 Y4560.00
G1 X6805.00 Y4596.00
G1 X6523.00 Y4639.00
G1 X6555.00 Y4624.00
G1 X6565.00 Y4615.00
G1 X6280.00 Y4660.00
G1 X6235.00 Y4667.00
G1 X6269.00 Y4675.00
G1 X6286.00 Y4696.00
G1 X6295.00 Y4726.00
G1 X6418.00 Y4730.00
G1 X6885.00 Y4681.00
G1 X6852.00 Y4699.00
G1 X6805.00 Y4710.00
G1 X6801.00 Y4720.00
G1 X6790.00 Y4729.00
G1 X6833.00 Y4743.00
G1 X6815.00 Y4749.00
G1 X6755.00 Y4751.00
G1 X6784.00 Y4766.00
G1 X6904.00 Y4787.00
G1 X7145.00 Y4772.00
G1 X7222.00 Y4753.00
G1 X7365.00 Y4737.00
G1 X7326.00 Y4756.00
G1 X7255.00 Y4770.00
G1 X7205.00 Y4771.00
G1 X7245.00 Y4786.00
G1 X7423.00 Y4794.00
G1 X7573.00 Y4803.00
G1 X7625.00 Y4829.00
G1 X7950.00 Y4820.00
G1 X2897.00 Y4780.00
G1 X2911.00 Y4786.00
G1 X2870.00 Y4813.00
G1 X2968.00 Y4818.00
G1 X3225.00 Y4746.00
G1 X3695.00 Y4523.00
G1 X4106.00 Y4416.00
G1 X4311.00 Y4390.00
G1 X4365.00 Y4371.00
G1 X4110.00 Y4373.00
G1 X3546.00 Y4510.00
G1 X3396.00 Y4579.00
G1 X3370.00 Y4575.00
G1 X3335.00 Y4589.00
G1 X3363.00 Y4569.00
G1 X3410.00 Y4555.00
G1 X3425.00 Y4551.00
G1 X3490.00 Y4509.00
G1 X3550.00 Y4470.00
G1 X3572.00 Y4457.00
G1 X3294.00 Y4485.00
G1 X2954.00 Y4600.00
G1 X2660.00 Y4783.00
G1 X2726.00 Y4769.00
G1 X2742.00 Y4760.00
G1 X2731.00 Y4784.00
G1 X2738.00 Y4826.00
G1 X2795.00 Y4815.00
G1 X3420.00 Y4805.00
G1 X3410.00 Y4814.00
G1 X3420.00 Y4830.00
G1 X3430.00 Y4821.00
G1 X8686.00 Y4803.00
G1 X8698.00 Y4815.00
G1 X8691.00 Y4797.00
G1 X1715.00 Y4692.00
G1 X1799.00 Y4662.00
G1 X1719.00 Y4675.00
G1 X1635.00 Y4693.00
G1 X1449.00 Y4786.00
G1 X1445.00 Y4799.00
G1 X1535.00 Y4757.00
G1 X8528.00 Y4779.00
G1 X8510.00 Y4796.00
G1 X8531.00 Y4783.00
G1 X8379.00 Y4766.00
G1 X8390.00 Y4790.00
G1 X8394.00 Y4775.00
G1 X1555.00 Y4652.00
G1 X1670.00 Y4602.00
G1 X1835.00 Y4551.00
G1 X2058.00 Y4487.00
G1 X2159.00 Y4438.00
G1 X2021.00 Y4464.00
G1 X1808.00 Y4520.00
G1 X1688.00 Y4559.00
G1 X1547.00 Y4630.00
G1 X1402.00 Y4748.00
G1 X1418.00 Y4742.00
G1 X1463.00 Y4696.00
G1 X4135.00 Y4461.00
G1 X4165.00 Y4445.00
G1 X4121.00 Y4442.00
G1 X4047.00 Y4449.00
G1 X3996.00 Y4460.00
G1 X3990.00 Y4450.00
G1 X3917.00 Y4455.00
G1 X3598.00 Y4591.00
G1 X3350.00 Y4710.00
G1 X3310.00 Y4749.00
G1 X3555.00 Y4714.00
G1 X8702.00 Y4730.00
G1 X8704.00 Y4745.00
G1 X8725.00 Y4741.00
G1 X4781.00 Y4734.00
G1 X4786.00 Y4747.00
G1 X4787.00 Y4728.00
G1 X8562.00 Y4715.00
G1 X8593.00 Y4750.00
G1 X8585.00 Y4730.00
G1 X8534.00 Y4650.00
G1 X8543.00 Y4670.00
G1 X8585.00 Y4695.00
G1 X8640.00 Y4711.00
G1 X1520.00 Y4680.00
G1 X1510.00 Y4690.00
G1 X1520.00 Y4700.00
G1 X1530.00 Y4690.00
G1 X8005.00 Y4679.00
G1 X8033.00 Y4687.00
G1 X8107.00 Y4694.00
G1 X8128.00 Y4700.00
G1 X8137.00 Y4694.00
G1 X5535.00 Y4656.00
G1 X5565.00 Y4664.00
G1 X5535.00 Y4677.00
G1 X5593.00 Y4685.00
G1 X5739.00 Y4688.00
G1 X5858.00 Y4662.00
G1 X6099.00 Y4600.00
G1 X6544.00 Y4522.00
G1 X6108.00 Y4576.00
G1 X6018.00 Y4589.00
G1 X6015.00 Y4579.00
G1 X5862.00 Y4601.00
G1 X6010.00 Y4554.00
G1 X6540.00 Y4476.00
G1 X6602.00 Y4445.00
G1 X6385.00 Y4415.00
G1 X6175.00 Y4438.00
G1 X5645.00 Y4545.00
G1 X5520.00 Y4554.00
G1 X5540.00 Y4545.00
G1 X5695.00 Y4500.00
G1 X6050.00 Y4425.00
G1 X6053.00 Y4399.00
G1 X5718.00 Y4425.00
G1 X5230.00 Y4524.00
G1 X5315.00 Y4495.00
G1 X5473.00 Y4454.00
G1 X5538.00 Y4439.00
G1 X5470.00 Y4429.00
G1 X5310.00 Y4430.00
G1 X5205.00 Y4444.00
G1 X5190.00 Y4441.00
G1 X5203.00 Y4431.00
G1 X4820.00 Y4510.00
G1 X4635.00 Y4560.00
G1 X4485.00 Y4603.00
G1 X4350.00 Y4635.00
G1 X4245.00 Y4663.00
G1 X4395.00 Y4645.00
G1 X4575.00 Y4625.00
G1 X4755.00 Y4604.00
G1 X4785.00 Y4610.00
G1 X4715.00 Y4629.00
G1 X4795.00 Y4625.00
G1 X4875.00 Y4621.00
G1 X4817.00 Y4633.00
G1 X4771.00 Y4658.00
G1 X5055.00 Y4655.00
G1 X5195.00 Y4650.00
G1 X5131.00 Y4659.00
G1 X5093.00 Y4667.00
G1 X5420.00 Y4670.00
G1 X1917.00 Y4548.00
G1 X1881.00 Y4555.00
G1 X1842.00 Y4571.00
G1 X1812.00 Y4580.00
G1 X1745.00 Y4595.00
G1 X1705.00 Y4610.00
G1 X1765.00 Y4604.00
G1 X1837.00 Y4588.00
G1 X1871.00 Y4635.00
G1 X1885.00 Y4675.00
G1 X1890.00 Y4625.00
G1 X1896.00 Y4575.00
G1 X1904.00 Y4628.00
G1 X1925.00 Y4605.00
G1 X8568.00 Y4570.00
G1 X8591.00 Y4617.00
G1 X8639.00 Y4660.00
G1 X8658.00 Y4668.00
G1 X8619.00 Y4615.00
G1 X8277.00 Y4564.00
G1 X8166.00 Y4463.00
G1 X8162.00 Y4440.00
G1 X8145.00 Y4477.00
G1 X8128.00 Y4521.00
G1 X8032.00 Y4505.00
G1 X7885.00 Y4479.00
G1 X8157.00 Y4550.00
G1 X8439.00 Y4642.00
G1 X8489.00 Y4652.00
G1 X8677.00 Y4596.00
G1 X8431.00 Y4476.00
G1 X8261.00 Y4406.00
G1 X8212.00 Y4380.00
G1 X8077.00 Y4306.00
G1 X7947.00 Y4240.00
G1 X7972.00 Y4273.00
G1 X8070.00 Y4340.00
G1 X8002.00 Y4306.00
G1 X7834.00 Y4235.00
G1 X7677.00 Y4178.00
G1 X7635.00 Y4159.00
G1 X7670.00 Y4165.00
G1 X7887.00 Y4209.00
G1 X8047.00 Y4258.00
G1 X8150.00 Y4300.00
G1 X8223.00 Y4347.00
G1 X8270.00 Y4380.00
G1 X8298.00 Y4398.00
G1 X8410.00 Y4439.00
G1 X8420.00 Y4435.00
G1 X8430.00 Y4425.00
G1 X8414.00 Y4414.00
G1 X8213.00 Y4324.00
G1 X8281.00 Y4344.00
G1 X8353.00 Y4363.00
G1 X8403.00 Y4375.00
G1 X8510.00 Y4452.00
G1 X8511.00 Y4485.00
G1 X8525.00 Y4453.00
G1 X8544.00 Y4420.00
G1 X8703.00 Y4502.00
G1 X8761.00 Y4583.00
G1 X8762.00 Y4615.00
G1 X8771.00 Y4585.00
G1 X8727.00 Y4502.00
G1 X8575.00 Y4404.00
G1 X8355.00 Y4344.00
G1 X8130.00 Y4258.00
G1 X7880.00 Y4175.00
G1 X7665.00 Y4105.00
G1 X7625.00 Y4088.00
G1 X7510.00 Y4066.00
G1 X6983.00 Y3991.00
G1 X6970.00 Y3999.00
G1 X7045.00 Y4021.00
G1 X7085.00 Y4040.00
G1 X7045.00 Y4035.00
G1 X6860.00 Y4020.00
G1 X6326.00 Y3938.00
G1 X6237.00 Y3930.00
G1 X6137.00 Y3910.00
G1 X6183.00 Y3888.00
G1 X6211.00 Y3904.00
G1 X6363.00 Y3917.00
G1 X6595.00 Y3930.00
G1 X6718.00 Y3947.00
G1 X6770.00 Y3977.00
G1 X6780.00 Y3995.00
G1 X6790.00 Y3969.00
G1 X6860.00 Y3960.00
G1 X7039.00 Y3975.00
G1 X7224.00 Y3991.00
G1 X7264.00 Y3985.00
G1 X7190.00 Y3965.00
G1 X7180.00 Y3955.00
G1 X7245.00 Y3952.00
G1 X7145.00 Y3936.00
G1 X6618.00 Y3886.00
G1 X6373.00 Y3855.00
G1 X6192.00 Y3844.00
G1 X6136.00 Y3817.00
G1 X6143.00 Y3782.00
G1 X6320.00 Y3790.00
G1 X6270.00 Y3794.00
G1 X6155.00 Y3789.00
G1 X6200.00 Y3811.00
G1 X6400.00 Y3837.00
G1 X6499.00 Y3820.00
G1 X6519.00 Y3815.00
G1 X6641.00 Y3820.00
G1 X6699.00 Y3820.00
G1 X6702.00 Y3853.00
G1 X6731.00 Y3848.00
G1 X6739.00 Y3860.00
G1 X6749.00 Y3891.00
G1 X6780.00 Y3890.00
G1 X6814.00 Y3868.00
G1 X6810.00 Y3840.00
G1 X6800.00 Y3867.00
G1 X6786.00 Y3858.00
G1 X6817.00 Y3830.00
G1 X6925.00 Y3850.00
G1 X6995.00 Y3870.00
G1 X6938.00 Y3865.00
G1 X6886.00 Y3875.00
G1 X6914.00 Y3895.00
G1 X7225.00 Y3929.00
G1 X7345.00 Y3978.00
G1 X7370.00 Y4017.00
G1 X7401.00 Y3968.00
G1 X7478.00 Y3967.00
G1 X7535.00 Y3984.00
G1 X7495.00 Y3991.00
G1 X7465.00 Y3999.00
G1 X7455.00 Y4010.00
G1 X7465.00 Y4025.00
G1 X7649.00 Y4076.00
G1 X7714.00 Y4089.00
G1 X7715.00 Y4080.00
G1 X7713.00 Y4071.00
G1 X7773.00 Y4079.00
G1 X7843.00 Y4095.00
G1 X7871.00 Y4133.00
G1 X7877.00 Y4140.00
G1 X7900.00 Y4123.00
G1 X7910.00 Y4150.00
G1 X7920.00 Y4135.00
G1 X8145.00 Y4165.00
G1 X8243.00 Y4200.00
G1 X8236.00 Y4243.00
G1 X8259.00 Y4255.00
G1 X8293.00 Y4220.00
G1 X8356.00 Y4277.00
G1 X8357.00 Y4282.00
G1 X8390.00 Y4306.00
G1 X8410.00 Y4308.00
G1 X8423.00 Y4310.00
G1 X8473.00 Y4308.00
G1 X8462.00 Y4283.00
G1 X8407.00 Y4252.00
G1 X8363.00 Y4233.00
G1 X8311.00 Y4207.00
G1 X8011.00 Y4094.00
G1 X7737.00 Y4028.00
G1 X7652.00 Y4004.00
G1 X7640.00 Y3995.00
G1 X7798.00 Y3999.00
G1 X7759.00 Y3979.00
G1 X7686.00 Y3951.00
G1 X7750.00 Y3960.00
G1 X7860.00 Y3949.00
G1 X7868.00 Y3941.00
G1 X7896.00 Y3963.00
G1 X7890.00 Y4050.00
G1 X7905.00 Y4040.00
G1 X7930.00 Y4052.00
G1 X7939.00 Y4065.00
G1 X7971.00 Y3962.00
G1 X8017.00 Y3956.00
G1 X8042.00 Y3970.00
G1 X8023.00 Y3997.00
G1 X8204.00 Y4060.00
G1 X8250.00 Y4025.00
G1 X8173.00 Y3995.00
G1 X8108.00 Y3972.00
G1 X8191.00 Y3985.00
G1 X8272.00 Y3992.00
G1 X8264.00 Y3972.00
G1 X8018.00 Y3915.00
G1 X7985.00 Y3880.00
G1 X8000.00 Y3849.00
G1 X8205.00 Y3876.00
G1 X8546.00 Y4008.00
G1 X8655.00 Y4057.00
G1 X8653.00 Y4091.00
G1 X8651.00 Y4125.00
G1 X8661.00 Y4093.00
G1 X8685.00 Y4060.00
G1 X8757.00 Y4090.00
G1 X8818.00 Y4110.00
G1 X8892.00 Y4155.00
G1 X8904.00 Y4199.00
G1 X8914.00 Y4211.00
G1 X8921.00 Y4160.00
G1 X8907.00 Y4141.00
G1 X8736.00 Y4048.00
G1 X8582.00 Y3983.00
G1 X8235.00 Y3840.00
G1 X7545.00 Y3661.00
G1 X7565.00 Y3685.00
G1 X7632.00 Y3709.00
G1 X7654.00 Y3719.00
G1 X7617.00 Y3719.00
G1 X7660.00 Y3759.00
G1 X7871.00 Y3846.00
G1 X7879.00 Y3829.00
G1 X7880.00 Y3793.00
G1 X7927.00 Y3801.00
G1 X7952.00 Y3820.00
G1 X7920.00 Y3835.00
G1 X7930.00 Y3850.00
G1 X7940.00 Y3840.00
G1 X7955.00 Y3830.00
G1 X7957.00 Y3872.00
G1 X7945.00 Y3896.00
G1 X7805.00 Y3868.00
G1 X7470.00 Y3845.00
G1 X7518.00 Y3866.00
G1 X7580.00 Y3882.00
G1 X7550.00 Y3885.00
G1 X7577.00 Y3905.00
G1 X7626.00 Y3922.00
G1 X7320.00 Y3894.00
G1 X7222.00 Y3852.00
G1 X7293.00 Y3848.00
G1 X7310.00 Y3832.00
G1 X7293.00 Y3812.00
G1 X7195.00 Y3785.00
G1 X7135.00 Y3770.00
G1 X7195.00 Y3776.00
G1 X7350.00 Y3780.00
G1 X7321.00 Y3770.00
G1 X7284.00 Y3758.00
G1 X7301.00 Y3753.00
G1 X7359.00 Y3760.00
G1 X7382.00 Y3773.00
G1 X7369.00 Y3833.00
G1 X7406.00 Y3863.00
G1 X7413.00 Y3868.00
G1 X7417.00 Y3890.00
G1 X7450.00 Y3830.00
G1 X7460.00 Y3795.00
G1 X7484.00 Y3779.00
G1 X7680.00 Y3830.00
G1 X7855.00 Y3841.00
G1 X7555.00 Y3753.00
G1 X7184.00 Y3690.00
G1 X7061.00 Y3674.00
G1 X7170.00 Y3672.00
G1 X7232.00 Y3650.00
G1 X7237.00 Y3638.00
G1 X7341.00 Y3637.00
G1 X7375.00 Y3627.00
G1 X7345.00 Y3618.00
G1 X7180.00 Y3586.00
G1 X6996.00 Y3550.00
G1 X6913.00 Y3538.00
G1 X6882.00 Y3501.00
G1 X6845.00 Y3458.00
G1 X6750.00 Y3445.00
G1 X6555.00 Y3420.00
G1 X6415.00 Y3400.00
G1 X6521.00 Y3405.00
G1 X6766.00 Y3430.00
G1 X6909.00 Y3450.00
G1 X6906.00 Y3465.00
G1 X6938.00 Y3481.00
G1 X7015.00 Y3495.00
G1 X7055.00 Y3509.00
G1 X7000.00 Y3504.00
G1 X6928.00 Y3494.00
G1 X6910.00 Y3499.00
G1 X6925.00 Y3510.00
G1 X7027.00 Y3535.00
G1 X7348.00 Y3595.00
G1 X7412.00 Y3602.00
G1 X7408.00 Y3651.00
G1 X7417.00 Y3700.00
G1 X7433.00 Y3688.00
G1 X7453.00 Y3695.00
G1 X7485.00 Y3660.00
G1 X7492.00 Y3620.00
G1 X7632.00 Y3656.00
G1 X7907.00 Y3717.00
G1 X7605.00 Y3609.00
G1 X7453.00 Y3540.00
G1 X7500.00 Y3540.00
G1 X7531.00 Y3540.00
G1 X7545.00 Y3519.00
G1 X7648.00 Y3546.00
G1 X7586.00 Y3554.00
G1 X7593.00 Y3575.00
G1 X7657.00 Y3602.00
G1 X7871.00 Y3665.00
G1 X7980.00 Y3715.00
G1 X7989.00 Y3730.00
G1 X8003.00 Y3748.00
G1 X8023.00 Y3719.00
G1 X8092.00 Y3722.00
G1 X8245.00 Y3790.00
G1 X8168.00 Y3770.00
G1 X8065.00 Y3741.00
G1 X8065.00 Y3756.00
G1 X8155.00 Y3790.00
G1 X8253.00 Y3825.00
G1 X8290.00 Y3820.00
G1 X8338.00 Y3816.00
G1 X8370.00 Y3856.00
G1 X8397.00 Y3861.00
G1 X8421.00 Y3853.00
G1 X8427.00 Y3872.00
G1 X8434.00 Y3880.00
G1 X8546.00 Y3931.00
G1 X8640.00 Y3973.00
G1 X8413.00 Y3825.00
G1 X8394.00 Y3817.00
G1 X8371.00 Y3810.00
G1 X8242.00 Y3742.00
G1 X8297.00 Y3758.00
G1 X8375.00 Y3789.00
G1 X8520.00 Y3851.00
G1 X8530.00 Y3860.00
G1 X8601.00 Y3900.00
G1 X8670.00 Y3930.00
G1 X8616.00 Y3886.00
G1 X8623.00 Y3868.00
G1 X8688.00 Y3935.00
G1 X8681.00 Y3990.00
G1 X8698.00 Y3965.00
G1 X8715.00 Y3913.00
G1 X8863.00 Y3976.00
G1 X8930.00 Y4076.00
G1 X8940.00 Y4095.00
G1 X8892.00 Y3957.00
G1 X8547.00 Y3820.00
G1 X8488.00 Y3799.00
G1 X8463.00 Y3763.00
G1 X8506.00 Y3769.00
G1 X8551.00 Y3790.00
G1 X8599.00 Y3807.00
G1 X8635.00 Y3819.00
G1 X8598.00 Y3749.00
G1 X8600.00 Y3765.00
G1 X8610.00 Y3787.00
G1 X8470.00 Y3725.00
G1 X8430.00 Y3703.00
G1 X8496.00 Y3711.00
G1 X8575.00 Y3735.00
G1 X8629.00 Y3749.00
G1 X8672.00 Y3757.00
G1 X8706.00 Y3800.00
G1 X8729.00 Y3845.00
G1 X8736.00 Y3813.00
G1 X8779.00 Y3810.00
G1 X8801.00 Y3840.00
G1 X8800.00 Y3825.00
G1 X8900.00 Y3872.00
G1 X8959.00 Y3873.00
G1 X8813.00 Y3786.00
G1 X8750.00 Y3735.00
G1 X8821.00 Y3759.00
G1 X8863.00 Y3760.00
G1 X8271.00 Y3534.00
G1 X8164.00 Y3504.00
G1 X8122.00 Y3512.00
G1 X8320.00 Y3585.00
G1 X8595.00 Y3674.00
G1 X8662.00 Y3705.00
G1 X8728.00 Y3755.00
G1 X8684.00 Y3741.00
G1 X8580.00 Y3700.00
G1 X8505.00 Y3670.00
G1 X8445.00 Y3650.00
G1 X8385.00 Y3630.00
G1 X8164.00 Y3565.00
G1 X8158.00 Y3586.00
G1 X8234.00 Y3617.00
G1 X8324.00 Y3660.00
G1 X8440.00 Y3753.00
G1 X8428.00 Y3767.00
G1 X8160.00 Y3685.00
G1 X7920.00 Y3632.00
G1 X7810.00 Y3600.00
G1 X7767.00 Y3583.00
G1 X7912.00 Y3614.00
G1 X8284.00 Y3671.00
G1 X8215.00 Y3650.00
G1 X7895.00 Y3567.00
G1 X7578.00 Y3498.00
G1 X7540.00 Y3463.00
G1 X7675.00 Y3455.00
G1 X7785.00 Y3479.00
G1 X7675.00 Y3475.00
G1 X7660.00 Y3490.00
G1 X7771.00 Y3511.00
G1 X7860.00 Y3526.00
G1 X7937.00 Y3541.00
G1 X7970.00 Y3539.00
G1 X7850.00 Y3489.00
G1 X7878.00 Y3485.00
G1 X7966.00 Y3483.00
G1 X7898.00 Y3436.00
G1 X7757.00 Y3399.00
G1 X7725.00 Y3405.00
G1 X7707.00 Y3415.00
G1 X7330.00 Y3345.00
G1 X7195.00 Y3315.00
G1 X7788.00 Y3390.00
G1 X7990.00 Y3435.00
G1 X8050.00 Y3451.00
G1 X8037.00 Y3454.00
G1 X8009.00 Y3448.00
G1 X8012.00 Y3516.00
G1 X8037.00 Y3588.00
G1 X8069.00 Y3553.00
G1 X8080.00 Y3488.00
G1 X8160.00 Y3484.00
G1 X8338.00 Y3531.00
G1 X8370.00 Y3528.00
G1 X8323.00 Y3488.00
G1 X7652.00 Y3316.00
G1 X7291.00 Y3256.00
G1 X7201.00 Y3234.00
G1 X7300.00 Y3235.00
G1 X7398.00 Y3235.00
G1 X7253.00 Y3189.00
G1 X7129.00 Y3151.00
G1 X7199.00 Y3164.00
G1 X7358.00 Y3189.00
G1 X7475.00 Y3227.00
G1 X7491.00 Y3275.00
G1 X7500.00 Y3239.00
G1 X7515.00 Y3210.00
G1 X7530.00 Y3253.00
G1 X7540.00 Y3280.00
G1 X7550.00 Y3238.00
G1 X7574.00 Y3209.00
G1 X8033.00 Y3315.00
G1 X8080.00 Y3335.00
G1 X8065.00 Y3344.00
G1 X8066.00 Y3374.00
G1 X8100.00 Y3359.00
G1 X8128.00 Y3334.00
G1 X8230.00 Y3366.00
G1 X8213.00 Y3365.00
G1 X8205.00 Y3368.00
G1 X8400.00 Y3435.00
G1 X8455.00 Y3446.00
G1 X8458.00 Y3508.00
G1 X8480.00 Y3515.00
G1 X8493.00 Y3460.00
G1 X8500.00 Y3510.00
G1 X8502.00 Y3566.00
G1 X8510.00 Y3553.00
G1 X8519.00 Y3550.00
G1 X8524.00 Y3571.00
G1 X8547.00 Y3583.00
G1 X8555.00 Y3573.00
G1 X8538.00 Y3548.00
G1 X8542.00 Y3504.00
G1 X8547.00 Y3470.00
G1 X8744.00 Y3581.00
G1 X8695.00 Y3571.00
G1 X8580.00 Y3514.00
G1 X8648.00 Y3560.00
G1 X8743.00 Y3628.00
G1 X8770.00 Y3654.00
G1 X8769.00 Y3594.00
G1 X8732.00 Y3504.00
G1 X8465.00 Y3399.00
G1 X8329.00 Y3365.00
G1 X7995.00 Y3266.00
G1 X7695.00 Y3193.00
G1 X7292.00 Y3114.00
G1 X7194.00 Y3098.00
G1 X7296.00 Y3095.00
G1 X7300.00 Y3067.00
G1 X7215.00 Y3052.00
G1 X7276.00 Y3051.00
G1 X7401.00 Y3043.00
G1 X7440.00 Y3029.00
G1 X7445.00 Y3021.00
G1 X7472.00 Y3061.00
G1 X7500.00 Y3110.00
G1 X7510.00 Y3105.00
G1 X7521.00 Y3097.00
G1 X7525.00 Y3048.00
G1 X7529.00 Y3024.00
G1 X7540.00 Y3075.00
G1 X7550.00 Y3125.00
G1 X7560.00 Y3081.00
G1 X7565.00 Y3030.00
G1 X7637.00 Y3056.00
G1 X7774.00 Y3096.00
G1 X7859.00 Y3121.00
G1 X7855.00 Y3126.00
G1 X7755.00 Y3106.00
G1 X7656.00 Y3084.00
G1 X7644.00 Y3088.00
G1 X7616.00 Y3090.00
G1 X7590.00 Y3090.00
G1 X7718.00 Y3130.00
G1 X7746.00 Y3141.00
G1 X7724.00 Y3146.00
G1 X7620.00 Y3133.00
G1 X7797.00 Y3199.00
G1 X7914.00 Y3223.00
G1 X7978.00 Y3223.00
G1 X7951.00 Y3209.00
G1 X7964.00 Y3201.00
G1 X7934.00 Y3156.00
G1 X7882.00 Y3134.00
G1 X7969.00 Y3147.00
G1 X8052.00 Y3163.00
G1 X8048.00 Y3209.00
G1 X8068.00 Y3258.00
G1 X8090.00 Y3273.00
G1 X8100.00 Y3274.00
G1 X8112.00 Y3222.00
G1 X8128.00 Y3180.00
G1 X8217.00 Y3216.00
G1 X8473.00 Y3289.00
G1 X8761.00 Y3391.00
G1 X8783.00 Y3413.00
G1 X8776.00 Y3371.00
G1 X8790.00 Y3335.00
G1 X8840.00 Y3345.00
G1 X8958.00 Y3414.00
G1 X8969.00 Y3396.00
G1 X8918.00 Y3345.00
G1 X8778.00 Y3296.00
G1 X8752.00 Y3287.00
G1 X8570.00 Y3202.00
G1 X8247.00 Y3130.00
G1 X8246.00 Y3119.00
G1 X8240.00 Y3112.00
G1 X8428.00 Y3210.00
G1 X8696.00 Y3300.00
G1 X8755.00 Y3350.00
G1 X8692.00 Y3321.00
G1 X8414.00 Y3227.00
G1 X8246.00 Y3176.00
G1 X7855.00 Y3065.00
G1 X7730.00 Y3035.00
G1 X7602.00 Y3000.00
G1 X7559.00 Y2989.00
G1 X7566.00 Y2927.00
G1 X7576.00 Y2862.00
G1 X7718.00 Y2896.00
G1 X7721.00 Y2915.00
G1 X7670.00 Y2915.00
G1 X7705.00 Y2950.00
G1 X7691.00 Y2959.00
G1 X7613.00 Y2944.00
G1 X7628.00 Y2950.00
G1 X7655.00 Y2960.00
G1 X7649.00 Y2970.00
G1 X7780.00 Y3015.00
G1 X7864.00 Y3034.00
G1 X7937.00 Y3039.00
G1 X7920.00 Y3010.00
G1 X7802.00 Y2985.00
G1 X8038.00 Y3009.00
G1 X8040.00 Y3050.00
G1 X8054.00 Y3090.00
G1 X8084.00 Y3096.00
G1 X8100.00 Y3091.00
G1 X8085.00 Y3080.00
G1 X8070.00 Y3061.00
