; G-code generated from SVG
G21 ; Set units to mm
G90 ; Absolute positioning
G0 X4955.00 Y9709.00
G1 X3708.00 Y9281.00
G1 X2990.00 Y8630.00
G1 X2679.00 Y7840.00
G1 X2700.00 Y7451.00
G1 X2819.00 Y7236.00
G1 X2902.00 Y7148.00
G1 X2930.00 Y7119.00
G1 X2906.00 Y7062.00
G1 X2795.00 Y6485.00
G1 X2651.00 Y5685.00
G1 X2564.00 Y5385.00
G1 X2405.00 Y4954.00
G1 X2015.00 Y4710.00
G1 X1567.00 Y4422.00
G1 X1480.00 Y4098.00
G1 X1428.00 Y3833.00
G1 X1369.00 Y3776.00
G1 X1334.00 Y3744.00
G1 X1376.00 Y3686.00
G1 X1451.00 Y3757.00
G1 X1542.00 Y4065.00
G1 X1680.00 Y4460.00
G1 X2014.00 Y4640.00
G1 X2237.00 Y4730.00
G1 X2535.00 Y5044.00
G1 X2610.00 Y5306.00
G1 X2720.00 Y5696.00
G1 X2860.00 Y6505.00
G1 X2912.00 Y6882.00
G1 X2933.00 Y6969.00
G1 X2954.00 Y6937.00
G1 X3006.00 Y6895.00
G1 X3029.00 Y6863.00
G1 X2975.00 Y6387.00
G1 X2894.00 Y5696.00
G1 X2625.00 Y5000.00
G1 X1995.00 Y4309.00
G1 X1566.00 Y3705.00
G1 X1443.00 Y3490.00
G1 X1304.00 Y3438.00
G1 X1234.00 Y3408.00
G1 X1295.00 Y3350.00
G1 X1512.00 Y3463.00
G1 X1630.00 Y3702.00
G1 X2084.00 Y4304.00
G1 X2880.00 Y5419.00
G1 X3030.00 Y6238.00
G1 X3112.00 Y6899.00
G1 X3133.00 Y6945.00
G1 X3140.00 Y6905.00
G1 X3165.00 Y6833.00
G1 X3260.00 Y6770.00
G1 X3267.00 Y6756.00
G1 X3200.00 Y6169.00
G1 X3125.00 Y5623.00
G1 X2805.00 Y4900.00
G1 X2446.00 Y4453.00
G1 X2255.00 Y4221.00
G1 X2021.00 Y3717.00
G1 X1936.00 Y3569.00
G1 X1598.00 Y2896.00
G1 X1574.00 Y2793.00
G1 X1560.00 Y2760.00
G1 X1620.00 Y2710.00
G1 X1661.00 Y2773.00
G1 X1661.00 Y2897.00
G1 X1704.00 Y2960.00
G1 X1882.00 Y3019.00
G1 X1930.00 Y3027.00
G1 X1845.00 Y2765.00
G1 X1539.00 Y2455.00
G1 X1227.00 Y2370.00
G1 X1018.00 Y2386.00
G1 X975.00 Y2366.00
G1 X976.00 Y2318.00
G1 X1150.00 Y2303.00
G1 X1609.00 Y2417.00
G1 X1883.00 Y2690.00
G1 X1999.00 Y3052.00
G1 X2061.00 Y3202.00
G1 X2362.00 Y3710.00
G1 X2509.00 Y3989.00
G1 X2930.00 Y4337.00
G1 X3149.00 Y4481.00
G1 X3226.00 Y4527.00
G1 X3013.00 Y4289.00
G1 X2648.00 Y3913.00
G1 X2332.00 Y3405.00
G1 X2050.00 Y2585.00
G1 X1994.00 Y2343.00
G1 X1928.00 Y2367.00
G1 X1872.00 Y2423.00
G1 X1779.00 Y2433.00
G1 X1802.00 Y2373.00
G1 X1972.00 Y2277.00
G1 X1958.00 Y2160.00
G1 X1605.00 Y1718.00
G1 X1518.00 Y1686.00
G1 X1481.00 Y1606.00
G1 X1570.00 Y1625.00
G1 X1814.00 Y1799.00
G1 X2036.00 Y2195.00
G1 X2053.00 Y2265.00
G1 X2114.00 Y2265.00
G1 X2514.00 Y2713.00
G1 X2551.00 Y2808.00
G1 X2611.00 Y2857.00
G1 X2648.00 Y2890.00
G1 X2655.00 Y2723.00
G1 X2570.00 Y2153.00
G1 X2190.00 Y1769.00
G1 X1785.00 Y1240.00
G1 X1791.00 Y1128.00
G1 X1819.00 Y1110.00
G1 X1859.00 Y1155.00
G1 X1894.00 Y1384.00
G1 X2330.00 Y1710.00
G1 X2797.00 Y2065.00
G1 X3067.00 Y2348.00
G1 X3366.00 Y2467.00
G1 X3303.00 Y2291.00
G1 X3117.00 Y2041.00
G1 X2945.00 Y1590.00
G1 X2955.00 Y1457.00
G1 X3004.00 Y1380.00
G1 X3036.00 Y1473.00
G1 X3010.00 Y1558.00
G1 X3157.00 Y1988.00
G1 X3429.00 Y2447.00
G1 X3498.00 Y2531.00
G1 X3588.00 Y2588.00
G1 X3626.00 Y2608.00
G1 X3570.00 Y2395.00
G1 X3473.00 Y1820.00
G1 X3510.00 Y1525.00
G1 X3525.00 Y1169.00
G1 X3443.00 Y1054.00
G1 X3389.00 Y1028.00
G1 X3434.00 Y960.00
G1 X3568.00 Y1108.00
G1 X3595.00 Y1300.00
G1 X3572.00 Y1545.00
G1 X3576.00 Y2163.00
G1 X3715.00 Y2660.00
G1 X3779.00 Y2743.00
G1 X4110.00 Y3393.00
G1 X4233.00 Y3725.00
G1 X4316.00 Y3968.00
G1 X4349.00 Y3932.00
G1 X4385.00 Y3536.00
G1 X4399.00 Y3456.00
G1 X4355.00 Y3343.00
G1 X3906.00 Y2566.00
G1 X3684.00 Y1810.00
G1 X3778.00 Y1598.00
G1 X3845.00 Y1604.00
G1 X3821.00 Y1671.00
G1 X3742.00 Y1903.00
G1 X3976.00 Y2555.00
G1 X4309.00 Y3090.00
G1 X4401.00 Y3285.00
G1 X4417.00 Y3325.00
G1 X4439.00 Y3231.00
G1 X4500.00 Y2785.00
G1 X4430.00 Y2377.00
G1 X4495.00 Y1661.00
G1 X4573.00 Y1452.00
G1 X4583.00 Y1304.00
G1 X4502.00 Y1127.00
G1 X4349.00 Y1038.00
G1 X4302.00 Y942.00
G1 X4369.00 Y948.00
G1 X4446.00 Y1006.00
G1 X4650.00 Y1356.00
G1 X4560.00 Y1675.00
G1 X4440.00 Y2087.00
G1 X4529.00 Y2502.00
G1 X4503.00 Y3233.00
G1 X4457.00 Y3462.00
G1 X4474.00 Y3513.00
G1 X4641.00 Y4075.00
G1 X4653.00 Y4135.00
G1 X4666.00 Y4060.00
G1 X4705.00 Y3805.00
G1 X4915.00 Y3022.00
G1 X4942.00 Y2962.00
G1 X4881.00 Y2774.00
G1 X4760.00 Y2140.00
G1 X4755.00 Y2019.00
G1 X4846.00 Y1985.00
G1 X4844.00 Y2038.00
G1 X4826.00 Y2180.00
G1 X4845.00 Y2395.00
G1 X4962.00 Y2833.00
G1 X4975.00 Y2870.00
G1 X5023.00 Y2749.00
G1 X5035.00 Y1945.00
G1 X5023.00 Y1474.00
G1 X5039.00 Y1413.00
G1 X5000.00 Y1323.00
G1 X4930.00 Y988.00
G1 X4994.00 Y702.00
G1 X5085.00 Y618.00
G1 X5084.00 Y701.00
G1 X5042.00 Y1268.00
G1 X5063.00 Y1321.00
G1 X5110.00 Y1223.00
G1 X5286.00 Y947.00
G1 X5320.00 Y950.00
G1 X5318.00 Y1029.00
G1 X5169.00 Y1245.00
G1 X5165.00 Y1505.00
G1 X5363.00 Y1930.00
G1 X5394.00 Y2195.00
G1 X5303.00 Y2667.00
G1 X5248.00 Y2820.00
G1 X5292.00 Y2907.00
G1 X5365.00 Y3063.00
G1 X5393.00 Y3131.00
G1 X5431.00 Y3018.00
G1 X5743.00 Y2390.00
G1 X5923.00 Y2018.00
G1 X5946.00 Y1943.00
G1 X5990.00 Y1945.00
G1 X6007.00 Y2018.00
G1 X5971.00 Y2106.00
G1 X5844.00 Y2346.00
G1 X5608.00 Y2742.00
G1 X5462.00 Y3135.00
G1 X5426.00 Y3375.00
G1 X5410.00 Y3660.00
G1 X5435.00 Y4020.00
G1 X5495.00 Y4350.00
G1 X5536.00 Y4920.00
G1 X5514.00 Y5195.00
G1 X5489.00 Y5525.00
G1 X5483.00 Y6393.00
G1 X5560.00 Y5960.00
G1 X5673.00 Y4985.00
G1 X5675.00 Y4137.00
G1 X5715.00 Y3250.00
G1 X5965.00 Y2681.00
G1 X6117.00 Y2342.00
G1 X6111.00 Y2008.00
G1 X5980.00 Y1675.00
G1 X5925.00 Y923.00
G1 X5994.00 Y804.00
G1 X6030.00 Y731.00
G1 X6082.00 Y680.00
G1 X6130.00 Y728.00
G1 X6074.00 Y806.00
G1 X5934.00 Y1352.00
G1 X6076.00 Y1742.00
G1 X6194.00 Y2185.00
G1 X6010.00 Y2729.00
G1 X5728.00 Y3598.00
G1 X5749.00 Y4295.00
G1 X5755.00 Y4395.00
G1 X5769.00 Y4320.00
G1 X5904.00 Y3790.00
G1 X6487.00 Y2545.00
G1 X6494.00 Y2430.00
G1 X6429.00 Y2165.00
G1 X6333.00 Y1679.00
G1 X6387.00 Y1297.00
G1 X6416.00 Y1068.00
G1 X6412.00 Y992.00
G1 X6482.00 Y998.00
G1 X6451.00 Y1305.00
G1 X6493.00 Y2166.00
G1 X6550.00 Y2383.00
G1 X6581.00 Y2424.00
G1 X6816.00 Y2096.00
G1 X6855.00 Y1732.00
G1 X6751.00 Y1639.00
G1 X6690.00 Y1595.00
G1 X6718.00 Y1556.00
G1 X6798.00 Y1575.00
G1 X6947.00 Y1833.00
G1 X6842.00 Y2180.00
G1 X6608.00 Y2496.00
G1 X6580.00 Y2526.00
G1 X6576.00 Y2761.00
G1 X6546.00 Y3118.00
G1 X6500.00 Y3292.00
G1 X6483.00 Y3347.00
G1 X6577.00 Y3226.00
G1 X6630.00 Y3040.00
G1 X6685.00 Y2792.00
G1 X7165.00 Y2180.00
G1 X7280.00 Y2105.00
G1 X7276.00 Y1955.00
G1 X7240.00 Y1655.00
G1 X7236.00 Y1198.00
G1 X7370.00 Y1120.00
G1 X7337.00 Y1191.00
G1 X7309.00 Y1690.00
G1 X7347.00 Y1948.00
G1 X7355.00 Y2061.00
G1 X7445.00 Y2002.00
G1 X7788.00 Y1810.00
G1 X7871.00 Y1775.00
G1 X7865.00 Y1735.00
G1 X7839.00 Y1662.00
G1 X7838.00 Y1587.00
G1 X7910.00 Y1590.00
G1 X7920.00 Y1629.00
G1 X7922.00 Y1698.00
G1 X7934.00 Y1748.00
G1 X8005.00 Y1713.00
G1 X8388.00 Y1420.00
G1 X8537.00 Y1143.00
G1 X8541.00 Y1119.00
G1 X8608.00 Y1112.00
G1 X8611.00 Y1170.00
G1 X8557.00 Y1263.00
G1 X8051.00 Y1759.00
G1 X7945.00 Y1815.00
G1 X7948.00 Y1890.00
G1 X7854.00 Y2369.00
G1 X7627.00 Y2676.00
G1 X7515.00 Y2820.00
G1 X7151.00 Y3363.00
G1 X7058.00 Y3450.00
G1 X7031.00 Y3560.00
G1 X7003.00 Y3670.00
G1 X7084.00 Y3592.00
G1 X7656.00 Y3050.00
G1 X7840.00 Y2760.00
G1 X8196.00 Y2298.00
G1 X8435.00 Y2260.00
G1 X8478.00 Y2267.00
G1 X8489.00 Y2211.00
G1 X8515.00 Y2055.00
G1 X8656.00 Y1731.00
G1 X8881.00 Y1604.00
G1 X8945.00 Y1623.00
G1 X8880.00 Y1678.00
G1 X8642.00 Y1858.00
G1 X8566.00 Y2137.00
G1 X8545.00 Y2262.00
G1 X8582.00 Y2307.00
G1 X8666.00 Y2358.00
G1 X8669.00 Y2470.00
G1 X8634.00 Y2443.00
G1 X8568.00 Y2369.00
G1 X8526.00 Y2362.00
G1 X8500.00 Y2460.00
G1 X8372.00 Y2754.00
G1 X8386.00 Y2803.00
G1 X8410.00 Y2902.00
G1 X8100.00 Y3374.00
G1 X8033.00 Y3429.00
G1 X8011.00 Y3522.00
G1 X7813.00 Y3985.00
G1 X7450.00 Y4425.00
G1 X6919.00 Y5095.00
G1 X6865.00 Y5185.00
G1 X6853.00 Y5335.00
G1 X6831.00 Y5810.00
G1 X6791.00 Y6330.00
G1 X6767.00 Y6529.00
G1 X6785.00 Y6519.00
G1 X6876.00 Y6140.00
G1 X7011.00 Y5389.00
G1 X7595.00 Y4375.00
G1 X7942.00 Y4025.00
G1 X8009.00 Y3965.00
G1 X8050.00 Y3810.00
G1 X8112.00 Y3590.00
G1 X8371.00 Y3180.00
G1 X8457.00 Y3095.00
G1 X8474.00 Y3010.00
G1 X8593.00 Y2671.00
G1 X8915.00 Y2329.00
G1 X9116.00 Y2134.00
G1 X9186.00 Y2145.00
G1 X9110.00 Y2247.00
G1 X8942.00 Y2389.00
G1 X8624.00 Y2745.00
G1 X8536.00 Y3013.00
G1 X8529.00 Y3051.00
G1 X8569.00 Y3031.00
G1 X8713.00 Y2980.00
G1 X8730.00 Y2890.00
G1 X8714.00 Y2774.00
G1 X8720.00 Y2725.00
G1 X8782.00 Y2713.00
G1 X8794.00 Y2849.00
G1 X8792.00 Y2972.00
G1 X8867.00 Y2969.00
G1 X8956.00 Y2986.00
G1 X8952.00 Y3031.00
G1 X8893.00 Y3041.00
G1 X8825.00 Y3032.00
G1 X8787.00 Y3085.00
G1 X8704.00 Y3358.00
G1 X8522.00 Y3607.00
G1 X8485.00 Y3682.00
G1 X8151.00 Y4346.00
G1 X7537.00 Y5201.00
G1 X7290.00 Y6195.00
G1 X7214.00 Y6761.00
G1 X7240.00 Y6784.00
G1 X7336.00 Y6889.00
G1 X7385.00 Y6870.00
G1 X7490.00 Y6300.00
G1 X7515.00 Y6014.00
G1 X7730.00 Y5180.00
G1 X7957.00 Y4740.00
G1 X8394.00 Y4315.00
G1 X8835.00 Y3870.00
G1 X8896.00 Y3716.00
G1 X8965.00 Y3555.00
G1 X9228.00 Y3355.00
G1 X9281.00 Y3366.00
G1 X9226.00 Y3441.00
G1 X8979.00 Y3679.00
G1 X8834.00 Y3992.00
G1 X8430.00 Y4368.00
G1 X7982.00 Y4809.00
G1 X7651.00 Y5660.00
G1 X7550.00 Y6340.00
G1 X7469.00 Y6838.00
G1 X7464.00 Y6910.00
G1 X7503.00 Y6939.00
G1 X7528.00 Y6969.00
G1 X7533.00 Y6942.00
G1 X7555.00 Y6843.00
G1 X7600.00 Y6508.00
G1 X7753.00 Y5755.00
G1 X7855.00 Y5370.00
G1 X7986.00 Y4968.00
G1 X8277.00 Y4719.00
G1 X8480.00 Y4654.00
G1 X8696.00 Y4579.00
G1 X8951.00 Y4288.00
G1 X8974.00 Y4016.00
G1 X9032.00 Y3638.00
G1 X9073.00 Y3633.00
G1 X9081.00 Y3706.00
G1 X9035.00 Y4050.00
G1 X9014.00 Y4311.00
G1 X8718.00 Y4639.00
G1 X8492.00 Y4720.00
G1 X8294.00 Y4785.00
G1 X8004.00 Y5065.00
G1 X7905.00 Y5430.00
G1 X7828.00 Y5720.00
G1 X7665.00 Y6485.00
G1 X7559.00 Y7079.00
G1 X7557.00 Y7135.00
G1 X7637.00 Y7211.00
G1 X7685.00 Y7259.00
G1 X7772.00 Y7985.00
G1 X7441.00 Y8683.00
G1 X7070.00 Y9052.00
G1 X6525.00 Y9412.00
G1 X5665.00 Y9692.00
G1 X4955.00 Y9709.00
G1 X5306.00 Y9614.00
G1 X5329.00 Y9573.00
G1 X5430.00 Y9646.00
G1 X5475.00 Y9653.00
G1 X5425.00 Y9619.00
G1 X5352.00 Y9524.00
G1 X5397.00 Y9550.00
G1 X5576.00 Y9625.00
G1 X5635.00 Y9631.00
G1 X5562.00 Y9602.00
G1 X5420.00 Y9504.00
G1 X5428.00 Y9492.00
G1 X5507.00 Y9533.00
G1 X5765.00 Y9599.00
G1 X5825.00 Y9598.00
G1 X5755.00 Y9585.00
G1 X5570.00 Y9528.00
G1 X5553.00 Y9485.00
G1 X5786.00 Y9493.00
G1 X6099.00 Y9467.00
G1 X7145.00 Y8902.00
G1 X7497.00 Y8503.00
G1 X7478.00 Y8502.00
G1 X7055.00 Y8939.00
G1 X6490.00 Y9285.00
G1 X6578.00 Y9216.00
G1 X6866.00 Y9051.00
G1 X7661.00 Y8162.00
G1 X7601.00 Y8245.00
G1 X7403.00 Y8499.00
G1 X7368.00 Y8535.00
G1 X7320.00 Y8556.00
G1 X7344.00 Y8523.00
G1 X7550.00 Y8261.00
G1 X7745.00 Y7764.00
G1 X7750.00 Y7685.00
G1 X7735.00 Y7750.00
G1 X7562.00 Y8165.00
G1 X7440.00 Y8330.00
G1 X7468.00 Y8238.00
G1 X7666.00 Y7830.00
G1 X7710.00 Y7511.00
G1 X7691.00 Y7456.00
G1 X7686.00 Y7486.00
G1 X7685.00 Y7504.00
G1 X7686.00 Y7528.00
G1 X7696.00 Y7549.00
G1 X7679.00 Y7555.00
G1 X7682.00 Y7578.00
G1 X7681.00 Y7590.00
G1 X7675.00 Y7611.00
G1 X7670.00 Y7625.00
G1 X7662.00 Y7648.00
G1 X7656.00 Y7683.00
G1 X7658.00 Y7710.00
G1 X7653.00 Y7728.00
G1 X7637.00 Y7749.00
G1 X7631.00 Y7760.00
G1 X7620.00 Y7754.00
G1 X7637.00 Y7782.00
G1 X7621.00 Y7788.00
G1 X7613.00 Y7818.00
G1 X7597.00 Y7854.00
G1 X7583.00 Y7861.00
G1 X7595.00 Y7895.00
G1 X7587.00 Y7897.00
G1 X7566.00 Y7896.00
G1 X7576.00 Y7931.00
G1 X7578.00 Y7968.00
G1 X7559.00 Y7995.00
G1 X7474.00 Y8140.00
G1 X7563.00 Y7969.00
G1 X7551.00 Y7931.00
G1 X7517.00 Y7987.00
G1 X7101.00 Y8553.00
G1 X6955.00 Y8670.00
G1 X7069.00 Y8533.00
G1 X7626.00 Y7526.00
G1 X7608.00 Y7450.00
G1 X7563.00 Y7444.00
G1 X7570.00 Y7469.00
G1 X7570.00 Y7486.00
G1 X7577.00 Y7511.00
G1 X7597.00 Y7526.00
G1 X7561.00 Y7515.00
G1 X7530.00 Y7515.00
G1 X7554.00 Y7540.00
G1 X7590.00 Y7570.00
G1 X7558.00 Y7571.00
G1 X7518.00 Y7556.00
G1 X7545.00 Y7599.00
G1 X7580.00 Y7631.00
G1 X7545.00 Y7624.00
G1 X7508.00 Y7608.00
G1 X7529.00 Y7645.00
G1 X7560.00 Y7686.00
G1 X7541.00 Y7683.00
G1 X7484.00 Y7657.00
G1 X7399.00 Y7852.00
G1 X7355.00 Y7939.00
G1 X7310.00 Y7950.00
G1 X7375.00 Y7808.00
G1 X7421.00 Y7130.00
G1 X7345.00 Y7053.00
G1 X7294.00 Y7048.00
G1 X7301.00 Y7074.00
G1 X7305.00 Y7059.00
G1 X7344.00 Y7069.00
G1 X7373.00 Y7088.00
G1 X7340.00 Y7092.00
G1 X7302.00 Y7108.00
G1 X7333.00 Y7115.00
G1 X7410.00 Y7128.00
G1 X7368.00 Y7137.00
G1 X7351.00 Y7160.00
G1 X7445.00 Y7220.00
G1 X7434.00 Y7220.00
G1 X7405.00 Y7192.00
G1 X7318.00 Y7195.00
G1 X7357.00 Y7202.00
G1 X7386.00 Y7208.00
G1 X7398.00 Y7224.00
G1 X7460.00 Y7282.00
G1 X7443.00 Y7277.00
G1 X7377.00 Y7241.00
G1 X7316.00 Y7320.00
G1 X7311.00 Y7395.00
G1 X7353.00 Y7414.00
G1 X7408.00 Y7447.00
G1 X7438.00 Y7469.00
G1 X7448.00 Y7485.00
G1 X7380.00 Y7449.00
G1 X7307.00 Y7410.00
G1 X7290.00 Y7468.00
G1 X7103.00 Y7920.00
G1 X7125.00 Y7815.00
G1 X7241.00 Y7444.00
G1 X7115.00 Y6944.00
G1 X7120.00 Y6959.00
G1 X7107.00 Y6975.00
G1 X7056.00 Y6974.00
G1 X7105.00 Y6994.00
G1 X7200.00 Y7051.00
G1 X7163.00 Y7035.00
G1 X7099.00 Y7010.00
G1 X7074.00 Y7035.00
G1 X7113.00 Y7051.00
G1 X7143.00 Y7055.00
G1 X7178.00 Y7075.00
G1 X7212.00 Y7098.00
G1 X7169.00 Y7092.00
G1 X7101.00 Y7080.00
G1 X7093.00 Y7139.00
G1 X7159.00 Y7192.00
G1 X7218.00 Y7249.00
G1 X7118.00 Y7178.00
G1 X7091.00 Y7160.00
G1 X7077.00 Y7248.00
G1 X7072.00 Y7335.00
G1 X7126.00 Y7386.00
G1 X7180.00 Y7448.00
G1 X7133.00 Y7415.00
G1 X7075.00 Y7370.00
G1 X7041.00 Y7456.00
G1 X6945.00 Y7705.00
G1 X6893.00 Y7813.00
G1 X6813.00 Y7991.00
G1 X6718.00 Y8114.00
G1 X6767.00 Y7992.00
G1 X6993.00 Y7460.00
G1 X7030.00 Y7187.00
G1 X6914.00 Y6830.00
G1 X6753.00 Y6810.00
G1 X6758.00 Y6811.00
G1 X6897.00 Y6845.00
G1 X6930.00 Y6890.00
G1 X6899.00 Y6871.00
G1 X6845.00 Y6834.00
G1 X6772.00 Y6847.00
G1 X6797.00 Y6854.00
G1 X6900.00 Y6891.00
G1 X6875.00 Y6886.00
G1 X6797.00 Y6883.00
G1 X6792.00 Y6963.00
G1 X6803.00 Y7030.00
G1 X6839.00 Y7024.00
G1 X6863.00 Y7030.00
G1 X6826.00 Y7043.00
G1 X6796.00 Y7109.00
G1 X6651.00 Y7692.00
G1 X6539.00 Y7920.00
G1 X6550.00 Y7824.00
G1 X6652.00 Y6775.00
G1 X6466.00 Y6716.00
G1 X6510.00 Y6735.00
G1 X6578.00 Y6745.00
G1 X6612.00 Y6773.00
G1 X6651.00 Y6812.00
G1 X6663.00 Y6835.00
G1 X6639.00 Y6814.00
G1 X6530.00 Y6784.00
G1 X6485.00 Y6815.00
G1 X6535.00 Y6819.00
G1 X6622.00 Y6834.00
G1 X6688.00 Y6888.00
G1 X6706.00 Y6935.00
G1 X6693.00 Y6932.00
G1 X6591.00 Y6903.00
G1 X6517.00 Y6889.00
G1 X6630.00 Y6884.00
G1 X6685.00 Y6891.00
G1 X6661.00 Y6872.00
G1 X6535.00 Y6841.00
G1 X6501.00 Y6883.00
G1 X6566.00 Y6946.00
G1 X6730.00 Y7010.00
G1 X6691.00 Y7001.00
G1 X6535.00 Y6964.00
G1 X6510.00 Y7000.00
G1 X6534.00 Y7021.00
G1 X6669.00 Y7051.00
G1 X6678.00 Y7089.00
G1 X6665.00 Y7080.00
G1 X6640.00 Y7051.00
G1 X6527.00 Y7044.00
G1 X6496.00 Y7187.00
G1 X6440.00 Y7425.00
G1 X6443.00 Y7269.00
G1 X6444.00 Y6870.00
G1 X6335.00 Y6660.00
G1 X6355.00 Y6713.00
G1 X6382.00 Y6793.00
G1 X6389.00 Y6840.00
G1 X6386.00 Y6855.00
G1 X6336.00 Y6792.00
G1 X6332.00 Y6716.00
G1 X6336.00 Y6711.00
G1 X6320.00 Y6705.00
G1 X6305.00 Y6700.00
G1 X6267.00 Y6691.00
G1 X6235.00 Y6692.00
G1 X6263.00 Y6702.00
G1 X6290.00 Y6721.00
G1 X6248.00 Y6719.00
G1 X6223.00 Y6714.00
G1 X6267.00 Y6752.00
G1 X6297.00 Y6766.00
G1 X6268.00 Y6772.00
G1 X6247.00 Y6781.00
G1 X6250.00 Y6805.00
G1 X6279.00 Y6851.00
G1 X6305.00 Y6853.00
G1 X6278.00 Y6857.00
G1 X6250.00 Y6886.00
G1 X6269.00 Y6910.00
G1 X6295.00 Y6920.00
G1 X6276.00 Y6930.00
G1 X6273.00 Y6953.00
G1 X6263.00 Y6959.00
G1 X6230.00 Y6927.00
G1 X6197.00 Y6774.00
G1 X6163.00 Y6777.00
G1 X6130.00 Y6797.00
G1 X6149.00 Y6805.00
G1 X6175.00 Y6810.00
G1 X6155.00 Y6820.00
G1 X6158.00 Y6848.00
G1 X6160.00 Y6870.00
G1 X6163.00 Y6905.00
G1 X6165.00 Y6917.00
G1 X6130.00 Y6968.00
G1 X6148.00 Y6991.00
G1 X6142.00 Y7000.00
G1 X6122.00 Y7037.00
G1 X6108.00 Y7068.00
G1 X6090.00 Y6978.00
G1 X5933.00 Y6604.00
G1 X5842.00 Y6630.00
G1 X5852.00 Y6633.00
G1 X5873.00 Y6627.00
G1 X5880.00 Y6619.00
G1 X5890.00 Y6620.00
G1 X5900.00 Y6621.00
G1 X5916.00 Y6641.00
G1 X5919.00 Y6671.00
G1 X5945.00 Y6678.00
G1 X5964.00 Y6704.00
G1 X5944.00 Y6706.00
G1 X5909.00 Y6697.00
G1 X5879.00 Y6689.00
G1 X5870.00 Y6693.00
G1 X5888.00 Y6711.00
G1 X5887.00 Y6717.00
G1 X5877.00 Y6748.00
G1 X5884.00 Y7000.00
G1 X5818.00 Y7703.00
G1 X5777.00 Y7840.00
G1 X5764.00 Y7803.00
G1 X5840.00 Y7025.00
G1 X5791.00 Y6669.00
G1 X5695.00 Y6585.00
G1 X5670.00 Y6589.00
G1 X5700.00 Y6600.00
G1 X5744.00 Y6625.00
G1 X5773.00 Y6650.00
G1 X5742.00 Y6650.00
G1 X5716.00 Y6665.00
G1 X5745.00 Y6680.00
G1 X5778.00 Y6693.00
G1 X5752.00 Y6702.00
G1 X5728.00 Y6713.00
G1 X5768.00 Y6733.00
G1 X5762.00 Y6739.00
G1 X5768.00 Y6784.00
G1 X5766.00 Y6802.00
G1 X5737.00 Y6818.00
G1 X5768.00 Y6846.00
G1 X5795.00 Y6853.00
G1 X5770.00 Y6859.00
G1 X5768.00 Y6908.00
G1 X5790.00 Y6927.00
G1 X5775.00 Y6930.00
G1 X5744.00 Y6965.00
G1 X5755.00 Y7000.00
G1 X5745.00 Y7034.00
G1 X5720.00 Y6998.00
G1 X5678.00 Y6696.00
G1 X5549.00 Y6550.00
G1 X5422.00 Y6615.00
G1 X5430.00 Y6617.00
G1 X5595.00 Y6580.00
G1 X5589.00 Y6603.00
G1 X5470.00 Y6650.00
G1 X5522.00 Y6639.00
G1 X5588.00 Y6641.00
G1 X5560.00 Y6650.00
G1 X5455.00 Y6687.00
G1 X5444.00 Y6759.00
G1 X5425.00 Y7515.00
G1 X5410.00 Y7713.00
G1 X5389.00 Y7740.00
G1 X5374.00 Y7638.00
G1 X5416.00 Y7259.00
G1 X5421.00 Y7210.00
G1 X5407.00 Y6998.00
G1 X5384.00 Y6703.00
G1 X5358.00 Y6671.00
G1 X5353.00 Y6717.00
G1 X5336.00 Y6649.00
G1 X5314.00 Y6651.00
G1 X5292.00 Y6640.00
G1 X5280.00 Y6580.00
G1 X5262.00 Y6695.00
G1 X5255.00 Y6705.00
G1 X5241.00 Y6633.00
G1 X5228.00 Y6580.00
G1 X5216.00 Y6670.00
G1 X5206.00 Y6760.00
G1 X5197.00 Y6688.00
G1 X5188.00 Y6655.00
G1 X5168.00 Y6701.00
G1 X5162.00 Y6726.00
G1 X5155.00 Y6747.00
G1 X5160.00 Y6685.00
G1 X5170.00 Y6585.00
G1 X5157.00 Y6608.00
G1 X5121.00 Y6708.00
G1 X5114.00 Y6685.00
G1 X5122.00 Y6604.00
G1 X5088.00 Y6683.00
G1 X5066.00 Y7050.00
G1 X5094.00 Y7684.00
G1 X5111.00 Y8033.00
G1 X5091.00 Y8034.00
G1 X5029.00 Y7365.00
G1 X5017.00 Y6993.00
G1 X4998.00 Y6780.00
G1 X5003.00 Y6755.00
G1 X5028.00 Y6722.00
G1 X4998.00 Y6686.00
G1 X4952.00 Y6702.00
G1 X4904.00 Y6736.00
G1 X4908.00 Y6717.00
G1 X4870.00 Y6688.00
G1 X4883.00 Y6668.00
G1 X4883.00 Y6642.00
G1 X4850.00 Y6592.00
G1 X4960.00 Y6573.00
G1 X5024.00 Y6625.00
G1 X4990.00 Y6642.00
G1 X4950.00 Y6651.00
G1 X4994.00 Y6668.00
G1 X5043.00 Y6643.00
G1 X4947.00 Y6555.00
G1 X4835.00 Y6594.00
G1 X4762.00 Y6985.00
G1 X4728.00 Y7200.00
G1 X4735.00 Y7140.00
G1 X4730.00 Y7105.00
G1 X4710.00 Y7097.00
G1 X4731.00 Y7077.00
G1 X4722.00 Y7042.00
G1 X4715.00 Y7016.00
G1 X4708.00 Y6985.00
G1 X4685.00 Y6977.00
G1 X4708.00 Y6973.00
G1 X4710.00 Y6940.00
G1 X4690.00 Y6932.00
G1 X4710.00 Y6912.00
G1 X4730.00 Y6885.00
G1 X4702.00 Y6882.00
G1 X4684.00 Y6887.00
G1 X4710.00 Y6860.00
G1 X4708.00 Y6839.00
G1 X4696.00 Y6830.00
G1 X4726.00 Y6809.00
G1 X4700.00 Y6803.00
G1 X4680.00 Y6795.00
G1 X4705.00 Y6780.00
G1 X4724.00 Y6764.00
G1 X4705.00 Y6752.00
G1 X4713.00 Y6726.00
G1 X4745.00 Y6713.00
G1 X4708.00 Y6705.00
G1 X4713.00 Y6685.00
G1 X4755.00 Y6690.00
G1 X4725.00 Y6676.00
G1 X4695.00 Y6661.00
G1 X4722.00 Y6660.00
G1 X4755.00 Y6650.00
G1 X4740.00 Y6640.00
G1 X4660.00 Y6678.00
G1 X4645.00 Y6780.00
G1 X4630.00 Y6957.00
G1 X4613.00 Y7050.00
G1 X4613.00 Y7070.00
G1 X4631.00 Y7133.00
G1 X4644.00 Y7305.00
G1 X4642.00 Y7438.00
G1 X4619.00 Y7443.00
G1 X4596.00 Y7275.00
G1 X4589.00 Y6795.00
G1 X4596.00 Y6704.00
G1 X4543.00 Y6713.00
G1 X4452.00 Y6680.00
G1 X4518.00 Y6640.00
G1 X4590.00 Y6636.00
G1 X4600.00 Y6645.00
G1 X4610.00 Y6624.00
G1 X4496.00 Y6624.00
G1 X4406.00 Y6760.00
G1 X4416.00 Y7338.00
G1 X4401.00 Y7380.00
G1 X4359.00 Y7206.00
G1 X4364.00 Y7088.00
G1 X4362.00 Y7060.00
G1 X4343.00 Y7013.00
G1 X4323.00 Y6936.00
G1 X4323.00 Y6927.00
G1 X4340.00 Y6894.00
G1 X4328.00 Y6888.00
G1 X4290.00 Y6890.00
G1 X4315.00 Y6874.00
G1 X4314.00 Y6848.00
G1 X4294.00 Y6841.00
G1 X4320.00 Y6830.00
G1 X4346.00 Y6801.00
G1 X4258.00 Y6818.00
G1 X4243.00 Y6884.00
G1 X4214.00 Y6940.00
G1 X4185.00 Y6930.00
G1 X4199.00 Y6920.00
G1 X4203.00 Y6892.00
G1 X4198.00 Y6875.00
G1 X4195.00 Y6840.00
G1 X4170.00 Y6825.00
G1 X4195.00 Y6816.00
G1 X4220.00 Y6802.00
G1 X4200.00 Y6775.00
G1 X4203.00 Y6757.00
G1 X4244.00 Y6720.00
G1 X4259.00 Y6676.00
G1 X4223.00 Y6666.00
G1 X4174.00 Y6685.00
G1 X4130.00 Y6816.00
G1 X4098.00 Y6926.00
G1 X4040.00 Y6909.00
G1 X4071.00 Y6900.00
G1 X4095.00 Y6890.00
G1 X4069.00 Y6880.00
G1 X4050.00 Y6870.00
G1 X4076.00 Y6860.00
G1 X4095.00 Y6850.00
G1 X4069.00 Y6840.00
G1 X4056.00 Y6785.00
G1 X4080.00 Y6785.00
G1 X4104.00 Y6785.00
G1 X4089.00 Y6762.00
G1 X4109.00 Y6705.00
G1 X4104.00 Y6681.00
G1 X4009.00 Y7123.00
G1 X4036.00 Y7310.00
G1 X4031.00 Y7420.00
G1 X3969.00 Y7175.00
G1 X3963.00 Y6820.00
G1 X3969.00 Y6794.00
G1 X3897.00 Y6798.00
G1 X3808.00 Y6823.00
G1 X3846.00 Y6846.00
G1 X3943.00 Y6830.00
G1 X3936.00 Y6855.00
G1 X3929.00 Y6876.00
G1 X3923.00 Y6866.00
G1 X3858.00 Y6859.00
G1 X3786.00 Y6864.00
G1 X3826.00 Y6771.00
G1 X3842.00 Y6778.00
G1 X3974.00 Y6760.00
G1 X3901.00 Y6760.00
G1 X3853.00 Y6758.00
G1 X3757.00 Y6875.00
G1 X3777.00 Y7410.00
G1 X3924.00 Y7813.00
G1 X3932.00 Y7900.00
G1 X3725.00 Y7365.00
G1 X3685.00 Y6975.00
G1 X3691.00 Y6930.00
G1 X3635.00 Y6930.00
G1 X3547.00 Y6947.00
G1 X3529.00 Y6946.00
G1 X3648.00 Y6910.00
G1 X3700.00 Y6889.00
G1 X3581.00 Y6885.00
G1 X3552.00 Y6878.00
G1 X3628.00 Y6856.00
G1 X3638.00 Y6835.00
G1 X3605.00 Y6826.00
G1 X3663.00 Y6810.00
G1 X3690.00 Y6799.00
G1 X3658.00 Y6795.00
G1 X3547.00 Y6859.00
G1 X3505.00 Y7504.00
G1 X3640.00 Y7815.00
G1 X3666.00 Y7873.00
G1 X3727.00 Y8014.00
G1 X3751.00 Y8130.00
G1 X3618.00 Y7854.00
G1 X3587.00 Y7786.00
G1 X3457.00 Y7500.00
G1 X3414.00 Y7457.00
G1 X3343.00 Y7489.00
G1 X3300.00 Y7514.00
G1 X3393.00 Y7449.00
G1 X3415.00 Y7310.00
G1 X3400.00 Y7151.00
G1 X3400.00 Y7078.00
G1 X3373.00 Y7084.00
G1 X3298.00 Y7116.00
G1 X3249.00 Y7126.00
G1 X3384.00 Y7066.00
G1 X3400.00 Y7046.00
G1 X3368.00 Y7019.00
G1 X3306.00 Y7016.00
G1 X3220.00 Y7131.00
G1 X3271.00 Y7605.00
G1 X3274.00 Y7687.00
G1 X3240.00 Y7673.00
G1 X3204.00 Y7618.00
G1 X3208.00 Y7608.00
G1 X3201.00 Y7523.00
G1 X3160.00 Y7271.00
G1 X3150.00 Y7230.00
G1 X3140.00 Y7238.00
G1 X3080.00 Y7283.00
G1 X3020.00 Y7311.00
G1 X3093.00 Y7251.00
G1 X3098.00 Y7225.00
G1 X3052.00 Y7247.00
G1 X3024.00 Y7257.00
G1 X3091.00 Y7210.00
G1 X3127.00 Y7204.00
G1 X3130.00 Y7209.00
G1 X3131.00 Y7220.00
G1 X3156.00 Y7173.00
G1 X3117.00 Y7185.00
G1 X3080.00 Y7189.00
G1 X3060.00 Y7183.00
G1 X3040.00 Y7173.00
G1 X3049.00 Y7165.00
G1 X3153.00 Y7141.00
G1 X3101.00 Y7139.00
G1 X3050.00 Y7148.00
G1 X3105.00 Y7084.00
G1 X3104.00 Y7064.00
G1 X3025.00 Y7182.00
G1 X2986.00 Y7370.00
G1 X3029.00 Y7610.00
G1 X3111.00 Y7831.00
G1 X3146.00 Y7935.00
G1 X3121.00 Y7936.00
G1 X3052.00 Y7810.00
G1 X3042.00 Y7785.00
G1 X3032.00 Y7810.00
G1 X2980.00 Y7864.00
G1 X3005.00 Y7818.00
G1 X3020.00 Y7745.00
G1 X3010.00 Y7719.00
G1 X3004.00 Y7700.00
G1 X2928.00 Y7769.00
G1 X2921.00 Y7763.00
G1 X2958.00 Y7710.00
G1 X2986.00 Y7646.00
G1 X2976.00 Y7612.00
G1 X2952.00 Y7631.00
G1 X2911.00 Y7650.00
G1 X2933.00 Y7623.00
G1 X2970.00 Y7585.00
G1 X2923.00 Y7592.00
G1 X2890.00 Y7609.00
G1 X2910.00 Y7575.00
G1 X2928.00 Y7551.00
G1 X2938.00 Y7517.00
G1 X2950.00 Y7484.00
G1 X2894.00 Y7512.00
G1 X2864.00 Y7602.00
G1 X3034.00 Y8058.00
G1 X3102.00 Y8168.00
G1 X3119.00 Y8212.00
G1 X3138.00 Y8234.00
G1 X3197.00 Y8304.00
G1 X3142.00 Y8270.00
G1 X3101.00 Y8220.00
G1 X2980.00 Y8045.00
G1 X2963.00 Y8014.00
G1 X2946.00 Y7988.00
G1 X2937.00 Y8011.00
G1 X2923.00 Y8022.00
G1 X2930.00 Y7995.00
G1 X2919.00 Y7942.00
G1 X2890.00 Y7976.00
G1 X2870.00 Y8007.00
G1 X2914.00 Y8096.00
G1 X3004.00 Y8242.00
G1 X3041.00 Y8330.00
G1 X2832.00 Y8017.00
G1 X2755.00 Y7800.00
G1 X2729.00 Y7705.00
G1 X2734.00 Y7770.00
G1 X2760.00 Y7905.00
G1 X2968.00 Y8330.00
G1 X3040.00 Y8452.00
G1 X2993.00 Y8418.00
G1 X2935.00 Y8345.00
G1 X2873.00 Y8243.00
G1 X2833.00 Y8170.00
G1 X2923.00 Y8372.00
G1 X3015.00 Y8488.00
G1 X3114.00 Y8565.00
G1 X3161.00 Y8580.00
G1 X3192.00 Y8598.00
G1 X3202.00 Y8596.00
G1 X3195.00 Y8623.00
G1 X3160.00 Y8605.00
G1 X3111.00 Y8588.00
G1 X3151.00 Y8658.00
G1 X3216.00 Y8706.00
G1 X3225.00 Y8710.00
G1 X3531.00 Y9006.00
G1 X4125.00 Y9333.00
G1 X4641.00 Y9434.00
G1 X4740.00 Y9434.00
G1 X4360.00 Y9319.00
G1 X4413.00 Y9314.00
G1 X4575.00 Y9364.00
G1 X4508.00 Y9315.00
G1 X4469.00 Y9260.00
G1 X4554.00 Y9295.00
G1 X4847.00 Y9407.00
G1 X4830.00 Y9430.00
G1 X4795.00 Y9440.00
G1 X4839.00 Y9447.00
G1 X4815.00 Y9477.00
G1 X4141.00 Y9376.00
G1 X4030.00 Y9335.00
G1 X3765.00 Y9197.00
G1 X3512.00 Y9027.00
G1 X3475.00 Y9000.00
G1 X3021.00 Y8552.00
G1 X3040.00 Y8598.00
G1 X3908.00 Y9307.00
G1 X4473.00 Y9496.00
G1 X4903.00 Y9489.00
G1 X4942.00 Y9502.00
G1 X4669.00 Y9536.00
G1 X4420.00 Y9521.00
G1 X4314.00 Y9503.00
G1 X4417.00 Y9533.00
G1 X4805.00 Y9545.00
G1 X4906.00 Y9538.00
G1 X4715.00 Y9595.00
G1 X4686.00 Y9609.00
G1 X4970.00 Y9538.00
G1 X5013.00 Y9492.00
G1 X5030.00 Y9480.00
G1 X4910.00 Y9605.00
G1 X4835.00 Y9631.00
G1 X4898.00 Y9626.00
G1 X5082.00 Y9546.00
G1 X5100.00 Y9583.00
G1 X5030.00 Y9629.00
G1 X5061.00 Y9638.00
G1 X5146.00 Y9587.00
G1 X5180.00 Y9545.00
G1 X5174.00 Y9614.00
G1 X5178.00 Y9650.00
G1 X5220.00 Y9589.00
G1 X5247.00 Y9543.00
G1 X5257.00 Y9592.00
G1 X5307.00 Y9660.00
G1 X5320.00 Y9652.00
G1 X6257.00 Y9460.00
G1 X6255.00 Y9456.00
G1 X5838.00 Y9540.00
G1 X5618.00 Y9505.00
G1 X5600.00 Y9509.00
G1 X5820.00 Y9559.00
G1 X5970.00 Y9545.00
G1 X6330.00 Y9426.00
G1 X6290.00 Y9442.00
G1 X6300.00 Y9444.00
G1 X6340.00 Y9428.00
G1 X2870.00 Y7805.00
G1 X2849.00 Y7753.00
G1 X2826.00 Y7727.00
G1 X2824.00 Y7707.00
G1 X2814.00 Y7687.00
G1 X2809.00 Y7672.00
G1 X2810.00 Y7645.00
G1 X2806.00 Y7626.00
G1 X2802.00 Y7600.00
G1 X2797.00 Y7580.00
G1 X2789.00 Y7560.00
G1 X2788.00 Y7548.00
G1 X2800.00 Y7521.00
G1 X2790.00 Y7520.00
G1 X2780.00 Y7518.00
G1 X2790.00 Y7500.00
G1 X2783.00 Y7480.00
G1 X2785.00 Y7464.00
G1 X2791.00 Y7441.00
G1 X2790.00 Y7411.00
G1 X2798.00 Y7372.00
G1 X2778.00 Y7405.00
G1 X2779.00 Y7655.00
G1 X2806.00 Y7810.00
G1 X2835.00 Y7930.00
G1 X2855.00 Y7975.00
G1 X2885.00 Y7965.00
G1 X2910.00 Y7923.00
G1 X2911.00 Y7420.00
G1 X2858.00 Y7460.00
G1 X2893.00 Y7449.00
G1 X2890.00 Y7459.00
G1 X2858.00 Y7480.00
G1 X2857.00 Y7520.00
G1 X2897.00 Y7488.00
G1 X7595.00 Y7330.00
G1 X7566.00 Y7324.00
G1 X7578.00 Y7361.00
G1 X7605.00 Y7374.00
G1 X7574.00 Y7378.00
G1 X7547.00 Y7399.00
G1 X7622.00 Y7427.00
G1 X7689.00 Y7410.00
G1 X7680.00 Y7420.00
G1 X7696.00 Y7430.00
G1 X7705.00 Y7420.00
G1 X2896.00 Y7359.00
G1 X2898.00 Y7353.00
G1 X2908.00 Y7330.00
G1 X2916.00 Y7315.00
G1 X2909.00 Y7300.00
G1 X2864.00 Y7387.00
G1 X2888.00 Y7414.00
G1 X2922.00 Y7404.00
G1 X7670.00 Y7361.00
G1 X7692.00 Y7400.00
G1 X7695.00 Y7378.00
G1 X7581.00 Y7290.00
G1 X7567.00 Y7267.00
G1 X7565.00 Y7264.00
G1 X7542.00 Y7284.00
G1 X7547.00 Y7297.00
G1 X7570.00 Y7301.00
G1 X7600.00 Y7300.00
G1 X2920.00 Y7255.00
G1 X2910.00 Y7251.00
G1 X2930.00 Y7230.00
G1 X2950.00 Y7203.00
G1 X2907.00 Y7239.00
G1 X2909.00 Y7270.00
G1 X2930.00 Y7259.00
G1 X7524.00 Y7190.00
G1 X7515.00 Y7200.00
G1 X7531.00 Y7210.00
G1 X7540.00 Y7200.00
G1 X3170.00 Y7068.00
G1 X3094.00 Y7111.00
G1 X3127.00 Y7108.00
G1 X2990.00 Y7030.00
G1 X2992.00 Y7016.00
G1 X2980.00 Y7065.00
G1 X2989.00 Y7059.00
G1 X7480.00 Y7035.00
G1 X7471.00 Y7063.00
G1 X7480.00 Y7065.00
G1 X7489.00 Y7037.00
G1 X3028.00 Y7014.00
G1 X3005.00 Y6995.00
G1 X3024.00 Y7018.00
G1 X3050.00 Y7037.00
G1 X3186.00 Y7016.00
G1 X3170.00 Y7031.00
G1 X3190.00 Y7025.00
G1 X7281.00 Y7010.00
G1 X7265.00 Y7020.00
G1 X7274.00 Y7030.00
G1 X7290.00 Y7020.00
G1 X3349.00 Y6985.00
G1 X3330.00 Y6981.00
G1 X3392.00 Y6970.00
G1 X3425.00 Y6961.00
G1 X3317.00 Y6973.00
G1 X3285.00 Y6995.00
G1 X3335.00 Y7001.00
G1 X3397.00 Y7008.00
G1 X3414.00 Y7001.00
G1 X7420.00 Y6975.00
G1 X7410.00 Y6991.00
G1 X7420.00 Y6995.00
G1 X7430.00 Y6979.00
G1 X7448.00 Y6970.00
G1 X7474.00 Y7000.00
G1 X7470.00 Y6985.00
G1 X3024.00 Y6944.00
G1 X3020.00 Y6960.00
G1 X3055.00 Y6970.00
G1 X3058.00 Y6954.00
G1 X3215.00 Y6902.00
G1 X3206.00 Y6925.00
G1 X3240.00 Y6922.00
G1 X3390.00 Y6926.00
G1 X3400.00 Y6934.00
G1 X3445.00 Y6919.00
G1 X7065.00 Y6916.00
G1 X7050.00 Y6920.00
G1 X7065.00 Y6930.00
G1 X7080.00 Y6926.00
G1 X7261.00 Y6890.00
G1 X7271.00 Y6908.00
G1 X7271.00 Y6873.00
G1 X3255.00 Y6830.00
G1 X3273.00 Y6887.00
G1 X3275.00 Y6867.00
G1 X7210.00 Y6870.00
G1 X7210.00 Y6895.00
G1 X7220.00 Y6872.00
G1 X3210.00 Y6865.00
G1 X3205.00 Y6881.00
G1 X3220.00 Y6874.00
G1 X7136.00 Y6866.00
G1 X7129.00 Y6880.00
G1 X7145.00 Y6870.00
G1 X3325.00 Y6859.00
G1 X3348.00 Y6870.00
G1 X3344.00 Y6856.00
G1 X7230.00 Y6150.00
G1 X7475.00 Y5195.00
G1 X7925.00 Y4531.00
G1 X8236.00 Y4135.00
G1 X8395.00 Y3812.00
G1 X8397.00 Y3732.00
G1 X8300.00 Y3820.00
G1 X8042.00 Y4090.00
G1 X7880.00 Y4305.00
G1 X7352.00 Y5115.00
G1 X7115.00 Y5950.00
G1 X7004.00 Y6565.00
G1 X7003.00 Y6609.00
G1 X7047.00 Y6647.00
G1 X7062.00 Y6824.00
G1 X7090.00 Y6809.00
G1 X7142.00 Y6765.00
G1 X3442.00 Y6627.00
G1 X3455.00 Y6551.00
G1 X3394.00 Y6135.00
G1 X3108.00 Y5010.00
G1 X2675.00 Y4351.00
G1 X2531.00 Y4166.00
G1 X2460.00 Y4084.00
G1 X2168.00 Y3821.00
G1 X2090.00 Y3757.00
G1 X2126.00 Y3862.00
G1 X2530.00 Y4455.00
G1 X3042.00 Y5193.00
G1 X3265.00 Y6192.00
G1 X3376.00 Y6791.00
G1 X3401.00 Y6801.00
G1 X4080.00 Y6805.00
G1 X4060.00 Y6808.00
G1 X4080.00 Y6830.00
G1 X4100.00 Y6827.00
G1 X3449.00 Y6710.00
G1 X3460.00 Y6747.00
G1 X3480.00 Y6798.00
G1 X3492.00 Y6812.00
G1 X3481.00 Y6755.00
G1 X3710.00 Y6785.00
G1 X3700.00 Y6801.00
G1 X3714.00 Y6794.00
G1 X7010.00 Y6779.00
G1 X6998.00 Y6810.00
G1 X7025.00 Y6784.00
G1 X4350.00 Y6760.00
G1 X4348.00 Y6740.00
G1 X4305.00 Y6754.00
G1 X4277.00 Y6795.00
G1 X4323.00 Y6785.00
G1 X6340.00 Y6732.00
G1 X6372.00 Y6790.00
G1 X6380.00 Y6783.00
G1 X6187.00 Y6730.00
G1 X6120.00 Y6766.00
G1 X6174.00 Y6764.00
G1 X6518.00 Y6751.00
G1 X6475.00 Y6760.00
G1 X6530.00 Y6760.00
G1 X6991.00 Y6687.00
G1 X6980.00 Y6693.00
G1 X6964.00 Y6742.00
G1 X6959.00 Y6765.00
G1 X6986.00 Y6728.00
G1 X3478.00 Y6680.00
G1 X3503.00 Y6733.00
G1 X3509.00 Y6716.00
G1 X3986.00 Y6710.00
G1 X3864.00 Y6741.00
G1 X3887.00 Y6740.00
G1 X3957.00 Y6727.00
G1 X4105.00 Y6726.00
G1 X4090.00 Y6741.00
G1 X4105.00 Y6750.00
G1 X4120.00 Y6735.00
G1 X4329.00 Y6730.00
G1 X4360.00 Y6718.00
G1 X4367.00 Y6681.00
G1 X4357.00 Y6663.00
G1 X4336.00 Y6657.00
G1 X4283.00 Y6722.00
G1 X4291.00 Y6750.00
G1 X4305.00 Y6740.00
G1 X6180.00 Y6700.00
G1 X6155.00 Y6690.00
G1 X6122.00 Y6701.00
G1 X6107.00 Y6706.00
G1 X6113.00 Y6726.00
G1 X6148.00 Y6724.00
G1 X6916.00 Y6680.00
G1 X6890.00 Y6710.00
G1 X6874.00 Y6740.00
G1 X6900.00 Y6710.00
G1 X7017.00 Y6721.00
G1 X7028.00 Y6731.00
G1 X7022.00 Y6708.00
G1 X3544.00 Y6666.00
G1 X3553.00 Y6694.00
G1 X3570.00 Y6696.00
G1 X6761.00 Y6722.00
G1 X6782.00 Y6692.00
G1 X6796.00 Y6643.00
G1 X6782.00 Y6606.00
G1 X6760.00 Y6588.00
G1 X6716.00 Y6570.00
G1 X6640.00 Y6664.00
G1 X6657.00 Y6655.00
G1 X6725.00 Y6590.00
G1 X6735.00 Y6651.00
G1 X6710.00 Y6710.00
G1 X6755.00 Y6658.00
G1 X6946.00 Y6707.00
G1 X6951.00 Y6713.00
G1 X6958.00 Y6695.00
G1 X3700.00 Y6681.00
G1 X3718.00 Y6706.00
G1 X3711.00 Y6683.00
G1 X3736.00 Y6677.00
G1 X3758.00 Y6697.00
G1 X3745.00 Y6654.00
G1 X3794.00 Y6626.00
G1 X3762.00 Y6604.00
G1 X3765.00 Y6635.00
G1 X3796.00 Y6684.00
G1 X3811.00 Y6705.00
G1 X3809.00 Y6672.00
G1 X4600.00 Y6669.00
G1 X4492.00 Y6676.00
G1 X4480.00 Y6699.00
G1 X4592.00 Y6684.00
G1 X6725.00 Y6612.00
G1 X6671.00 Y6700.00
G1 X6690.00 Y6675.00
G1 X6727.00 Y6622.00
G1 X5883.00 Y6644.00
G1 X5859.00 Y6650.00
G1 X5855.00 Y6660.00
G1 X5875.00 Y6663.00
G1 X5890.00 Y6674.00
G1 X5899.00 Y6690.00
G1 X5902.00 Y6664.00
G1 X3672.00 Y6660.00
G1 X3677.00 Y6673.00
G1 X3677.00 Y6648.00
G1 X5547.00 Y6580.00
G1 X5440.00 Y6639.00
G1 X5458.00 Y6653.00
G1 X5525.00 Y6601.00
G1 X6089.00 Y6640.00
G1 X6086.00 Y6664.00
G1 X6103.00 Y6660.00
G1 X6244.00 Y6650.00
G1 X6213.00 Y6643.00
G1 X6208.00 Y6653.00
G1 X6285.00 Y6678.00
G1 X6276.00 Y6665.00
G1 X3781.00 Y6570.00
G1 X3713.00 Y6596.00
G1 X3711.00 Y6605.00
G1 X3785.00 Y6592.00
G1 X3849.00 Y6631.00
G1 X3869.00 Y6622.00
G1 X6146.00 Y6641.00
G1 X6127.00 Y6650.00
G1 X6141.00 Y6670.00
G1 X6160.00 Y6661.00
G1 X6203.00 Y6615.00
G1 X6220.00 Y6630.00
G1 X6275.00 Y6648.00
G1 X6291.00 Y6640.00
G1 X3521.00 Y5320.00
G1 X3504.00 Y4975.00
G1 X3430.00 Y4842.00
G1 X2930.00 Y4411.00
G1 X2707.00 Y4256.00
G1 X2644.00 Y4213.00
G1 X2748.00 Y4346.00
G1 X3165.00 Y4993.00
G1 X3455.00 Y6136.00
G1 X3494.00 Y6450.00
G1 X3554.00 Y6600.00
G1 X3597.00 Y6624.00
G1 X3624.00 Y6648.00
G1 X3641.00 Y6610.00
G1 X3634.00 Y6464.00
G1 X4186.00 Y6633.00
G1 X4204.00 Y6648.00
G1 X4240.00 Y6635.00
G1 X4340.00 Y6629.00
G1 X4380.00 Y6643.00
G1 X4370.00 Y6630.00
G1 X4548.00 Y6643.00
G1 X4554.00 Y6649.00
G1 X4567.00 Y6644.00
G1 X4726.00 Y6603.00
G1 X4730.00 Y6623.00
G1 X4780.00 Y6590.00
G1 X4066.00 Y5675.00
G1 X3890.00 Y5311.00
G1 X3784.00 Y5368.00
G1 X3767.00 Y5488.00
G1 X3798.00 Y5576.00
G1 X3925.00 Y6140.00
G1 X3996.00 Y6620.00
G1 X4056.00 Y6330.00
G1 X6505.00 Y6485.00
G1 X6581.00 Y5999.00
G1 X6610.00 Y5584.00
G1 X6610.00 Y5295.00
G1 X6587.00 Y5335.00
G1 X6513.00 Y5451.00
G1 X6463.00 Y5528.00
G1 X6457.00 Y5691.00
G1 X6431.00 Y5990.00
G1 X6395.00 Y6279.00
G1 X6378.00 Y6433.00
G1 X6402.00 Y6454.00
G1 X6467.00 Y6586.00
G1 X6494.00 Y6598.00
G1 X6661.00 Y6570.00
G1 X6600.00 Y6632.00
G1 X6615.00 Y6625.00
G1 X6651.00 Y6588.00
G1 X7015.00 Y6185.00
G1 X7340.00 Y5005.00
G1 X7834.00 Y4271.00
G1 X7965.00 Y4092.00
G1 X7893.00 Y4151.00
G1 X7204.00 Y5065.00
G1 X6960.00 Y5991.00
G1 X6860.00 Y6510.00
G1 X6846.00 Y6608.00
G1 X6852.00 Y6639.00
G1 X6889.00 Y6616.00
G1 X6947.00 Y6529.00
G1 X4052.00 Y6610.00
G1 X4057.00 Y6623.00
G1 X4057.00 Y6598.00
G1 X4276.00 Y6610.00
G1 X4250.00 Y6620.00
G1 X4269.00 Y6630.00
G1 X4295.00 Y6620.00
G1 X4959.00 Y6618.00
G1 X4991.00 Y6622.00
G1 X4995.00 Y6607.00
G1 X4884.00 Y6596.00
G1 X4883.00 Y6623.00
G1 X4921.00 Y6628.00
G1 X4938.00 Y6618.00
G1 X6370.00 Y6540.00
G1 X6380.00 Y6550.00
G1 X6391.00 Y6570.00
G1 X6397.00 Y6576.00
G1 X6386.00 Y6532.00
G1 X3875.00 Y6215.00
G1 X3746.00 Y5640.00
G1 X3748.00 Y6215.00
G1 X3777.00 Y6415.00
G1 X3792.00 Y6506.00
G1 X3837.00 Y6524.00
G1 X3897.00 Y6567.00
G1 X3917.00 Y6587.00
G1 X3906.00 Y6464.00
G1 X6008.00 Y6540.00
G1 X6003.00 Y6548.00
G1 X6013.00 Y6573.00
G1 X6022.00 Y6565.00
G1 X6609.00 Y6180.00
G1 X6584.00 Y6305.00
G1 X6561.00 Y6549.00
G1 X6560.00 Y6592.00
G1 X6600.00 Y6559.00
G1 X6634.00 Y6475.00
G1 X4095.00 Y6530.00
G1 X4111.00 Y6580.00
G1 X4120.00 Y6556.00
G1 X4641.00 Y6065.00
G1 X4616.00 Y6160.00
G1 X4590.00 Y6370.00
G1 X4576.00 Y6502.00
G1 X4663.00 Y6571.00
G1 X4677.00 Y6484.00
G1 X5934.00 Y6456.00
G1 X5920.00 Y6015.00
G1 X5902.00 Y5625.00
G1 X5895.00 Y5365.00
G1 X5867.00 Y5508.00
G1 X5786.00 Y6537.00
G1 X5870.00 Y6521.00
G1 X6040.00 Y6556.00
G1 X6059.00 Y6575.00
G1 X6052.00 Y6558.00
G1 X4420.00 Y6555.00
G1 X4410.00 Y6559.00
G1 X4420.00 Y6570.00
G1 X4430.00 Y6566.00
G1 X6332.00 Y6545.00
G1 X6337.00 Y6563.00
G1 X6337.00 Y6533.00
G1 X4456.00 Y6540.00
G1 X4445.00 Y6550.00
G1 X4449.00 Y6560.00
G1 X4460.00 Y6550.00
G1 X4480.00 Y6540.00
G1 X4470.00 Y6550.00
G1 X4480.00 Y6560.00
G1 X4490.00 Y6550.00
G1 X4516.00 Y6551.00
G1 X4528.00 Y6551.00
G1 X4526.00 Y6533.00
G1 X4371.00 Y6008.00
G1 X4314.00 Y5170.00
G1 X4265.00 Y5005.00
G1 X4215.00 Y5290.00
G1 X4165.00 Y5598.00
G1 X4188.00 Y5728.00
G1 X4328.00 Y6399.00
G1 X4337.00 Y6531.00
G1 X4359.00 Y6475.00
G1 X5454.00 Y6520.00
G1 X5426.00 Y6535.00
G1 X5416.00 Y6550.00
G1 X5444.00 Y6535.00
G1 X5951.00 Y6534.00
G1 X5956.00 Y6547.00
G1 X5957.00 Y6528.00
G1 X6150.00 Y6039.00
G1 X6249.00 Y5568.00
G1 X6299.00 Y5265.00
G1 X6811.00 Y3865.00
G1 X6934.00 Y3667.00
G1 X6968.00 Y3549.00
G1 X6885.00 Y3606.00
G1 X6297.00 Y4425.00
G1 X6160.00 Y5160.00
G1 X6095.00 Y5629.00
G1 X6056.00 Y6322.00
G1 X6130.00 Y6550.00
G1 X6129.00 Y6498.00
G1 X3695.00 Y6265.00
G1 X3680.00 Y5655.00
G1 X3692.00 Y5480.00
G1 X3590.00 Y5160.00
G1 X3580.00 Y5245.00
G1 X3655.00 Y6250.00
G1 X3718.00 Y6540.00
G1 X3716.00 Y6463.00
G1 X4990.00 Y6472.00
G1 X5048.00 Y6540.00
G1 X5041.00 Y6522.00
G1 X4139.00 Y6146.00
G1 X4130.00 Y6255.00
G1 X4156.00 Y6452.00
G1 X4188.00 Y6530.00
G1 X4186.00 Y6448.00
G1 X5191.00 Y6365.00
G1 X5196.00 Y6390.00
G1 X5199.00 Y6480.00
G1 X5210.00 Y6500.00
G1 X5226.00 Y6425.00
G1 X5234.00 Y6460.00
G1 X5260.00 Y6450.00
G1 X5284.00 Y6445.00
G1 X5288.00 Y6525.00
G1 X5320.00 Y6278.00
G1 X5385.00 Y5879.00
G1 X5426.00 Y5553.00
G1 X5411.00 Y5571.00
G1 X5337.00 Y5750.00
G1 X5246.00 Y5990.00
G1 X5150.00 Y6467.00
G1 X5174.00 Y6440.00
G1 X6265.00 Y5931.00
G1 X6227.00 Y6015.00
G1 X6197.00 Y6483.00
G1 X6229.00 Y6330.00
G1 X6406.00 Y5620.00
G1 X6374.00 Y5665.00
G1 X6286.00 Y6465.00
G1 X6282.00 Y6535.00
G1 X6296.00 Y6490.00
G1 X6325.00 Y6350.00
G1 X4186.00 Y5865.00
G1 X4160.00 Y5805.00
G1 X4160.00 Y5872.00
G1 X4185.00 Y6062.00
G1 X4250.00 Y6485.00
G1 X4262.00 Y6506.00
G1 X4267.00 Y6306.00
G1 X5477.00 Y6509.00
G1 X5483.00 Y6514.00
G1 X5495.00 Y6502.00
G1 X5630.00 Y6491.00
G1 X5648.00 Y6516.00
G1 X5641.00 Y6493.00
G1 X4868.00 Y6470.00
G1 X4845.00 Y6490.00
G1 X4832.00 Y6510.00
G1 X4855.00 Y6490.00
G1 X4960.00 Y6475.00
G1 X4960.00 Y6505.00
G1 X4969.00 Y6477.00
G1 X5570.00 Y6485.00
G1 X5560.00 Y6489.00
G1 X5570.00 Y6500.00
G1 X5580.00 Y6496.00
G1 X5605.00 Y6474.00
G1 X5590.00 Y6496.00
G1 X5605.00 Y6490.00
G1 X5620.00 Y6468.00
G1 X4442.00 Y6195.00
G1 X4437.00 Y6265.00
G1 X4432.00 Y6428.00
G1 X4443.00 Y6490.00
G1 X4457.00 Y6358.00
G1 X4923.00 Y6451.00
G1 X4913.00 Y6457.00
G1 X4930.00 Y6478.00
G1 X4940.00 Y6480.00
G1 X4950.00 Y6458.00
G1 X6013.00 Y6435.00
G1 X6017.00 Y6463.00
G1 X6017.00 Y6413.00
G1 X5417.00 Y6000.00
G1 X5376.00 Y6432.00
G1 X5383.00 Y6475.00
G1 X5397.00 Y6442.00
G1 X5417.00 Y6202.00
G1 X5535.00 Y6453.00
G1 X5520.00 Y6462.00
G1 X5529.00 Y6470.00
G1 X5544.00 Y6462.00
G1 X5576.00 Y6450.00
G1 X5565.00 Y6460.00
G1 X5569.00 Y6470.00
G1 X5580.00 Y6460.00
G1 X5278.00 Y5734.00
G1 X5380.00 Y5487.00
G1 X5423.00 Y5379.00
G1 X5386.00 Y5187.00
G1 X5250.00 Y4706.00
G1 X5140.00 Y5505.00
G1 X5090.00 Y6055.00
G1 X5081.00 Y6435.00
G1 X5126.00 Y6235.00
G1 X6760.00 Y5750.00
G1 X6755.00 Y5635.00
G1 X6716.00 Y5750.00
G1 X6677.00 Y5865.00
G1 X6676.00 Y6060.00
G1 X6700.00 Y6439.00
G1 X6730.00 Y6315.00
G1 X4873.00 Y6315.00
G1 X4867.00 Y6020.00
G1 X4815.00 Y5260.00
G1 X4681.00 Y4556.00
G1 X4644.00 Y5275.00
G1 X4638.00 Y5745.00
G1 X4665.00 Y5875.00
G1 X4736.00 Y6347.00
G1 X4743.00 Y6429.00
G1 X4771.00 Y6386.00
G1 X4836.00 Y6328.00
G1 X4889.00 Y6375.00
G1 X4820.00 Y6402.00
G1 X4835.00 Y6400.00
G1 X4875.00 Y6394.00
G1 X5100.00 Y5280.00
G1 X5190.00 Y4653.00
G1 X5210.00 Y4568.00
G1 X5176.00 Y4462.00
G1 X5130.00 Y4288.00
G1 X5110.00 Y4220.00
G1 X5040.00 Y4449.00
G1 X4995.00 Y5320.00
G1 X4976.00 Y6055.00
G1 X4971.00 Y6377.00
G1 X4995.00 Y6415.00
G1 X5011.00 Y6240.00
G1 X5054.00 Y5790.00
G1 X5586.00 Y6377.00
G1 X5607.00 Y6396.00
G1 X5650.00 Y6405.00
G1 X5846.00 Y5340.00
G1 X5891.00 Y5165.00
G1 X5880.00 Y5035.00
G1 X5844.00 Y4732.00
G1 X5813.00 Y4483.00
G1 X5786.00 Y4530.00
G1 X5744.00 Y4885.00
G1 X5680.00 Y5425.00
G1 X5635.00 Y5800.00
G1 X5610.00 Y6060.00
G1 X5591.00 Y6267.00
G1 X5611.00 Y6325.00
G1 X5691.00 Y6397.00
G1 X5715.00 Y6198.00
G1 X4567.00 Y5920.00
G1 X4572.00 Y5735.00
G1 X4536.00 Y5575.00
G1 X4475.00 Y5250.00
G1 X4385.00 Y4590.00
G1 X4314.00 Y4177.00
G1 X4155.00 Y3690.00
G1 X4025.00 Y3340.00
G1 X3800.00 Y2860.00
G1 X3760.00 Y2827.00
G1 X3873.00 Y3198.00
G1 X3885.00 Y3276.00
G1 X3801.00 Y3209.00
G1 X3731.00 Y2968.00
G1 X3680.00 Y2771.00
G1 X3527.00 Y2627.00
G1 X3465.00 Y2589.00
G1 X3459.00 Y2737.00
G1 X3445.00 Y2970.00
G1 X3438.00 Y3055.00
G1 X3503.00 Y3102.00
G1 X3889.00 Y3464.00
G1 X4184.00 Y4033.00
G1 X4290.00 Y4664.00
G1 X4304.00 Y4806.00
G1 X4415.00 Y5625.00
G1 X4469.00 Y6055.00
G1 X4517.00 Y6284.00
G1 X4550.00 Y6210.00
G1 X6085.00 Y5275.00
G1 X6171.00 Y4665.00
G1 X6370.00 Y3900.00
G1 X6548.00 Y3364.00
G1 X6451.00 Y3495.00
G1 X6151.00 Y4114.00
G1 X6001.00 Y4866.00
G1 X5966.00 Y5074.00
G1 X5960.00 Y5482.00
G1 X5970.00 Y5895.00
G1 X5978.00 Y5955.00
G1 X6023.00 Y5715.00
G1 X4986.00 Y4411.00
G1 X5046.00 Y4198.00
G1 X5081.00 Y4099.00
G1 X5061.00 Y3967.00
G1 X5020.00 Y3397.00
G1 X4970.00 Y3077.00
G1 X4806.00 Y3585.00
G1 X4720.00 Y4163.00
G1 X4699.00 Y4341.00
G1 X4734.00 Y4483.00
G1 X4917.00 Y5717.00
G1 X4937.00 Y5255.00
G1 X6269.00 Y5700.00
G1 X6270.00 Y5750.00
G1 X6289.00 Y5660.00
G1 X6793.00 Y5051.00
G1 X6732.00 Y5126.00
G1 X6679.00 Y5200.00
G1 X6674.00 Y5443.00
G1 X6669.00 Y5685.00
G1 X6709.00 Y5535.00
G1 X6774.00 Y5295.00
G1 X6409.00 Y5418.00
G1 X6409.00 Y5325.00
G1 X6388.00 Y5375.00
G1 X6364.00 Y5590.00
G1 X6390.00 Y5550.00
G1 X4626.00 Y4465.00
G1 X4642.00 Y4335.00
G1 X4590.00 Y4135.00
G1 X4503.00 Y3815.00
G1 X4456.00 Y3650.00
G1 X4438.00 Y3615.00
G1 X4420.00 Y3800.00
G1 X4537.00 Y5245.00
G1 X4575.00 Y5485.00
G1 X4581.00 Y5140.00
G1 X4599.00 Y4695.00
G1 X3892.00 Y4808.00
G1 X3830.00 Y4640.00
G1 X3828.00 Y4788.00
G1 X3822.00 Y5009.00
G1 X3811.00 Y5083.00
G1 X3899.00 Y5214.00
G1 X4014.00 Y5403.00
G1 X4046.00 Y5458.00
G1 X4029.00 Y5340.00
G1 X4159.00 Y5263.00
G1 X4225.00 Y4849.00
G1 X4195.00 Y4695.00
G1 X3786.00 Y4075.00
G1 X3643.00 Y3947.00
G1 X3689.00 Y4097.00
G1 X3756.00 Y4300.00
G1 X3835.00 Y4505.00
G1 X4086.00 Y5311.00
G1 X4123.00 Y5453.00
G1 X4130.00 Y5430.00
G1 X6634.00 Y5021.00
G1 X6655.00 Y4759.00
G1 X6666.00 Y4633.00
G1 X6538.00 Y4950.00
G1 X6473.00 Y5215.00
G1 X6467.00 Y5347.00
G1 X6470.00 Y5395.00
G1 X6522.00 Y5323.00
G1 X3751.00 Y5162.00
G1 X3762.00 Y5109.00
G1 X3668.00 Y4993.00
G1 X3575.00 Y4877.00
G1 X3572.00 Y4923.00
G1 X3610.00 Y5067.00
G1 X3683.00 Y5247.00
G1 X3722.00 Y5324.00
G1 X3735.00 Y5267.00
G1 X6643.00 Y4539.00
G1 X6705.00 Y4400.00
G1 X6794.00 Y4070.00
G1 X6836.00 Y3933.00
G1 X6703.00 Y4090.00
G1 X6370.00 Y5120.00
G1 X6361.00 Y5255.00
G1 X6486.00 Y4906.00
G1 X5405.00 Y4209.00
G1 X5380.00 Y4057.00
G1 X5350.00 Y4164.00
G1 X5315.00 Y4357.00
G1 X5284.00 Y4497.00
G1 X5269.00 Y4569.00
G1 X5325.00 Y4724.00
G1 X5446.00 Y5155.00
G1 X5467.00 Y5085.00
G1 X5476.00 Y4785.00
G1 X6860.00 Y4994.00
G1 X6855.00 Y5051.00
G1 X6890.00 Y5001.00
G1 X6930.00 Y4906.00
G1 X6785.00 Y4965.00
G1 X6818.00 Y4824.00
G1 X7007.00 Y4181.00
G1 X7037.00 Y4103.00
G1 X6856.00 Y4314.00
G1 X6720.00 Y4712.00
G1 X6704.00 Y5070.00
G1 X6735.00 Y5028.00
G1 X3586.00 Y4000.00
G1 X3483.00 Y3826.00
G1 X2837.00 Y3296.00
G1 X2762.00 Y3219.00
G1 X2830.00 Y3420.00
G1 X3059.00 Y3723.00
G1 X3384.00 Y4145.00
G1 X3545.00 Y4690.00
G1 X3603.00 Y4826.00
G1 X3695.00 Y4928.00
G1 X3755.00 Y4999.00
G1 X3763.00 Y4947.00
G1 X3764.00 Y4780.00
G1 X5986.00 Y4564.00
G1 X6046.00 Y4150.00
G1 X6077.00 Y3925.00
G1 X6092.00 Y3813.00
G1 X6159.00 Y3760.00
G1 X6165.00 Y3833.00
G1 X6124.00 Y4007.00
G1 X6140.00 Y3973.00
G1 X6311.00 Y3599.00
G1 X6486.00 Y3098.00
G1 X6517.00 Y2798.00
G1 X6517.00 Y2620.00
G1 X6297.00 Y2970.00
G1 X5895.00 Y4030.00
G1 X5895.00 Y4653.00
G1 X5920.00 Y4856.00
G1 X5930.00 Y4885.00
G1 X5940.00 Y4856.00
G1 X7403.00 Y4387.00
G1 X7845.00 Y3809.00
G1 X7954.00 Y3518.00
G1 X7960.00 Y3490.00
G1 X7911.00 Y3528.00
G1 X7560.00 Y3728.00
G1 X7481.00 Y3786.00
G1 X7380.00 Y4015.00
G1 X7142.00 Y4532.00
G1 X6985.00 Y4872.00
G1 X6979.00 Y4895.00
G1 X6997.00 Y4872.00
G1 X7120.00 Y4716.00
G1 X7385.00 Y3852.00
G1 X7303.00 Y3886.00
G1 X7125.00 Y4033.00
G1 X7050.00 Y4225.00
G1 X6880.00 Y4820.00
G1 X6880.00 Y4865.00
G1 X6915.00 Y4825.00
G1 X7049.00 Y4585.00
G1 X3500.00 Y4815.00
G1 X3490.00 Y4824.00
G1 X3500.00 Y4840.00
G1 X3510.00 Y4831.00
G1 X3292.00 Y4105.00
G1 X3035.00 Y3790.00
G1 X2876.00 Y3609.00
G1 X2660.00 Y3060.00
G1 X2595.00 Y2930.00
G1 X2564.00 Y3062.00
G1 X2871.00 Y3918.00
G1 X3439.00 Y4667.00
G1 X3487.00 Y4706.00
G1 X3475.00 Y4624.00
G1 X3937.00 Y3635.00
G1 X3704.00 Y3360.00
G1 X3446.00 Y3140.00
G1 X3545.00 Y3711.00
G1 X3662.00 Y3880.00
G1 X4180.00 Y4512.00
G1 X4228.00 Y4605.00
G1 X4220.00 Y4503.00
G1 X5336.00 Y3780.00
G1 X5329.00 Y3740.00
G1 X5232.00 Y3940.00
G1 X5148.00 Y4115.00
G1 X5170.00 Y4207.00
G1 X5212.00 Y4367.00
G1 X5242.00 Y4410.00
G1 X5275.00 Y4245.00
G1 X7140.00 Y3863.00
G1 X7385.00 Y3405.00
G1 X7037.00 Y3724.00
G1 X6846.00 Y4105.00
G1 X6835.00 Y4236.00
G1 X6995.00 Y4054.00
G1 X2596.00 Y3445.00
G1 X2474.00 Y2865.00
G1 X2368.00 Y2770.00
G1 X2141.00 Y2607.00
G1 X2114.00 Y2583.00
G1 X2196.00 Y2943.00
G1 X2740.00 Y3930.00
G1 X2957.00 Y4156.00
G1 X2901.00 Y4069.00
G1 X6923.00 Y3491.00
G1 X7014.00 Y3396.00
G1 X7029.00 Y3307.00
G1 X7370.00 Y2792.00
G1 X7477.00 Y2713.00
G1 X7502.00 Y2487.00
G1 X7489.00 Y2437.00
G1 X7465.00 Y2424.00
G1 X7464.00 Y2344.00
G1 X7513.00 Y2342.00
G1 X7567.00 Y2597.00
G1 X7562.00 Y2665.00
G1 X7626.00 Y2595.00
G1 X7877.00 Y1982.00
G1 X7882.00 Y1840.00
G1 X7854.00 Y1850.00
G1 X7546.00 Y2014.00
G1 X7335.00 Y2180.00
G1 X7250.00 Y2477.00
G1 X6920.00 Y2930.00
G1 X6689.00 Y3197.00
G1 X6634.00 Y3297.00
G1 X6489.00 Y3736.00
G1 X6369.00 Y4114.00
G1 X6433.00 Y4018.00
G1 X5351.00 Y3398.00
G1 X5345.00 Y3203.00
G1 X5253.00 Y2964.00
G1 X5216.00 Y2889.00
G1 X5193.00 Y2934.00
G1 X5093.00 Y3585.00
G1 X5136.00 Y3978.00
G1 X5213.00 Y3840.00
G1 X2168.00 Y3470.00
G1 X2081.00 Y3333.00
G1 X2020.00 Y3268.00
G1 X2040.00 Y3443.00
G1 X2060.00 Y3612.00
G1 X2107.00 Y3667.00
G1 X2407.00 Y3960.00
G1 X2404.00 Y3938.00
G1 X8323.00 Y3585.00
G1 X8440.00 Y3231.00
G1 X8440.00 Y3203.00
G1 X8396.00 Y3244.00
G1 X8140.00 Y3720.00
G1 X8093.00 Y3883.00
G1 X8151.00 Y3843.00
G1 X7502.00 Y3619.00
G1 X7720.00 Y3082.00
G1 X7433.00 Y3440.00
G1 X7215.00 Y3849.00
G1 X7288.00 Y3819.00
G1 X7412.00 Y3739.00
G1 X3384.00 Y3255.00
G1 X3287.00 Y3013.00
G1 X2919.00 Y2659.00
G1 X2795.00 Y2316.00
G1 X2683.00 Y2002.00
G1 X2370.00 Y1794.00
G1 X2305.00 Y1770.00
G1 X2355.00 Y1812.00
G1 X2599.00 Y2073.00
G1 X2697.00 Y2306.00
G1 X2715.00 Y2680.00
G1 X2715.00 Y2995.00
G1 X2749.00 Y3055.00
G1 X3174.00 Y3541.00
G1 X3484.00 Y3750.00
G1 X3486.00 Y3734.00
G1 X8439.00 Y3465.00
G1 X8417.00 Y3525.00
G1 X8361.00 Y3645.00
G1 X8327.00 Y3705.00
G1 X8384.00 Y3650.00
G1 X8440.00 Y3596.00
G1 X8439.00 Y3530.00
G1 X7989.00 Y3379.00
G1 X8014.00 Y3266.00
G1 X8194.00 Y2895.00
G1 X8235.00 Y2802.00
G1 X7895.00 Y2946.00
G1 X7790.00 Y3070.00
G1 X7624.00 Y3497.00
G1 X7560.00 Y3645.00
G1 X7628.00 Y3621.00
G1 X1960.00 Y3291.00
G1 X1949.00 Y3147.00
G1 X1912.00 Y3114.00
G1 X1744.00 Y3032.00
G1 X1700.00 Y3043.00
G1 X1829.00 Y3320.00
G1 X1981.00 Y3530.00
G1 X1979.00 Y3483.00
G1 X8640.00 Y3349.00
G1 X8723.00 Y3088.00
G1 X8706.00 Y3050.00
G1 X8514.00 Y3142.00
G1 X8510.00 Y3530.00
G1 X8563.00 Y3466.00
G1 X7402.00 Y2932.00
G1 X7447.00 Y2824.00
G1 X7259.00 Y2959.00
G1 X7095.00 Y3293.00
G1 X7176.00 Y3252.00
G1 X8261.00 Y3115.00
G1 X8347.00 Y2921.00
G1 X8320.00 Y2832.00
G1 X8165.00 Y3044.00
G1 X8069.00 Y3310.00
G1 X8159.00 Y3227.00
G1 X5172.00 Y2819.00
G1 X5149.00 Y2739.00
G1 X5124.00 Y2663.00
G1 X5010.00 Y2977.00
G1 X5047.00 Y3120.00
G1 X5073.00 Y3080.00
G1 X5133.00 Y2922.00
G1 X6954.00 Y2794.00
G1 X7198.00 Y2435.00
G1 X7268.00 Y2195.00
G1 X6992.00 Y2394.00
G1 X6719.00 Y2925.00
G1 X6685.00 Y3088.00
G1 X6690.00 Y3110.00
G1 X6700.00 Y3103.00
G1 X3393.00 Y2605.00
G1 X3346.00 Y2540.00
G1 X3168.00 Y2466.00
G1 X2887.00 Y2296.00
G1 X2859.00 Y2265.00
G1 X2865.00 Y2318.00
G1 X3026.00 Y2704.00
G1 X3371.00 Y2978.00
G1 X3389.00 Y2874.00
G1 X8221.00 Y2742.00
G1 X8307.00 Y2738.00
G1 X8338.00 Y2686.00
G1 X8458.00 Y2328.00
G1 X8368.00 Y2323.00
G1 X8217.00 Y2363.00
G1 X7978.00 Y2605.00
G1 X7865.00 Y2870.00
G1 X7857.00 Y2894.00
G1 X7886.00 Y2875.00
G1 X7969.00 Y2823.00
G1 X2434.00 Y2637.00
G1 X2141.00 Y2333.00
G1 X2080.00 Y2327.00
G1 X2080.00 Y2358.00
G1 X2181.00 Y2559.00
G1 X2390.00 Y2713.00
G1 X2450.00 Y2719.00
G1 X5132.00 Y1571.00
G1 X5086.00 Y1497.00
G1 X5077.00 Y1531.00
G1 X5114.00 Y2030.00
G1 X5156.00 Y2380.00
G1 X5183.00 Y2633.00
G1 X5207.00 Y2730.00
G1 X5226.00 Y2693.00
G0 X5450.00 Y9470.00
G1 X5475.00 Y9470.00
G1 X5452.00 Y9480.00
G1 X5450.00 Y9470.00
G0 X5648.00 Y9471.00
G1 X5571.00 Y9446.00
G1 X5760.00 Y9437.00
G1 X6099.00 Y9391.00
G1 X6274.00 Y9341.00
G1 X6427.00 Y9290.00
G1 X6440.00 Y9304.00
G1 X6204.00 Y9404.00
G1 X5648.00 Y9471.00
G0 X5650.00 Y9421.00
G1 X5605.00 Y9415.00
G1 X5670.00 Y9389.00
G1 X5795.00 Y9340.00
G1 X5933.00 Y9282.00
G1 X6016.00 Y9253.00
G1 X5928.00 Y9330.00
G1 X5885.00 Y9364.00
G1 X6140.00 Y9297.00
G1 X6606.00 Y9106.00
G1 X6657.00 Y9113.00
G1 X6207.00 Y9319.00
G1 X5650.00 Y9421.00
G0 X4958.00 Y9379.00
G1 X4977.00 Y9362.00
G1 X4966.00 Y9410.00
G1 X4958.00 Y9379.00
G0 X5572.00 Y9399.00
G1 X5685.00 Y9330.00
G1 X5835.00 Y9252.00
G1 X5898.00 Y9243.00
G1 X5581.00 Y9407.00
G1 X5572.00 Y9399.00
G0 X5487.00 Y9393.00
G1 X5495.00 Y9373.00
G1 X5510.00 Y9387.00
G1 X5487.00 Y9393.00
G0 X4753.00 Y9351.00
G1 X4580.00 Y9259.00
G1 X4698.00 Y9289.00
G1 X4822.00 Y9345.00
G1 X4879.00 Y9390.00
G1 X4753.00 Y9351.00
G0 X4280.00 Y9340.00
G1 X3942.00 Y9211.00
G1 X3870.00 Y9155.00
G1 X3948.00 Y9169.00
G1 X4243.00 Y9290.00
G1 X4310.00 Y9330.00
G1 X4308.00 Y9349.00
G1 X4280.00 Y9340.00
G0 X4890.00 Y9341.00
G1 X4790.00 Y9291.00
G1 X4629.00 Y9193.00
G1 X4510.00 Y9075.00
G1 X4569.00 Y9101.00
G1 X4851.00 Y9291.00
G1 X4918.00 Y9338.00
G1 X4890.00 Y9341.00
G0 X5599.00 Y9203.00
G1 X6127.00 Y8560.00
G1 X6440.00 Y8052.00
G1 X6525.00 Y7961.00
G1 X6234.00 Y8472.00
G1 X5723.00 Y9132.00
G1 X5452.00 Y9350.00
G1 X5599.00 Y9203.00
G0 X5550.00 Y9337.00
G1 X5566.00 Y9316.00
G1 X5863.00 Y9122.00
G1 X5942.00 Y9078.00
G1 X5660.00 Y9300.00
G1 X5550.00 Y9337.00
G0 X4971.00 Y9319.00
G1 X4793.00 Y9178.00
G1 X4302.00 Y8513.00
G1 X4399.00 Y8625.00
G1 X4696.00 Y9020.00
G1 X4959.00 Y9280.00
G1 X4984.00 Y9305.00
G1 X4998.00 Y9329.00
G1 X4971.00 Y9319.00
G0 X5050.00 Y9319.00
G1 X4987.00 Y9247.00
G1 X4396.00 Y8329.00
G1 X4320.00 Y8113.00
G1 X4384.00 Y8215.00
G1 X4823.00 Y8979.00
G1 X5020.00 Y9240.00
G1 X5070.00 Y9321.00
G1 X5060.00 Y9330.00
G1 X5050.00 Y9319.00
G0 X5400.00 Y9316.00
G1 X5448.00 Y9242.00
G1 X5691.00 Y8915.00
G1 X6014.00 Y8378.00
G1 X6086.00 Y8277.00
G1 X6100.00 Y8290.00
G1 X5917.00 Y8635.00
G1 X5608.00 Y9103.00
G1 X5400.00 Y9316.00
G0 X5067.00 Y9238.00
G1 X4822.00 Y8750.00
G1 X4783.00 Y8595.00
G1 X4859.00 Y8730.00
G1 X5021.00 Y9075.00
G1 X5128.00 Y9293.00
G1 X5121.00 Y9300.00
G1 X5067.00 Y9238.00
G0 X5340.00 Y9282.00
G1 X5349.00 Y9265.00
G1 X5621.00 Y8695.00
G1 X5730.00 Y8482.00
G1 X5711.00 Y8593.00
G1 X5616.00 Y8818.00
G1 X5353.00 Y9290.00
G1 X5340.00 Y9282.00
G0 X4285.00 Y9272.00
G1 X4225.00 Y9245.00
G1 X3806.00 Y9007.00
G1 X3662.00 Y8892.00
G1 X3674.00 Y8874.00
G1 X3747.00 Y8918.00
G1 X4253.00 Y9219.00
G1 X4320.00 Y9264.00
G1 X4285.00 Y9272.00
G0 X6080.00 Y9255.00
G1 X6098.00 Y9233.00
G1 X6540.00 Y9031.00
G1 X6600.00 Y9018.00
G1 X6176.00 Y9246.00
G1 X6080.00 Y9255.00
G0 X4350.00 Y9227.00
G1 X3870.00 Y8864.00
G1 X3956.00 Y8909.00
G1 X4370.00 Y9195.00
G1 X4423.00 Y9251.00
G1 X4350.00 Y9227.00
G0 X5142.00 Y9237.00
G1 X4879.00 Y8242.00
G1 X4880.00 Y8100.00
G1 X4906.00 Y8138.00
G1 X5116.00 Y9040.00
G1 X5170.00 Y9237.00
G1 X5142.00 Y9237.00
G0 X4477.00 Y9199.00
G1 X4442.00 Y9140.00
G1 X4550.00 Y9226.00
G1 X4477.00 Y9199.00
G0 X5305.00 Y9231.00
G1 X5364.00 Y8987.00
G1 X5535.00 Y8305.00
G1 X5596.00 Y8100.00
G1 X5610.00 Y8129.00
G1 X5404.00 Y8995.00
G1 X5305.00 Y9231.00
G0 X5937.00 Y9207.00
G1 X5988.00 Y9152.00
G1 X6048.00 Y9131.00
G1 X5937.00 Y9207.00
G0 X6079.00 Y9187.00
G1 X6142.00 Y9145.00
G1 X6458.00 Y8933.00
G1 X6521.00 Y8890.00
G1 X6503.00 Y8945.00
G1 X6174.00 Y9164.00
G1 X6079.00 Y9187.00
G0 X3755.00 Y9112.00
G1 X3377.00 Y8811.00
G1 X3279.00 Y8719.00
G1 X3271.00 Y8701.00
G1 X3410.00 Y8806.00
G1 X3750.00 Y9068.00
G1 X3818.00 Y9124.00
G1 X3755.00 Y9112.00
G0 X4320.00 Y9082.00
G1 X4202.00 Y8969.00
G1 X4120.00 Y8882.00
G1 X4250.00 Y8970.00
G1 X4366.00 Y9070.00
G1 X4378.00 Y9092.00
G1 X4320.00 Y9082.00
G0 X6072.00 Y9088.00
G1 X6093.00 Y9062.00
G1 X6108.00 Y9082.00
G1 X6087.00 Y9108.00
G1 X6072.00 Y9088.00
G0 X6700.00 Y9081.00
G1 X6896.00 Y8945.00
G1 X6896.00 Y8969.00
G1 X6710.00 Y9100.00
G1 X6700.00 Y9081.00
G0 X5970.00 Y9052.00
G1 X6010.00 Y9005.00
G1 X6062.00 Y8979.00
G1 X6038.00 Y9026.00
G1 X5970.00 Y9052.00
G0 X4429.00 Y9042.00
G1 X4408.00 Y8988.00
G1 X4452.00 Y9036.00
G1 X4429.00 Y9042.00
G0 X6140.00 Y9035.00
G1 X6148.00 Y9020.00
G1 X6435.00 Y8765.00
G1 X6628.00 Y8557.00
G1 X6676.00 Y8524.00
G1 X6673.00 Y8561.00
G1 X6247.00 Y8988.00
G1 X6140.00 Y9035.00
G0 X5168.00 Y8980.00
G1 X5189.00 Y8949.00
G1 X5184.00 Y9007.00
G1 X5168.00 Y8980.00
G0 X5270.00 Y8974.00
G1 X5286.00 Y8942.00
G1 X5301.00 Y8953.00
G1 X5300.00 Y8985.00
G1 X5285.00 Y9010.00
G1 X5270.00 Y8974.00
G0 X6637.00 Y8983.00
G1 X6643.00 Y8960.00
G1 X6739.00 Y8895.00
G1 X6834.00 Y8841.00
G1 X6711.00 Y8960.00
G1 X6637.00 Y8983.00
G0 X4295.00 Y8894.00
G1 X4080.00 Y8628.00
G1 X4155.00 Y8673.00
G1 X4293.00 Y8833.00
G1 X4376.00 Y8946.00
G1 X4295.00 Y8894.00
G0 X6101.00 Y8942.00
G1 X6166.00 Y8843.00
G1 X6343.00 Y8642.00
G1 X6458.00 Y8534.00
G1 X6384.00 Y8656.00
G1 X6216.00 Y8850.00
G1 X6124.00 Y8949.00
G1 X6101.00 Y8942.00
G0 X6940.00 Y8921.00
G1 X7023.00 Y8832.00
G1 X7134.00 Y8731.00
G1 X7178.00 Y8722.00
G1 X6948.00 Y8940.00
G1 X6940.00 Y8921.00
G0 X5154.00 Y8876.00
G1 X5152.00 Y8814.00
G1 X5170.00 Y8765.00
G1 X5188.00 Y8828.00
G1 X5175.00 Y8890.00
G1 X5154.00 Y8876.00
G0 X5280.00 Y8851.00
G1 X5306.00 Y8750.00
G1 X5314.00 Y8859.00
G1 X5280.00 Y8851.00
G0 X6576.00 Y8863.00
G1 X6628.00 Y8799.00
G1 X6788.00 Y8653.00
G1 X6910.00 Y8571.00
G1 X6685.00 Y8800.00
G1 X6576.00 Y8863.00
G0 X3557.00 Y8802.00
G1 X3513.00 Y8720.00
G1 X3630.00 Y8843.00
G1 X3557.00 Y8802.00
G0 X3961.00 Y8734.00
G1 X3873.00 Y8600.00
G1 X3993.00 Y8715.00
G1 X4080.00 Y8850.00
G1 X3961.00 Y8734.00
G0 X3719.00 Y8737.00
G1 X3592.00 Y8563.00
G1 X3654.00 Y8607.00
G1 X3772.00 Y8737.00
G1 X3836.00 Y8825.00
G1 X3822.00 Y8840.00
G1 X3719.00 Y8737.00
G0 X6865.00 Y8800.00
G1 X6928.00 Y8730.00
G1 X6906.00 Y8779.00
G1 X6865.00 Y8800.00
G0 X5132.00 Y8603.00
G1 X5129.00 Y8330.00
G1 X5150.00 Y8343.00
G1 X5165.00 Y8500.00
G1 X5161.00 Y8720.00
G1 X5132.00 Y8603.00
G0 X3350.00 Y8662.00
G1 X3181.00 Y8497.00
G1 X3072.00 Y8363.00
G1 X3122.00 Y8386.00
G1 X3388.00 Y8646.00
G1 X3415.00 Y8693.00
G1 X3350.00 Y8662.00
G0 X5293.00 Y8695.00
G1 X5316.00 Y8383.00
G1 X5342.00 Y8340.00
G1 X5357.00 Y8388.00
G1 X5339.00 Y8573.00
G1 X5313.00 Y8710.00
G1 X5293.00 Y8695.00
G0 X7064.00 Y8697.00
G1 X7122.00 Y8624.00
G1 X7245.00 Y8500.00
G1 X7410.00 Y8364.00
G1 X7225.00 Y8569.00
G1 X7064.00 Y8697.00
G0 X7194.00 Y8697.00
G1 X7240.00 Y8635.00
G1 X7263.00 Y8610.00
G1 X7289.00 Y8590.00
G1 X7310.00 Y8594.00
G1 X7256.00 Y8657.00
G1 X7194.00 Y8697.00
G0 X3236.00 Y8673.00
G1 X3234.00 Y8652.00
G1 X3270.00 Y8669.00
G1 X3236.00 Y8673.00
G0 X3346.00 Y8516.00
G1 X3213.00 Y8330.00
G1 X3303.00 Y8418.00
G1 X3454.00 Y8580.00
G1 X3530.00 Y8662.00
G1 X3511.00 Y8670.00
G1 X3346.00 Y8516.00
G0 X4020.00 Y8554.00
G1 X4058.00 Y8558.00
G1 X4041.00 Y8580.00
G1 X4020.00 Y8554.00
G0 X3800.00 Y8562.00
G1 X3742.00 Y8484.00
G1 X3430.00 Y8038.00
G1 X3405.00 Y7950.00
G1 X3424.00 Y7941.00
G1 X3479.00 Y8037.00
G1 X3782.00 Y8473.00
G1 X3843.00 Y8564.00
G1 X3800.00 Y8562.00
G0 X4742.00 Y8538.00
G1 X4740.00 Y8475.00
G1 X4780.00 Y8540.00
G1 X4742.00 Y8538.00
G0 X3063.00 Y8517.00
G1 X3053.00 Y8475.00
G1 X3092.00 Y8539.00
G1 X3063.00 Y8517.00
G0 X3488.00 Y8487.00
G1 X3260.00 Y8166.00
G1 X3334.00 Y8219.00
G1 X3464.00 Y8394.00
G1 X3550.00 Y8514.00
G1 X3488.00 Y8487.00
G0 X3110.00 Y8519.00
G1 X3120.00 Y8515.00
G1 X3130.00 Y8526.00
G1 X3120.00 Y8530.00
G1 X3110.00 Y8519.00
G0 X6934.00 Y8515.00
G1 X6987.00 Y8427.00
G1 X7239.00 Y8056.00
G1 X7306.00 Y7993.00
G1 X6983.00 Y8494.00
G1 X6934.00 Y8515.00
G0 X3958.00 Y8478.00
G1 X3941.00 Y8398.00
G1 X3994.00 Y8500.00
G1 X3958.00 Y8478.00
G0 X6475.00 Y8500.00
G1 X6550.00 Y8390.00
G1 X6533.00 Y8460.00
G1 X6475.00 Y8500.00
G0 X6697.00 Y8497.00
G1 X6761.00 Y8395.00
G1 X7023.00 Y8003.00
G1 X7079.00 Y7949.00
G1 X6988.00 Y8145.00
G1 X6706.00 Y8510.00
G1 X6697.00 Y8497.00
G0 X4244.00 Y8473.00
G1 X4179.00 Y8370.00
G1 X3953.00 Y7936.00
G1 X4014.00 Y7993.00
G1 X4231.00 Y8375.00
G1 X4290.00 Y8483.00
G1 X4244.00 Y8473.00
G0 X6335.00 Y8460.00
G1 X6351.00 Y8430.00
G1 X6351.00 Y8465.00
G1 X6335.00 Y8460.00
G0 X4120.00 Y8445.00
G1 X4135.00 Y8430.00
G1 X4150.00 Y8445.00
G1 X4135.00 Y8460.00
G1 X4120.00 Y8445.00
G0 X4667.00 Y8369.00
G1 X4648.00 Y8240.00
G1 X4719.00 Y8431.00
G1 X4667.00 Y8369.00
G0 X5735.00 Y8428.00
G1 X5886.00 Y8080.00
G1 X5875.00 Y8169.00
G1 X5808.00 Y8329.00
G1 X5735.00 Y8428.00
G0 X4067.00 Y8373.00
G1 X4070.00 Y8330.00
G1 X4080.00 Y8339.00
G1 X4086.00 Y8364.00
G1 X4067.00 Y8373.00
G0 X6387.00 Y8373.00
G1 X6401.00 Y8352.00
G1 X6420.00 Y8365.00
G1 X6387.00 Y8373.00
G0 X3867.00 Y8342.00
G1 X3863.00 Y8290.00
G1 X3900.00 Y8337.00
G1 X3867.00 Y8342.00
G0 X6585.00 Y8348.00
G1 X6625.00 Y8265.00
G1 X6676.00 Y8178.00
G1 X6720.00 Y8173.00
G1 X6607.00 Y8349.00
G1 X6585.00 Y8348.00
G0 X5335.00 Y8288.00
G1 X5350.00 Y8215.00
G1 X5363.00 Y8249.00
G1 X5335.00 Y8288.00
G0 X5104.00 Y8256.00
G1 X5125.00 Y8207.00
G1 X5125.00 Y8290.00
G1 X5104.00 Y8256.00
G0 X4002.00 Y8258.00
G1 X4008.00 Y8222.00
G1 X4028.00 Y8248.00
G1 X4002.00 Y8258.00
G0 X6456.00 Y8261.00
G1 X6500.00 Y8222.00
G1 X6495.00 Y8248.00
G1 X6456.00 Y8261.00
G0 X3785.00 Y8217.00
G1 X3773.00 Y8160.00
G1 X3830.00 Y8220.00
G1 X3785.00 Y8217.00
G0 X4475.00 Y8239.00
G1 X4473.00 Y8223.00
G1 X4500.00 Y8241.00
G1 X4475.00 Y8239.00
G0 X5980.00 Y8235.00
G1 X5990.00 Y8220.00
G1 X6000.00 Y8235.00
G1 X5990.00 Y8250.00
G1 X5980.00 Y8235.00
G0 X6097.00 Y8228.00
G1 X6125.00 Y8150.00
G1 X6297.00 Y7670.00
G1 X6371.00 Y7527.00
G1 X6356.00 Y7624.00
G1 X6305.00 Y7795.00
G1 X6114.00 Y8237.00
G1 X6097.00 Y8228.00
G0 X4602.00 Y8188.00
G1 X4560.00 Y8094.00
G1 X4579.00 Y8090.00
G1 X4630.00 Y8185.00
G1 X4602.00 Y8188.00
G0 X5342.00 Y8128.00
G1 X5378.00 Y8117.00
G1 X5360.00 Y8160.00
G1 X5342.00 Y8128.00
G0 X3196.00 Y8143.00
G1 X3201.00 Y8137.00
G1 X3208.00 Y8155.00
G1 X3196.00 Y8143.00
G0 X5100.00 Y8119.00
G1 X5128.00 Y8123.00
G1 X5116.00 Y8160.00
G1 X5100.00 Y8119.00
G0 X3930.00 Y8124.00
G1 X3945.00 Y8110.00
G1 X3960.00 Y8136.00
G1 X3945.00 Y8150.00
G1 X3930.00 Y8124.00
G0 X6530.00 Y8135.00
G1 X6567.00 Y8114.00
G1 X6539.00 Y8150.00
G1 X6530.00 Y8135.00
G0 X2960.00 Y8131.00
G1 X2977.00 Y8109.00
G1 X2981.00 Y8118.00
G1 X2960.00 Y8131.00
G0 X4447.00 Y8103.00
G1 X4455.00 Y8070.00
G1 X4470.00 Y8090.00
G1 X4447.00 Y8103.00
G0 X5996.00 Y8101.00
G1 X6009.00 Y8076.00
G1 X6024.00 Y8094.00
G1 X5996.00 Y8101.00
G0 X3150.00 Y8085.00
G1 X3160.00 Y8070.00
G1 X3170.00 Y8085.00
G1 X3160.00 Y8100.00
G1 X3150.00 Y8085.00
G0 X3195.00 Y8047.00
G1 X3173.00 Y7976.00
G1 X3189.00 Y7964.00
G1 X3253.00 Y8094.00
G1 X3195.00 Y8047.00
G0 X7310.00 Y8096.00
G1 X7328.00 Y8079.00
G1 X7331.00 Y8083.00
G1 X7310.00 Y8096.00
G0 X4245.00 Y7993.00
G1 X4105.00 Y7530.00
G1 X4125.00 Y7520.00
G1 X4175.00 Y7660.00
G1 X4295.00 Y8002.00
G1 X4308.00 Y8067.00
G1 X4290.00 Y8080.00
G1 X4245.00 Y7993.00
G0 X2930.00 Y8056.00
G1 X2945.00 Y8036.00
G1 X2954.00 Y8054.00
G1 X2930.00 Y8056.00
G0 X4521.00 Y8010.00
G1 X4504.00 Y7944.00
G1 X4551.00 Y7980.00
G1 X4556.00 Y8046.00
G1 X4521.00 Y8010.00
G0 X4855.00 Y8047.00
G1 X4741.00 Y7388.00
G1 X4748.00 Y7230.00
G1 X4784.00 Y7388.00
G1 X4886.00 Y8016.00
G1 X4876.00 Y8053.00
G1 X4855.00 Y8047.00
G0 X5587.00 Y8053.00
G1 X5595.00 Y7970.00
G1 X5635.00 Y7740.00
G1 X5666.00 Y7573.00
G1 X5700.00 Y7582.00
G1 X5627.00 Y8005.00
G1 X5587.00 Y8053.00
G0 X3872.00 Y8038.00
G1 X3878.00 Y8002.00
G1 X3898.00 Y8028.00
G1 X3872.00 Y8038.00
G0 X5894.00 Y8036.00
G1 X5943.00 Y7931.00
G1 X5946.00 Y7995.00
G1 X5894.00 Y8036.00
G0 X5357.00 Y8033.00
G1 X5358.00 Y7845.00
G1 X5383.00 Y7792.00
G1 X5394.00 Y7907.00
G1 X5383.00 Y8033.00
G1 X5357.00 Y8033.00
G0 X6592.00 Y8024.00
G1 X6614.00 Y8002.00
G1 X6628.00 Y8016.00
G1 X6606.00 Y8038.00
G1 X6592.00 Y8024.00
G0 X3096.00 Y7980.00
G1 X3078.00 Y7945.00
G1 X3100.00 Y7966.00
G1 X3118.00 Y8001.00
G1 X3096.00 Y7980.00
G0 X7380.00 Y7981.00
G1 X7393.00 Y7961.00
G1 X7456.00 Y7818.00
G1 X7472.00 Y7761.00
G1 X7496.00 Y7778.00
G1 X7519.00 Y7815.00
G1 X7510.00 Y7813.00
G1 X7469.00 Y7805.00
G1 X7458.00 Y7846.00
G1 X7450.00 Y7868.00
G1 X7388.00 Y7990.00
G1 X7380.00 Y7981.00
G0 X3005.00 Y7949.00
G1 X3003.00 Y7934.00
G1 X3013.00 Y7945.00
G1 X3005.00 Y7949.00
G0 X4387.00 Y7940.00
G1 X4410.00 Y7915.00
G1 X4406.00 Y7960.00
G1 X4387.00 Y7940.00
G0 X6052.00 Y7943.00
G1 X6090.00 Y7933.00
G1 X6074.00 Y7954.00
G1 X6052.00 Y7943.00
G0 X6645.00 Y7950.00
G1 X6670.00 Y7910.00
G1 X6659.00 Y7955.00
G1 X6645.00 Y7950.00
G0 X3816.00 Y7934.00
G1 X3830.00 Y7910.00
G1 X3850.00 Y7930.00
G1 X3816.00 Y7934.00
G0 X5860.00 Y7935.00
G1 X5890.00 Y7896.00
G1 X5881.00 Y7931.00
G1 X5860.00 Y7935.00
G0 X3055.00 Y7920.00
G1 X3042.00 Y7895.00
G1 X3064.00 Y7915.00
G1 X3055.00 Y7920.00
G0 X4702.00 Y7916.00
G1 X4715.00 Y7899.00
G1 X4712.00 Y7928.00
G1 X4702.00 Y7916.00
G0 X5471.00 Y7916.00
G1 X5470.00 Y7895.00
G1 X5491.00 Y7918.00
G1 X5471.00 Y7916.00
G0 X5747.00 Y7923.00
G1 X5770.00 Y7896.00
G1 X5766.00 Y7919.00
G1 X5747.00 Y7923.00
G0 X3353.00 Y7908.00
G1 X3311.00 Y7821.00
G1 X3289.00 Y7737.00
G1 X3309.00 Y7736.00
G1 X3382.00 Y7908.00
G1 X3353.00 Y7908.00
G0 X4977.00 Y7913.00
G1 X4985.00 Y7890.00
G1 X5000.00 Y7905.00
G1 X4977.00 Y7913.00
G0 X4471.00 Y7863.00
G1 X4485.00 Y7800.00
G1 X4516.00 Y7835.00
G1 X4471.00 Y7863.00
G0 X5957.00 Y7883.00
G1 X5965.00 Y7813.00
G1 X5996.00 Y7791.00
G1 X6006.00 Y7833.00
G1 X5957.00 Y7883.00
G0 X7486.00 Y7865.00
G1 X7490.00 Y7850.00
G1 X7500.00 Y7865.00
G1 X7496.00 Y7880.00
G1 X7486.00 Y7865.00
G0 X4026.00 Y7853.00
G1 X4035.00 Y7830.00
G1 X4050.00 Y7839.00
G1 X4026.00 Y7853.00
G0 X6425.00 Y7850.00
G1 X6441.00 Y7820.00
G1 X6450.00 Y7840.00
G1 X6425.00 Y7850.00
G0 X6690.00 Y7846.00
G1 X6704.00 Y7821.00
G1 X6720.00 Y7845.00
G1 X6690.00 Y7846.00
G0 X3766.00 Y7833.00
G1 X3789.00 Y7804.00
G1 X3786.00 Y7850.00
G1 X3766.00 Y7833.00
G0 X4675.00 Y7838.00
G1 X4644.00 Y7667.00
G1 X4628.00 Y7498.00
G1 X4649.00 Y7496.00
G1 X4705.00 Y7840.00
G1 X4675.00 Y7838.00
G0 X4362.00 Y7814.00
G1 X4378.00 Y7792.00
G1 X4388.00 Y7806.00
G1 X4372.00 Y7828.00
G1 X4362.00 Y7814.00
G0 X4557.00 Y7823.00
G1 X4565.00 Y7790.00
G1 X4580.00 Y7810.00
G1 X4557.00 Y7823.00
G0 X5490.00 Y7820.00
G1 X5487.00 Y7799.00
G1 X5520.00 Y7816.00
G1 X5490.00 Y7820.00
G0 X2971.00 Y7783.00
G1 X3002.00 Y7740.00
G1 X2979.00 Y7790.00
G1 X2949.00 Y7825.00
G1 X2971.00 Y7783.00
G0 X4950.00 Y7810.00
G1 X4970.00 Y7800.00
G1 X4990.00 Y7810.00
G1 X4970.00 Y7820.00
G1 X4950.00 Y7810.00
G0 X5286.00 Y7813.00
G1 X5295.00 Y7790.00
G1 X5310.00 Y7799.00
G1 X5286.00 Y7813.00
G0 X6092.00 Y7808.00
G1 X6114.00 Y7792.00
G1 X6128.00 Y7802.00
G1 X6106.00 Y7818.00
G1 X6092.00 Y7808.00
G0 X3537.00 Y7790.00
G1 X3546.00 Y7770.00
G1 X3560.00 Y7790.00
G1 X3551.00 Y7810.00
G1 X3537.00 Y7790.00
G0 X5170.00 Y7795.00
G1 X5180.00 Y7780.00
G1 X5190.00 Y7795.00
G1 X5180.00 Y7810.00
G1 X5170.00 Y7795.00
G0 X6932.00 Y7790.00
G1 X6948.00 Y7762.00
G1 X6944.00 Y7801.00
G1 X6932.00 Y7790.00
G0 X3252.00 Y7770.00
G1 X3257.00 Y7758.00
G1 X3257.00 Y7783.00
G1 X3252.00 Y7770.00
G0 X5907.00 Y7783.00
G1 X5920.00 Y7740.00
G1 X5934.00 Y7774.00
G1 X5907.00 Y7783.00
G0 X7242.00 Y7778.00
G1 X7258.00 Y7762.00
G1 X7264.00 Y7774.00
G1 X7242.00 Y7778.00
G0 X7528.00 Y7765.00
G1 X7526.00 Y7746.00
G1 X7514.00 Y7719.00
G1 X7502.00 Y7726.00
G1 X7493.00 Y7747.00
G1 X7485.00 Y7733.00
G1 X7490.00 Y7697.00
G1 X7516.00 Y7701.00
G1 X7538.00 Y7750.00
G1 X7528.00 Y7765.00
G0 X3640.00 Y7740.00
G1 X3650.00 Y7720.00
G1 X3660.00 Y7740.00
G1 X3650.00 Y7760.00
G1 X3640.00 Y7740.00
G0 X3977.00 Y7753.00
G1 X3990.00 Y7720.00
G1 X4010.00 Y7729.00
G1 X3977.00 Y7753.00
G0 X4427.00 Y7693.00
G1 X4404.00 Y7573.00
G1 X4418.00 Y7520.00
G1 X4445.00 Y7558.00
G1 X4466.00 Y7667.00
G1 X4475.00 Y7750.00
G1 X4427.00 Y7693.00
G0 X6003.00 Y7753.00
G1 X6002.00 Y7685.00
G1 X6034.00 Y7738.00
G1 X6003.00 Y7753.00
G0 X6746.00 Y7752.00
G1 X6771.00 Y7705.00
G1 X6767.00 Y7745.00
G1 X6746.00 Y7752.00
G0 X6820.00 Y7745.00
G1 X6835.00 Y7730.00
G1 X6850.00 Y7745.00
G1 X6835.00 Y7760.00
G1 X6820.00 Y7745.00
G0 X6464.00 Y7739.00
G1 X6494.00 Y7713.00
G1 X6504.00 Y7735.00
G1 X6464.00 Y7739.00
G0 X3710.00 Y7714.00
G1 X3738.00 Y7718.00
G1 X3726.00 Y7740.00
G1 X3710.00 Y7714.00
G0 X7340.00 Y7730.00
G1 X7350.00 Y7720.00
G1 X7360.00 Y7730.00
G1 X7350.00 Y7740.00
G1 X7340.00 Y7730.00
G0 X2911.00 Y7704.00
G1 X2934.00 Y7661.00
G1 X2972.00 Y7652.00
G1 X2953.00 Y7673.00
G1 X2917.00 Y7712.00
G1 X2911.00 Y7704.00
G0 X3177.00 Y7723.00
G1 X3179.00 Y7680.00
G1 X3192.00 Y7722.00
G1 X3177.00 Y7723.00
G0 X4516.00 Y7715.00
G1 X4510.00 Y7674.00
G1 X4531.00 Y7660.00
G1 X4548.00 Y7697.00
G1 X4516.00 Y7715.00
G0 X7275.00 Y7710.00
G1 X7279.00 Y7700.00
G1 X7295.00 Y7710.00
G1 X7291.00 Y7720.00
G1 X7275.00 Y7710.00
G0 X4315.00 Y7699.00
G1 X4345.00 Y7673.00
G1 X4355.00 Y7691.00
G1 X4315.00 Y7699.00
G0 X6120.00 Y7695.00
G1 X6135.00 Y7680.00
G1 X6158.00 Y7692.00
G1 X6120.00 Y7695.00
G0 X3122.00 Y7658.00
G1 X3171.00 Y7612.00
G1 X3145.00 Y7653.00
G1 X3122.00 Y7658.00
G0 X4937.00 Y7693.00
G1 X4945.00 Y7650.00
G1 X4960.00 Y7675.00
G1 X4937.00 Y7693.00
G0 X5500.00 Y7687.00
G1 X5532.00 Y7650.00
G1 X5524.00 Y7694.00
G1 X5500.00 Y7687.00
G0 X5936.00 Y7683.00
G1 X5965.00 Y7642.00
G1 X5950.00 Y7700.00
G1 X5936.00 Y7683.00
G0 X7346.00 Y7671.00
G1 X7328.00 Y7636.00
G1 X7345.00 Y7649.00
G1 X7392.00 Y7668.00
G1 X7394.00 Y7684.00
G1 X7346.00 Y7671.00
G0 X5157.00 Y7676.00
G1 X5157.00 Y7657.00
G1 X5190.00 Y7676.00
G1 X5157.00 Y7676.00
G0 X5292.00 Y7673.00
G1 X5320.00 Y7669.00
G1 X5304.00 Y7690.00
G1 X5292.00 Y7673.00
G0 X3600.00 Y7660.00
G1 X3609.00 Y7640.00
G1 X3623.00 Y7674.00
G1 X3600.00 Y7660.00
G0 X6860.00 Y7665.00
G1 X6880.00 Y7640.00
G1 X6888.00 Y7655.00
G1 X6860.00 Y7665.00
G0 X3071.00 Y7659.00
G1 X3117.00 Y7577.00
G1 X3114.00 Y7611.00
G1 X3080.00 Y7655.00
G1 X3071.00 Y7659.00
G0 X7270.00 Y7649.00
G1 X7280.00 Y7645.00
G1 X7290.00 Y7656.00
G1 X7280.00 Y7660.00
G1 X7270.00 Y7649.00
G0 X7387.00 Y7643.00
G1 X7395.00 Y7620.00
G1 X7410.00 Y7635.00
G1 X7387.00 Y7643.00
G0 X3937.00 Y7633.00
G1 X3971.00 Y7600.00
G1 X3971.00 Y7630.00
G1 X3937.00 Y7633.00
G0 X6507.00 Y7633.00
G1 X6525.00 Y7610.00
G1 X6550.00 Y7625.00
G1 X6507.00 Y7633.00
G0 X6787.00 Y7623.00
G1 X6800.00 Y7590.00
G1 X6820.00 Y7610.00
G1 X6787.00 Y7623.00
G0 X7297.00 Y7623.00
G1 X7290.00 Y7606.00
G1 X7302.00 Y7608.00
G1 X7309.00 Y7625.00
G1 X7297.00 Y7623.00
G0 X3566.00 Y7611.00
G1 X3574.00 Y7585.00
G1 X3587.00 Y7605.00
G1 X3566.00 Y7611.00
G0 X3667.00 Y7614.00
G1 X3686.00 Y7590.00
G1 X3708.00 Y7603.00
G1 X3667.00 Y7614.00
G0 X6020.00 Y7594.00
G1 X6055.00 Y7530.00
G1 X6068.00 Y7583.00
G1 X6020.00 Y7594.00
G0 X7347.00 Y7613.00
G1 X7349.00 Y7590.00
G1 X7364.00 Y7605.00
G1 X7347.00 Y7613.00
G0 X6156.00 Y7601.00
G1 X6176.00 Y7560.00
G1 X6190.00 Y7574.00
G1 X6156.00 Y7601.00
G0 X3051.00 Y7584.00
G1 X3057.00 Y7578.00
G1 X3056.00 Y7597.00
G1 X3051.00 Y7584.00
G0 X4296.00 Y7593.00
G1 X4305.00 Y7560.00
G1 X4320.00 Y7574.00
G1 X4296.00 Y7593.00
G0 X4497.00 Y7593.00
G1 X4500.00 Y7520.00
G1 X4526.00 Y7587.00
G1 X4497.00 Y7593.00
G0 X5955.00 Y7590.00
G1 X5955.00 Y7550.00
G1 X5982.00 Y7520.00
G1 X5996.00 Y7536.00
G1 X5984.00 Y7576.00
G1 X5955.00 Y7590.00
G0 X6890.00 Y7585.00
G1 X6905.00 Y7570.00
G1 X6920.00 Y7585.00
G1 X6905.00 Y7600.00
G1 X6890.00 Y7585.00
G0 X7400.00 Y7585.00
G1 X7415.00 Y7570.00
G1 X7430.00 Y7585.00
G1 X7415.00 Y7600.00
G1 X7400.00 Y7585.00
G0 X3172.00 Y7570.00
G1 X3170.00 Y7550.00
G1 X3187.00 Y7565.00
G1 X3172.00 Y7570.00
G0 X7110.00 Y7570.00
G1 X7075.00 Y7529.00
G1 X7060.00 Y7507.00
G1 X7130.00 Y7571.00
G1 X7120.00 Y7585.00
G1 X7110.00 Y7570.00
G0 X4912.00 Y7568.00
G1 X4956.00 Y7542.00
G1 X4957.00 Y7565.00
G1 X4912.00 Y7568.00
G0 X5296.00 Y7573.00
G1 X5305.00 Y7530.00
G1 X5320.00 Y7549.00
G1 X5296.00 Y7573.00
G0 X5520.00 Y7566.00
G1 X5550.00 Y7545.00
G1 X5534.00 Y7580.00
G1 X5520.00 Y7566.00
G0 X3080.00 Y7556.00
G1 X3118.00 Y7524.00
G1 X3163.00 Y7503.00
G1 X3170.00 Y7509.00
G1 X3156.00 Y7520.00
G1 X3111.00 Y7546.00
G1 X3080.00 Y7556.00
G0 X5150.00 Y7551.00
G1 X5171.00 Y7530.00
G1 X5188.00 Y7547.00
G1 X5150.00 Y7551.00
G0 X7327.00 Y7549.00
G1 X7305.00 Y7520.00
G1 X7328.00 Y7525.00
G1 X7365.00 Y7554.00
G1 X7370.00 Y7569.00
G1 X7327.00 Y7549.00
G0 X3041.00 Y7538.00
G1 X3083.00 Y7486.00
G1 X3166.00 Y7459.00
G1 X3127.00 Y7486.00
G1 X3047.00 Y7545.00
G1 X3041.00 Y7538.00
G0 X3364.00 Y7549.00
G1 X3368.00 Y7528.00
G1 X3383.00 Y7539.00
G1 X3364.00 Y7549.00
G0 X3541.00 Y7534.00
G1 X3574.00 Y7507.00
G1 X3566.00 Y7530.00
G1 X3547.00 Y7543.00
G1 X3541.00 Y7534.00
G0 X6819.00 Y7534.00
G1 X6825.00 Y7503.00
G1 X6848.00 Y7511.00
G1 X6819.00 Y7534.00
G0 X7375.00 Y7514.00
G1 X7305.00 Y7452.00
G1 X7390.00 Y7513.00
G1 X7419.00 Y7517.00
G1 X7443.00 Y7530.00
G1 X7436.00 Y7550.00
G1 X7375.00 Y7514.00
G0 X3397.00 Y7525.00
G1 X3400.00 Y7505.00
G1 X3410.00 Y7519.00
G1 X3397.00 Y7525.00
G0 X3630.00 Y7523.00
G1 X3650.00 Y7504.00
G1 X3647.00 Y7538.00
G1 X3630.00 Y7523.00
G0 X3900.00 Y7530.00
G1 X3949.00 Y7500.00
G1 X3938.00 Y7534.00
G1 X3900.00 Y7530.00
G0 X6543.00 Y7525.00
G1 X6543.00 Y7504.00
G1 X6585.00 Y7531.00
G1 X6543.00 Y7525.00
G0 X6917.00 Y7510.00
G1 X6926.00 Y7490.00
G1 X6940.00 Y7510.00
G1 X6931.00 Y7530.00
G1 X6917.00 Y7510.00
G0 X5683.00 Y7512.00
G1 X5685.00 Y7400.00
G1 X5730.00 Y7230.00
G1 X5730.00 Y7380.00
G1 X5710.00 Y7518.00
G1 X5683.00 Y7512.00
G0 X7123.00 Y7501.00
G1 X7106.00 Y7478.00
G1 X7095.00 Y7460.00
G1 X7080.00 Y7437.00
G1 X7105.00 Y7450.00
G1 X7130.00 Y7486.00
G1 X7167.00 Y7495.00
G1 X7180.00 Y7492.00
G1 X7164.00 Y7514.00
G1 X7123.00 Y7501.00
G0 X6175.00 Y7501.00
G1 X6196.00 Y7470.00
G1 X6208.00 Y7487.00
G1 X6175.00 Y7501.00
G0 X4270.00 Y7486.00
G1 X4305.00 Y7470.00
G1 X4305.00 Y7490.00
G1 X4270.00 Y7486.00
G0 X3030.00 Y7478.00
G1 X3118.00 Y7406.00
G1 X3150.00 Y7404.00
G1 X3119.00 Y7431.00
G1 X3059.00 Y7468.00
G1 X3030.00 Y7478.00
G0 X3271.00 Y7467.00
G1 X3331.00 Y7395.00
G1 X3399.00 Y7356.00
G1 X3386.00 Y7372.00
G1 X3280.00 Y7475.00
G1 X3271.00 Y7467.00
G0 X3612.00 Y7447.00
G1 X3614.00 Y7400.00
G1 X3631.00 Y7472.00
G1 X3612.00 Y7447.00
G0 X4397.00 Y7473.00
G1 X4390.00 Y7443.00
G1 X4410.00 Y7420.00
G1 X4430.00 Y7450.00
G1 X4397.00 Y7473.00
G0 X6040.00 Y7463.00
G1 X6064.00 Y7282.00
G1 X6120.00 Y7106.00
G1 X6110.00 Y7256.00
G1 X6083.00 Y7438.00
G1 X6059.00 Y7480.00
G1 X6040.00 Y7463.00
G0 X5530.00 Y7455.00
G1 X5550.00 Y7440.00
G1 X5570.00 Y7455.00
G1 X5550.00 Y7470.00
G1 X5530.00 Y7455.00
G0 X4905.00 Y7450.00
G1 X4926.00 Y7420.00
G1 X4940.00 Y7440.00
G1 X4905.00 Y7450.00
G0 X6842.00 Y7438.00
G1 X6860.00 Y7415.00
G1 X6857.00 Y7458.00
G1 X6842.00 Y7438.00
G0 X3520.00 Y7435.00
G1 X3535.00 Y7420.00
G1 X3550.00 Y7429.00
G1 X3535.00 Y7444.00
G1 X3520.00 Y7435.00
G0 X3870.00 Y7440.00
G1 X3919.00 Y7410.00
G1 X3914.00 Y7444.00
G1 X3870.00 Y7440.00
G0 X5153.00 Y7443.00
G1 X5160.00 Y7410.00
G1 X5180.00 Y7430.00
G1 X5153.00 Y7443.00
G0 X5290.00 Y7431.00
G1 X5306.00 Y7410.00
G1 X5318.00 Y7427.00
G1 X5290.00 Y7431.00
G0 X6565.00 Y7430.00
G1 X6564.00 Y7410.00
G1 X6615.00 Y7441.00
G1 X6565.00 Y7430.00
G0 X6932.00 Y7438.00
G1 X6960.00 Y7434.00
G1 X6944.00 Y7450.00
G1 X6932.00 Y7438.00
G0 X7445.00 Y7430.00
G1 X7378.00 Y7389.00
G1 X7323.00 Y7354.00
G1 X7470.00 Y7430.00
G1 X7445.00 Y7430.00
G0 X3044.00 Y7396.00
G1 X3150.00 Y7338.00
G1 X3023.00 Y7420.00
G1 X3044.00 Y7396.00
G0 X3250.00 Y7386.00
G1 X3382.00 Y7290.00
G1 X3353.00 Y7330.00
G1 X3283.00 Y7376.00
G1 X3250.00 Y7386.00
G0 X4160.00 Y7385.00
G1 X4171.00 Y7372.00
G1 X4182.00 Y7385.00
G1 X4171.00 Y7398.00
G1 X4160.00 Y7385.00
G0 X6290.00 Y7391.00
G1 X6300.00 Y7375.00
G1 X6310.00 Y7384.00
G1 X6300.00 Y7400.00
G1 X6290.00 Y7391.00
G0 X4250.00 Y7375.00
G1 X4271.00 Y7360.00
G1 X4280.00 Y7375.00
G1 X4259.00 Y7390.00
G1 X4250.00 Y7375.00
G0 X6200.00 Y7376.00
G1 X6221.00 Y7360.00
G1 X6217.00 Y7388.00
G1 X6200.00 Y7376.00
G0 X7151.00 Y7344.00
G1 X7093.00 Y7294.00
G1 X7220.00 Y7381.00
G1 X7151.00 Y7344.00
G0 X7452.00 Y7377.00
G1 X7387.00 Y7340.00
G1 X7392.00 Y7319.00
G1 X7468.00 Y7380.00
G1 X7452.00 Y7377.00
G0 X3020.00 Y7365.00
G1 X3108.00 Y7296.00
G1 X3138.00 Y7299.00
G1 X3020.00 Y7365.00
G0 X3845.00 Y7360.00
G1 X3884.00 Y7331.00
G1 X3910.00 Y7334.00
G1 X3845.00 Y7360.00
G0 X4894.00 Y7355.00
G1 X4916.00 Y7320.00
G1 X4930.00 Y7345.00
G1 X4894.00 Y7355.00
G0 X5542.00 Y7348.00
G1 X5560.00 Y7325.00
G1 X5578.00 Y7348.00
G1 X5560.00 Y7370.00
G1 X5542.00 Y7348.00
G0 X3510.00 Y7345.00
G1 X3525.00 Y7336.00
G1 X3540.00 Y7345.00
G1 X3525.00 Y7354.00
G1 X3510.00 Y7345.00
G0 X3576.00 Y7344.00
G1 X3589.00 Y7320.00
G1 X3601.00 Y7349.00
G1 X3576.00 Y7344.00
G0 X6596.00 Y7351.00
G1 X6574.00 Y7320.00
G1 X6640.00 Y7350.00
G1 X6596.00 Y7351.00
G0 X6865.00 Y7347.00
G1 X6859.00 Y7326.00
G1 X6920.00 Y7345.00
G1 X6865.00 Y7347.00
G0 X4992.00 Y7315.00
G1 X4997.00 Y7303.00
G1 X4997.00 Y7333.00
G1 X4992.00 Y7315.00
G0 X5140.00 Y7331.00
G1 X5179.00 Y7304.00
G1 X5159.00 Y7340.00
G1 X5140.00 Y7331.00
G0 X5296.00 Y7333.00
G1 X5305.00 Y7290.00
G1 X5320.00 Y7309.00
G1 X5296.00 Y7333.00
G0 X7460.00 Y7332.00
G1 X7400.00 Y7299.00
G1 X7368.00 Y7266.00
G1 X7470.00 Y7326.00
G1 X7465.00 Y7340.00
G1 X7460.00 Y7332.00
G0 X3250.00 Y7309.00
G1 X3386.00 Y7230.00
G1 X3378.00 Y7260.00
G1 X3308.00 Y7289.00
G1 X3250.00 Y7309.00
G0 X5460.00 Y7315.00
G1 X5484.00 Y7281.00
G1 X5475.00 Y7306.00
G1 X5460.00 Y7315.00
G0 X7165.00 Y7288.00
G1 X7110.00 Y7250.00
G1 X7103.00 Y7234.00
G1 X7128.00 Y7243.00
G1 X7183.00 Y7275.00
G1 X7220.00 Y7305.00
G1 X7165.00 Y7288.00
G0 X4237.00 Y7294.00
G1 X4248.00 Y7252.00
G1 X4265.00 Y7274.00
G1 X4237.00 Y7294.00
G0 X6216.00 Y7291.00
G1 X6246.00 Y7263.00
G1 X6231.00 Y7300.00
G1 X6216.00 Y7291.00
G0 X4125.00 Y7280.00
G1 X4128.00 Y7258.00
G1 X4145.00 Y7260.00
G1 X4142.00 Y7282.00
G1 X4125.00 Y7280.00
G0 X6335.00 Y7280.00
G1 X6351.00 Y7250.00
G1 X6360.00 Y7270.00
G1 X6335.00 Y7280.00
G0 X3812.00 Y7269.00
G1 X3887.00 Y7244.00
G1 X3841.00 Y7276.00
G1 X3812.00 Y7269.00
G0 X5550.00 Y7261.00
G1 X5571.00 Y7240.00
G1 X5588.00 Y7257.00
G1 X5550.00 Y7261.00
G0 X6622.00 Y7262.00
G1 X6588.00 Y7238.00
G1 X6676.00 Y7251.00
G1 X6622.00 Y7262.00
G0 X4885.00 Y7260.00
G1 X4906.00 Y7230.00
G1 X4920.00 Y7250.00
G1 X4885.00 Y7260.00
G0 X6915.00 Y7255.00
G1 X6866.00 Y7235.00
G1 X6856.00 Y7220.00
G1 X6955.00 Y7241.00
G1 X6915.00 Y7255.00
G0 X3530.00 Y7250.00
G1 X3606.00 Y7214.00
G1 X3589.00 Y7249.00
G1 X3530.00 Y7250.00
G0 X3250.00 Y7240.00
G1 X3383.00 Y7173.00
G1 X3322.00 Y7213.00
G1 X3250.00 Y7240.00
G0 X4102.00 Y7210.00
G1 X4118.00 Y7182.00
G1 X4114.00 Y7221.00
G1 X4102.00 Y7210.00
G0 X5142.00 Y7212.00
G1 X5163.00 Y7195.00
G1 X5160.00 Y7222.00
G1 X5142.00 Y7212.00
G0 X4987.00 Y7213.00
G1 X4990.00 Y7170.00
G1 X5000.00 Y7195.00
G1 X4987.00 Y7213.00
G0 X5290.00 Y7205.00
G1 X5305.00 Y7190.00
G1 X5320.00 Y7205.00
G1 X5305.00 Y7220.00
G1 X5290.00 Y7205.00
G0 X6229.00 Y7218.00
G1 X6227.00 Y7170.00
G1 X6260.00 Y7209.00
G1 X6229.00 Y7218.00
G0 X6350.00 Y7201.00
G1 X6374.00 Y7186.00
G1 X6365.00 Y7220.00
G1 X6350.00 Y7201.00
G0 X4215.00 Y7199.00
G1 X4221.00 Y7179.00
G1 X4217.00 Y7170.00
G1 X4205.00 Y7160.00
G1 X4230.00 Y7150.00
G1 X4247.00 Y7177.00
G1 X4215.00 Y7199.00
G0 X5355.00 Y7201.00
G1 X5360.00 Y7185.00
G1 X5370.00 Y7194.00
G1 X5355.00 Y7201.00
G0 X3242.00 Y7188.00
G1 X3348.00 Y7125.00
G1 X3338.00 Y7151.00
G1 X3278.00 Y7182.00
G1 X3242.00 Y7188.00
G0 X3775.00 Y7190.00
G1 X3875.00 Y7140.00
G1 X3837.00 Y7178.00
G1 X3775.00 Y7190.00
G0 X5476.00 Y7185.00
G1 X5500.00 Y7165.00
G1 X5496.00 Y7193.00
G1 X5476.00 Y7185.00
G0 X6674.00 Y7186.00
G1 X6618.00 Y7161.00
G1 X6580.00 Y7138.00
G1 X6594.00 Y7133.00
G1 X6650.00 Y7151.00
G1 X6697.00 Y7177.00
G1 X6674.00 Y7186.00
G0 X4877.00 Y7184.00
G1 X4891.00 Y7140.00
G1 X4908.00 Y7162.00
G1 X4877.00 Y7184.00
G0 X5557.00 Y7183.00
G1 X5559.00 Y7130.00
G1 X5590.00 Y7097.00
G1 X5597.00 Y7110.00
G1 X5584.00 Y7159.00
G1 X5585.00 Y7184.00
G1 X5557.00 Y7183.00
G0 X5714.00 Y7160.00
G1 X5720.00 Y7099.00
G1 X5739.00 Y7070.00
G1 X5752.00 Y7108.00
G1 X5746.00 Y7150.00
G1 X5731.00 Y7188.00
G1 X5714.00 Y7160.00
G0 X7195.00 Y7170.00
G1 X7135.00 Y7131.00
G1 X7120.00 Y7110.00
G1 X7220.00 Y7175.00
G1 X7195.00 Y7170.00
G0 X3516.00 Y7156.00
G1 X3591.00 Y7120.00
G1 X3564.00 Y7155.00
G1 X3516.00 Y7156.00
G0 X4090.00 Y7162.00
G1 X4106.00 Y7146.00
G1 X4118.00 Y7152.00
G1 X4090.00 Y7162.00
G0 X6923.00 Y7152.00
G1 X6895.00 Y7120.00
G1 X6980.00 Y7159.00
G1 X6923.00 Y7152.00
G0 X6360.00 Y7145.00
G1 X6375.00 Y7130.00
G1 X6384.00 Y7145.00
G1 X6369.00 Y7160.00
G1 X6360.00 Y7145.00
G0 X6235.00 Y7139.00
G1 X6259.00 Y7125.00
G1 X6275.00 Y7141.00
G1 X6235.00 Y7139.00
G0 X4090.00 Y7126.00
G1 X4100.00 Y7110.00
G1 X4110.00 Y7119.00
G1 X4100.00 Y7135.00
G1 X4090.00 Y7126.00
G0 X4200.00 Y7105.00
G1 X4226.00 Y7090.00
G1 X4240.00 Y7105.00
G1 X4214.00 Y7120.00
G1 X4200.00 Y7105.00
G0 X5150.00 Y7100.00
G1 X5174.00 Y7096.00
G1 X5165.00 Y7120.00
G1 X5150.00 Y7100.00
G0 X5298.00 Y7095.00
G1 X5311.00 Y7070.00
G1 X5320.00 Y7095.00
G1 X5306.00 Y7120.00
G1 X5298.00 Y7095.00
G0 X3772.00 Y7098.00
G1 X3857.00 Y7052.00
G1 X3840.00 Y7076.00
G1 X3772.00 Y7098.00
G0 X5100.00 Y7100.00
G1 X5110.00 Y7090.00
G1 X5120.00 Y7100.00
G1 X5110.00 Y7110.00
G1 X5100.00 Y7100.00
G0 X5350.00 Y7092.00
G1 X5366.00 Y7070.00
G1 X5369.00 Y7088.00
G1 X5353.00 Y7109.00
G1 X5350.00 Y7092.00
G0 X6230.00 Y7089.00
G1 X6267.00 Y7078.00
G1 X6254.00 Y7097.00
G1 X6230.00 Y7089.00
G0 X6367.00 Y7103.00
G1 X6389.00 Y7054.00
G1 X6379.00 Y7110.00
G1 X6367.00 Y7103.00
G0 X3240.00 Y7096.00
G1 X3266.00 Y7065.00
G1 X3334.00 Y7041.00
G1 X3375.00 Y7042.00
G1 X3325.00 Y7057.00
G1 X3258.00 Y7088.00
G1 X3240.00 Y7096.00
G0 X4077.00 Y7087.00
G1 X4103.00 Y7050.00
G1 X4094.00 Y7097.00
G1 X4077.00 Y7087.00
G0 X4980.00 Y7085.00
G1 X4990.00 Y7070.00
G1 X5000.00 Y7085.00
G1 X4990.00 Y7100.00
G1 X4980.00 Y7085.00
G0 X3905.00 Y7070.00
G1 X3915.00 Y7054.00
G1 X3935.00 Y7069.00
G1 X3905.00 Y7070.00
G0 X4870.00 Y7054.00
G1 X4908.00 Y7058.00
G1 X4891.00 Y7080.00
G1 X4870.00 Y7054.00
G0 X6558.00 Y7073.00
G1 X6603.00 Y7073.00
G1 X6580.00 Y7077.00
G1 X6558.00 Y7073.00
G0 X6925.00 Y7054.00
G1 X6895.00 Y7029.00
G1 X6925.00 Y7036.00
G1 X6958.00 Y7063.00
G1 X6925.00 Y7054.00
G0 X3539.00 Y7050.00
G1 X3580.00 Y7039.00
G1 X3548.00 Y7059.00
G1 X3515.00 Y7070.00
G1 X3539.00 Y7050.00
G0 X4197.00 Y7063.00
G1 X4206.00 Y7040.00
G1 X4215.00 Y7030.00
G1 X4224.00 Y7026.00
G1 X4224.00 Y7064.00
G1 X4197.00 Y7063.00
G0 X3625.00 Y7039.00
G1 X3595.00 Y7020.00
G1 X3621.00 Y7020.00
G1 X3659.00 Y7034.00
G1 X3625.00 Y7039.00
G0 X4980.00 Y7041.00
G1 X4990.00 Y7020.00
G1 X5000.00 Y7034.00
G1 X4990.00 Y7055.00
G1 X4980.00 Y7041.00
G0 X5474.00 Y7049.00
G1 X5478.00 Y7028.00
G1 X5510.00 Y7046.00
G1 X5474.00 Y7049.00
G0 X5557.00 Y7040.00
G1 X5589.00 Y7020.00
G1 X5615.00 Y7020.00
G1 X5590.00 Y7040.00
G1 X5557.00 Y7040.00
G0 X6236.00 Y7044.00
G1 X6246.00 Y7034.00
G1 X6276.00 Y7040.00
G1 X6290.00 Y7050.00
G1 X6236.00 Y7044.00
G0 X4305.00 Y7041.00
G1 X4310.00 Y7025.00
G1 X4320.00 Y7034.00
G1 X4305.00 Y7041.00
G0 X6140.00 Y7036.00
G1 X6150.00 Y7020.00
G1 X6160.00 Y7029.00
G1 X6150.00 Y7045.00
G1 X6140.00 Y7036.00
G0 X3525.00 Y6996.00
G1 X3563.00 Y6966.00
G1 X3655.00 Y6970.00
G1 X3632.00 Y6974.00
G1 X3535.00 Y7010.00
G1 X3525.00 Y7020.00
G1 X3525.00 Y6996.00
G0 X3762.00 Y7008.00
G1 X3853.00 Y6963.00
G1 X3816.00 Y6993.00
G1 X3762.00 Y7008.00
G0 X3900.00 Y7010.00
G1 X3935.00 Y7010.00
G1 X3907.00 Y7020.00
G1 X3900.00 Y7010.00
G0 X4035.00 Y7010.00
G1 X4051.00 Y7000.00
G1 X4060.00 Y7010.00
G1 X4044.00 Y7020.00
G1 X4035.00 Y7010.00
G0 X4082.00 Y6994.00
G1 X4063.00 Y6968.00
G1 X4040.00 Y6962.00
G1 X4073.00 Y6948.00
G1 X4105.00 Y6979.00
G1 X4092.00 Y7018.00
G1 X4082.00 Y6994.00
G0 X6383.00 Y7007.00
G1 X6373.00 Y6980.00
G1 X6409.00 Y7008.00
G1 X6383.00 Y7007.00
G0 X6230.00 Y6996.00
G1 X6266.00 Y6982.00
G1 X6258.00 Y7004.00
G1 X6230.00 Y6996.00
G0 X6954.00 Y6999.00
G1 X6929.00 Y6993.00
G1 X6882.00 Y6964.00
G1 X6904.00 Y6969.00
G1 X6938.00 Y6976.00
G1 X6963.00 Y6990.00
G1 X6954.00 Y6999.00
G0 X4180.00 Y6988.00
G1 X4211.00 Y6963.00
G1 X4238.00 Y6973.00
G1 X4208.00 Y6998.00
G1 X4180.00 Y6988.00
G0 X5120.00 Y6970.00
G1 X5136.00 Y6970.00
G1 X5129.00 Y7000.00
G1 X5120.00 Y6970.00
G0 X5160.00 Y6970.00
G1 X5168.00 Y6940.00
G1 X5172.00 Y6970.00
G1 X5164.00 Y7000.00
G1 X5160.00 Y6970.00
G0 X5300.00 Y6970.00
G1 X5308.00 Y6940.00
G1 X5312.00 Y6970.00
G1 X5304.00 Y7000.00
G1 X5300.00 Y6970.00
G0 X5360.00 Y6970.00
G1 X5368.00 Y6940.00
G1 X5378.00 Y6970.00
G1 X5369.00 Y7000.00
G1 X5360.00 Y6970.00
G0 X4867.00 Y6976.00
G1 X4892.00 Y6950.00
G1 X4910.00 Y6970.00
G1 X4867.00 Y6976.00
G0 X5282.00 Y6965.00
G1 X5287.00 Y6953.00
G1 X5287.00 Y6983.00
G1 X5282.00 Y6965.00
G0 X4300.00 Y6970.00
G1 X4310.00 Y6960.00
G1 X4320.00 Y6970.00
G1 X4310.00 Y6980.00
G1 X4300.00 Y6970.00
G0 X5550.00 Y6956.00
G1 X5586.00 Y6944.00
G1 X5573.00 Y6974.00
G1 X5550.00 Y6956.00
G0 X6815.00 Y6970.00
G1 X6841.00 Y6960.00
G1 X6860.00 Y6970.00
G1 X6834.00 Y6980.00
G1 X6815.00 Y6970.00
G0 X3896.00 Y6961.00
G1 X3900.00 Y6947.00
G1 X3924.00 Y6959.00
G1 X3896.00 Y6961.00
G0 X6033.00 Y6954.00
G1 X6039.00 Y6927.00
G1 X6050.00 Y6943.00
G1 X6033.00 Y6954.00
G0 X6145.00 Y6959.00
G1 X6143.00 Y6943.00
G1 X6170.00 Y6961.00
G1 X6145.00 Y6959.00
G0 X4436.00 Y6945.00
G1 X4442.00 Y6919.00
G1 X4452.00 Y6940.00
G1 X4436.00 Y6945.00
G0 X4972.00 Y6951.00
G1 X4991.00 Y6947.00
G1 X4980.00 Y6959.00
G1 X4972.00 Y6951.00
G0 X5464.00 Y6945.00
G1 X5463.00 Y6918.00
G1 X5469.00 Y6927.00
G1 X5483.00 Y6953.00
G1 X5482.00 Y6959.00
G1 X5464.00 Y6945.00
G0 X5922.00 Y6948.00
G1 X5926.00 Y6896.00
G1 X5950.00 Y6900.00
G1 X5943.00 Y6909.00
G1 X5930.00 Y6931.00
G1 X5922.00 Y6948.00
G0 X4511.00 Y6938.00
G1 X4504.00 Y6903.00
G1 X4509.00 Y6896.00
G1 X4517.00 Y6931.00
G1 X4511.00 Y6938.00
G0 X5992.00 Y6925.00
G1 X5997.00 Y6913.00
G1 X5997.00 Y6943.00
G1 X5992.00 Y6925.00
G0 X6360.00 Y6934.00
G1 X6374.00 Y6929.00
G1 X6404.00 Y6934.00
G1 X6420.00 Y6939.00
G1 X6390.00 Y6950.00
G1 X6360.00 Y6934.00
G0 X6932.00 Y6938.00
G1 X6920.00 Y6918.00
G1 X6948.00 Y6930.00
G1 X6932.00 Y6938.00
G0 X3780.00 Y6934.00
G1 X3897.00 Y6901.00
G1 X3880.00 Y6915.00
G1 X3803.00 Y6935.00
G1 X3780.00 Y6934.00
G0 X4550.00 Y6906.00
G1 X4560.00 Y6880.00
G1 X4570.00 Y6899.00
G1 X4560.00 Y6925.00
G1 X4550.00 Y6906.00
G0 X6809.00 Y6916.00
G1 X6868.00 Y6913.00
G1 X6830.00 Y6928.00
G1 X6809.00 Y6916.00
G0 X6888.00 Y6923.00
G1 X6907.00 Y6924.00
G1 X6894.00 Y6929.00
G1 X6888.00 Y6923.00
G0 X4970.00 Y6905.00
G1 X4980.00 Y6890.00
G1 X4990.00 Y6905.00
G1 X4980.00 Y6920.00
G1 X4970.00 Y6905.00
G0 X4877.00 Y6903.00
G1 X4895.00 Y6872.00
G1 X4920.00 Y6892.00
G1 X4877.00 Y6903.00
G0 X5480.00 Y6900.00
G1 X5495.00 Y6890.00
G1 X5510.00 Y6900.00
G1 X5495.00 Y6910.00
G1 X5480.00 Y6900.00
G0 X5547.00 Y6898.00
G1 X5575.00 Y6850.00
G1 X5578.00 Y6873.00
G1 X5578.00 Y6888.00
G1 X5575.00 Y6904.00
G1 X5547.00 Y6898.00
G0 X6360.00 Y6897.00
G1 X6391.00 Y6882.00
G1 X6383.00 Y6905.00
G1 X6360.00 Y6897.00
G0 X5080.00 Y6870.00
G1 X5090.00 Y6860.00
G1 X5100.00 Y6870.00
G1 X5090.00 Y6880.00
G1 X5080.00 Y6870.00
G0 X5461.00 Y6867.00
G1 X5486.00 Y6840.00
G1 X5525.00 Y6840.00
G1 X5495.00 Y6850.00
G1 X5467.00 Y6868.00
G1 X5461.00 Y6867.00
G0 X5362.00 Y6850.00
G1 X5367.00 Y6838.00
G1 X5367.00 Y6863.00
G1 X5362.00 Y6850.00
G0 X4978.00 Y6835.00
G1 X4981.00 Y6810.00
G1 X4990.00 Y6835.00
G1 X4986.00 Y6860.00
G1 X4978.00 Y6835.00
G0 X4430.00 Y6832.00
G1 X4516.00 Y6780.00
G1 X4505.00 Y6794.00
G1 X4472.00 Y6810.00
G1 X4430.00 Y6832.00
G0 X4870.00 Y6826.00
G1 X4906.00 Y6810.00
G1 X4902.00 Y6838.00
G1 X4870.00 Y6826.00
G0 X5258.00 Y6820.00
G1 X5266.00 Y6792.00
G1 X5268.00 Y6822.00
G1 X5265.00 Y6845.00
G1 X5258.00 Y6820.00
G0 X5553.00 Y6800.00
G1 X5595.00 Y6770.00
G1 X5593.00 Y6786.00
G1 X5583.00 Y6813.00
G1 X5580.00 Y6829.00
G1 X5553.00 Y6800.00
G0 X5200.00 Y6811.00
G1 X5210.00 Y6790.00
G1 X5220.00 Y6804.00
G1 X5210.00 Y6825.00
G1 X5200.00 Y6811.00
G0 X5461.00 Y6813.00
G1 X5493.00 Y6782.00
G1 X5535.00 Y6779.00
G1 X5508.00 Y6793.00
G1 X5467.00 Y6818.00
G1 X5461.00 Y6813.00
G0 X5125.00 Y6811.00
G1 X5093.00 Y6780.00
G1 X5100.00 Y6778.00
G1 X5148.00 Y6788.00
G1 X5160.00 Y6798.00
G1 X5158.00 Y6819.00
G1 X5125.00 Y6811.00
G0 X5300.00 Y6806.00
G1 X5310.00 Y6790.00
G1 X5320.00 Y6799.00
G1 X5310.00 Y6815.00
G1 X5300.00 Y6806.00
G0 X5348.00 Y6795.00
G1 X5352.00 Y6764.00
G1 X5349.00 Y6744.00
G1 X5351.00 Y6730.00
G1 X5367.00 Y6775.00
G1 X5348.00 Y6795.00
G0 X6005.00 Y6810.00
G1 X6009.00 Y6800.00
G1 X6025.00 Y6810.00
G1 X6021.00 Y6820.00
G1 X6005.00 Y6810.00
G0 X6268.00 Y6813.00
G1 X6293.00 Y6813.00
G1 X6280.00 Y6818.00
G1 X6268.00 Y6813.00
G0 X4876.00 Y6775.00
G1 X4872.00 Y6757.00
G1 X4912.00 Y6761.00
G1 X4940.00 Y6768.00
G1 X4876.00 Y6775.00
G0 X5247.00 Y6768.00
G1 X5250.00 Y6741.00
G1 X5262.00 Y6766.00
G1 X5247.00 Y6768.00
G0 X5297.00 Y6751.00
G1 X5300.00 Y6725.00
G1 X5312.00 Y6756.00
G1 X5297.00 Y6751.00
G0 X5998.00 Y6763.00
G1 X5980.00 Y6744.00
G1 X6000.00 Y6742.00
G1 X6020.00 Y6762.00
G1 X6018.00 Y6769.00
G1 X5998.00 Y6763.00
G0 X4440.00 Y6750.00
G1 X4579.00 Y6737.00
G1 X4508.00 Y6753.00
G1 X4440.00 Y6750.00
G0 X5462.00 Y6732.00
G1 X5500.00 Y6688.00
G1 X5580.00 Y6685.00
G1 X5542.00 Y6700.00
G1 X5486.00 Y6719.00
G1 X5491.00 Y6733.00
G1 X5507.00 Y6737.00
G1 X5480.00 Y6753.00
G1 X5462.00 Y6732.00
G0 X5763.00 Y6753.00
G1 X5793.00 Y6753.00
G1 X5775.00 Y6758.00
G1 X5763.00 Y6753.00
G0 X5896.00 Y6751.00
G1 X5899.00 Y6736.00
G1 X5914.00 Y6739.00
G1 X5911.00 Y6754.00
G1 X5896.00 Y6751.00
G0 X5946.00 Y6751.00
G1 X5944.00 Y6733.00
G1 X5958.00 Y6751.00
G1 X5946.00 Y6751.00
G0 X4815.00 Y6740.00
G1 X4826.00 Y6730.00
G1 X4830.00 Y6740.00
G1 X4819.00 Y6750.00
G1 X4815.00 Y6740.00
G0 X5100.00 Y6734.00
G1 X5110.00 Y6725.00
G1 X5120.00 Y6741.00
G1 X5110.00 Y6750.00
G1 X5100.00 Y6734.00
G0 X5520.00 Y6741.00
G1 X5571.00 Y6720.00
G1 X5568.00 Y6744.00
G1 X5520.00 Y6741.00
G0 X4190.00 Y6729.00
G1 X4200.00 Y6725.00
G1 X4210.00 Y6736.00
G1 X4200.00 Y6740.00
G1 X4190.00 Y6729.00
G0 X4860.00 Y6731.00
G1 X4870.00 Y6715.00
G1 X4880.00 Y6719.00
G1 X4870.00 Y6735.00
G1 X4860.00 Y6731.00
G0 X4985.00 Y6730.00
G1 X5006.00 Y6712.00
G1 X5007.00 Y6728.00
G1 X4985.00 Y6730.00
G0 X5625.00 Y6730.00
G1 X5629.00 Y6720.00
G1 X5640.00 Y6730.00
G1 X5636.00 Y6740.00
G1 X5625.00 Y6730.00
G0 X5980.00 Y6712.00
G1 X5992.00 Y6698.00
G1 X5973.00 Y6653.00
G1 X5942.00 Y6633.00
G1 X5989.00 Y6648.00
G1 X6003.00 Y6718.00
G1 X5980.00 Y6712.00
G0 X4210.00 Y6700.00
G1 X4202.00 Y6685.00
G1 X4245.00 Y6701.00
G1 X4210.00 Y6700.00
G0 X5605.00 Y6680.00
G1 X5614.00 Y6670.00
G1 X5630.00 Y6658.00
G1 X5635.00 Y6652.00
G1 X5620.00 Y6690.00
G1 X5605.00 Y6680.00
G0 X5610.00 Y6629.00
G1 X5620.00 Y6625.00
G1 X5630.00 Y6636.00
G1 X5620.00 Y6640.00
G1 X5610.00 Y6629.00
G0 X2840.00 Y7919.00
G1 X2855.00 Y7874.00
G1 X2870.00 Y7845.00
G1 X2870.00 Y7871.00
G1 X2855.00 Y7916.00
G1 X2840.00 Y7919.00
G0 X2841.00 Y7838.00
G1 X2850.00 Y7805.00
G1 X2850.00 Y7845.00
G1 X2841.00 Y7838.00
G0 X2823.00 Y7764.00
G1 X2832.00 Y7754.00
G1 X2832.00 Y7782.00
G1 X2823.00 Y7764.00
G0 X7560.00 Y7400.00
G1 X7569.00 Y7390.00
G1 X7585.00 Y7400.00
G1 X7576.00 Y7410.00
G1 X7560.00 Y7400.00
G0 X2888.00 Y7383.00
G1 X2907.00 Y7384.00
G1 X2894.00 Y7389.00
G1 X2888.00 Y7383.00
G0 X4314.00 Y6695.00
G1 X4347.00 Y6680.00
G1 X4346.00 Y6695.00
G1 X4314.00 Y6695.00
M2 ; End of program
