; G-code generated from SVG
G21 ; Set units to mm
G90 ; Absolute positioning
G0 X8108.00 Y9535.00
G1 X7826.00 Y9411.00
G1 X7780.00 Y9399.00
G1 X7773.00 Y9430.00
G1 X7729.00 Y9404.00
G1 X7707.00 Y9399.00
G1 X7640.00 Y9379.00
G1 X7570.00 Y9326.00
G1 X7583.00 Y9352.00
G1 X7604.00 Y9410.00
G1 X7437.00 Y9305.00
G1 X7295.00 Y9125.00
G1 X7170.00 Y9125.00
G1 X6850.00 Y9137.00
G1 X6288.00 Y9043.00
G1 X6182.00 Y9006.00
G1 X6138.00 Y9048.00
G1 X5930.00 Y9180.00
G1 X5940.00 Y9140.00
G1 X5903.00 Y9137.00
G1 X5788.00 Y9153.00
G1 X5750.00 Y9155.00
G1 X5670.00 Y9159.00
G1 X5641.00 Y9155.00
G1 X5592.00 Y9149.00
G1 X5473.00 Y9153.00
G1 X4870.00 Y8957.00
G1 X4800.00 Y8708.00
G1 X4775.00 Y8650.00
G1 X4755.00 Y8590.00
G1 X4739.00 Y8530.00
G1 X4730.00 Y8478.00
G1 X4718.00 Y8438.00
G1 X4694.00 Y8396.00
G1 X4706.00 Y8326.00
G1 X4697.00 Y8316.00
G1 X4689.00 Y8252.00
G1 X4693.00 Y8211.00
G1 X4704.00 Y8127.00
G1 X4720.00 Y8085.00
G1 X4727.00 Y8027.00
G1 X4715.00 Y8010.00
G1 X4677.00 Y8011.00
G1 X4728.00 Y7913.00
G1 X4721.00 Y7897.00
G1 X4721.00 Y7842.00
G1 X4726.00 Y7812.00
G1 X4730.00 Y7750.00
G1 X4750.00 Y7710.00
G1 X4730.00 Y7710.00
G1 X4759.00 Y7635.00
G1 X4768.00 Y7610.00
G1 X4713.00 Y7566.00
G1 X4738.00 Y7545.00
G1 X4740.00 Y7480.00
G1 X4614.00 Y7002.00
G1 X4600.00 Y6915.00
G1 X4539.00 Y6936.00
G1 X4013.00 Y7076.00
G1 X3930.00 Y7090.00
G1 X3946.00 Y7111.00
G1 X4050.00 Y7243.00
G1 X3982.00 Y7238.00
G1 X4017.00 Y7319.00
G1 X4064.00 Y7401.00
G1 X4006.00 Y7389.00
G1 X3980.00 Y7373.00
G1 X4009.00 Y7435.00
G1 X3973.00 Y7473.00
G1 X3943.00 Y7455.00
G1 X3970.00 Y7623.00
G1 X3908.00 Y7590.00
G1 X3881.00 Y7535.00
G1 X3880.00 Y7607.00
G1 X3800.00 Y7905.00
G1 X3790.00 Y7857.00
G1 X3790.00 Y7815.00
G1 X3766.00 Y7871.00
G1 X3624.00 Y8117.00
G1 X3532.00 Y8190.00
G1 X3473.00 Y8230.00
G1 X2899.00 Y8534.00
G1 X1747.00 Y8338.00
G1 X1683.00 Y8304.00
G1 X1775.00 Y8419.00
G1 X1795.00 Y8460.00
G1 X1583.00 Y8240.00
G1 X1480.00 Y8095.00
G1 X1134.00 Y7380.00
G1 X1124.00 Y6878.00
G1 X1368.00 Y6323.00
G1 X1397.00 Y6280.00
G1 X1339.00 Y6310.00
G1 X1252.00 Y6322.00
G1 X1395.00 Y6194.00
G1 X1450.00 Y6164.00
G1 X1414.00 Y6104.00
G1 X1075.00 Y5050.00
G1 X1058.00 Y4249.00
G1 X1260.00 Y3339.00
G1 X1300.00 Y3257.00
G1 X1294.00 Y3106.00
G1 X1331.00 Y2695.00
G1 X1330.00 Y2310.00
G1 X1452.00 Y1539.00
G1 X1840.00 Y1457.00
G1 X2285.00 Y1581.00
G1 X2361.00 Y1950.00
G1 X2595.00 Y2640.00
G1 X2893.00 Y3025.00
G1 X3048.00 Y3146.00
G1 X3329.00 Y2514.00
G1 X3917.00 Y1841.00
G1 X4422.00 Y1874.00
G1 X4470.00 Y2262.00
G1 X4386.00 Y2380.00
G1 X4332.00 Y2536.00
G1 X4404.00 Y2535.00
G1 X4475.00 Y2506.00
G1 X4520.00 Y2290.00
G1 X4779.00 Y1557.00
G1 X4850.00 Y1392.00
G1 X5108.00 Y860.00
G1 X5620.00 Y747.00
G1 X6099.00 Y866.00
G1 X6114.00 Y1195.00
G1 X6130.00 Y1620.00
G1 X6260.00 Y2171.00
G1 X6302.00 Y2362.00
G1 X6335.00 Y2370.00
G1 X6450.00 Y2395.00
G1 X6557.00 Y2420.00
G1 X6580.00 Y2368.00
G1 X6656.00 Y2135.00
G1 X6670.00 Y2054.00
G1 X6696.00 Y1891.00
G1 X7580.00 Y1289.00
G1 X8100.00 Y1543.00
G1 X7965.00 Y1809.00
G1 X7866.00 Y2005.00
G1 X7919.00 Y2225.00
G1 X8185.00 Y3252.00
G1 X8244.00 Y3383.00
G1 X8645.00 Y4233.00
G1 X8779.00 Y5230.00
G1 X8795.00 Y5485.00
G1 X8817.00 Y5930.00
G1 X8822.00 Y6275.00
G1 X8870.00 Y6365.00
G1 X9060.00 Y7160.00
G1 X8948.00 Y7683.00
G1 X8958.00 Y7708.00
G1 X8980.00 Y7706.00
G1 X8907.00 Y7801.00
G1 X8940.00 Y7798.00
G1 X8975.00 Y7833.00
G1 X8939.00 Y7880.00
G1 X8965.00 Y7892.00
G1 X8990.00 Y7943.00
G1 X8968.00 Y8018.00
G1 X8958.00 Y8058.00
G1 X8926.00 Y8117.00
G1 X8881.00 Y8144.00
G1 X8911.00 Y8162.00
G1 X8940.00 Y8191.00
G1 X8860.00 Y8185.00
G1 X8835.00 Y8179.00
G1 X8861.00 Y8194.00
G1 X8950.00 Y8349.00
G1 X8915.00 Y8350.00
G1 X8898.00 Y8340.00
G1 X8904.00 Y8363.00
G1 X8960.00 Y8481.00
G1 X8912.00 Y8468.00
G1 X8888.00 Y8445.00
G1 X8896.00 Y8475.00
G1 X8911.00 Y8528.00
G1 X8911.00 Y8600.00
G1 X8897.00 Y8588.00
G1 X8897.00 Y8633.00
G1 X8893.00 Y8690.00
G1 X8877.00 Y8668.00
G1 X8872.00 Y8713.00
G1 X8860.00 Y8770.00
G1 X8850.00 Y8818.00
G1 X8841.00 Y8876.00
G1 X8827.00 Y8911.00
G1 X8803.00 Y8952.00
G1 X8780.00 Y8981.00
G1 X8742.00 Y9046.00
G1 X8706.00 Y9093.00
G1 X8633.00 Y9258.00
G1 X8395.00 Y9524.00
G1 X8108.00 Y9535.00
G1 X8194.00 Y9405.00
G1 X8158.00 Y9330.00
G1 X8205.00 Y9390.00
G1 X8257.00 Y9450.00
G1 X8234.00 Y9378.00
G1 X8249.00 Y9375.00
G1 X8301.00 Y9446.00
G1 X8313.00 Y9422.00
G1 X8270.00 Y9355.00
G1 X8317.00 Y9396.00
G1 X8361.00 Y9423.00
G1 X8344.00 Y9378.00
G1 X8331.00 Y9348.00
G1 X8410.00 Y9393.00
G1 X8359.00 Y9333.00
G1 X8313.00 Y9273.00
G1 X8366.00 Y9319.00
G1 X8424.00 Y9370.00
G1 X8458.00 Y9335.00
G1 X8481.00 Y9299.00
G1 X8441.00 Y9247.00
G1 X8405.00 Y9192.00
G1 X8480.00 Y9273.00
G1 X8490.00 Y9280.00
G1 X8464.00 Y9204.00
G1 X8438.00 Y9160.00
G1 X8477.00 Y9195.00
G1 X8512.00 Y9230.00
G1 X8535.00 Y9198.00
G1 X8528.00 Y9135.00
G1 X8482.00 Y9086.00
G1 X8464.00 Y9062.00
G1 X8520.00 Y9099.00
G1 X8570.00 Y9141.00
G1 X8570.00 Y9111.00
G1 X8514.00 Y9024.00
G1 X8465.00 Y8962.00
G1 X8527.00 Y9013.00
G1 X8586.00 Y9070.00
G1 X8590.00 Y9053.00
G1 X8490.00 Y8938.00
G1 X8471.00 Y8910.00
G1 X8542.00 Y8960.00
G1 X8610.00 Y8996.00
G1 X8494.00 Y8883.00
G1 X8493.00 Y8871.00
G1 X8562.00 Y8920.00
G1 X8617.00 Y8970.00
G1 X8599.00 Y8901.00
G1 X8511.00 Y8813.00
G1 X8511.00 Y8800.00
G1 X8578.00 Y8845.00
G1 X8634.00 Y8890.00
G1 X8573.00 Y8790.00
G1 X8528.00 Y8735.00
G1 X8589.00 Y8798.00
G1 X8650.00 Y8861.00
G1 X8645.00 Y8788.00
G1 X8652.00 Y8733.00
G1 X8686.00 Y8713.00
G1 X8617.00 Y8493.00
G1 X8604.00 Y8497.00
G1 X8660.00 Y8628.00
G1 X8620.00 Y8562.00
G1 X8501.00 Y8386.00
G1 X8495.00 Y8410.00
G1 X8510.00 Y8454.00
G1 X8493.00 Y8458.00
G1 X8459.00 Y8449.00
G1 X8480.00 Y8470.00
G1 X8490.00 Y8481.00
G1 X8465.00 Y8476.00
G1 X8449.00 Y8489.00
G1 X8470.00 Y8518.00
G1 X8449.00 Y8513.00
G1 X8438.00 Y8527.00
G1 X8464.00 Y8560.00
G1 X8480.00 Y8583.00
G1 X8455.00 Y8570.00
G1 X8445.00 Y8600.00
G1 X8429.00 Y8616.00
G1 X8404.00 Y8609.00
G1 X8400.00 Y8635.00
G1 X8393.00 Y8652.00
G1 X8421.00 Y8710.00
G1 X8399.00 Y8688.00
G1 X8383.00 Y8677.00
G1 X8396.00 Y8714.00
G1 X8402.00 Y8740.00
G1 X8350.00 Y8671.00
G1 X8340.00 Y8670.00
G1 X8355.00 Y8727.00
G1 X8345.00 Y8745.00
G1 X8310.00 Y8722.00
G1 X8336.00 Y8770.00
G1 X8325.00 Y8790.00
G1 X8300.00 Y8777.00
G1 X8325.00 Y8810.00
G1 X8311.00 Y8825.00
G1 X8311.00 Y8853.00
G1 X8337.00 Y8876.00
G1 X8182.00 Y8813.00
G1 X8169.00 Y8819.00
G1 X8324.00 Y8904.00
G1 X8337.00 Y8916.00
G1 X8253.00 Y8900.00
G1 X8022.00 Y8739.00
G1 X7978.00 Y8704.00
G1 X8051.00 Y8840.00
G1 X8083.00 Y8892.00
G1 X7960.00 Y8756.00
G1 X7932.00 Y8729.00
G1 X7954.00 Y8783.00
G1 X7981.00 Y8825.00
G1 X7950.00 Y8790.00
G1 X7953.00 Y8826.00
G1 X8070.00 Y8922.00
G1 X8130.00 Y8964.00
G1 X7913.00 Y8806.00
G1 X7900.00 Y8831.00
G1 X8043.00 Y8968.00
G1 X8060.00 Y8984.00
G1 X7875.00 Y8833.00
G1 X7854.00 Y8838.00
G1 X7964.00 Y8988.00
G1 X7993.00 Y9020.00
G1 X7859.00 Y8923.00
G1 X7823.00 Y8851.00
G1 X7809.00 Y8815.00
G1 X7814.00 Y8860.00
G1 X7826.00 Y8925.00
G1 X7817.00 Y8931.00
G1 X7800.00 Y8899.00
G1 X7779.00 Y8902.00
G1 X7778.00 Y8935.00
G1 X7770.00 Y8907.00
G1 X7767.00 Y8864.00
G1 X7762.00 Y8850.00
G1 X7744.00 Y8984.00
G1 X7716.00 Y8945.00
G1 X7695.00 Y8895.00
G1 X7751.00 Y9143.00
G1 X7978.00 Y9388.00
G1 X8155.00 Y9448.00
G1 X8129.00 Y9401.00
G1 X8108.00 Y9330.00
G1 X8143.00 Y9380.00
G1 X8223.00 Y9460.00
G1 X8224.00 Y9448.00
G1 X7599.00 Y8962.00
G1 X7598.00 Y8925.00
G1 X7589.00 Y8970.00
G1 X7610.00 Y9183.00
G1 X7687.00 Y9287.00
G1 X7660.00 Y9218.00
G1 X7560.00 Y9030.00
G1 X7545.00 Y8985.00
G1 X7574.00 Y9215.00
G1 X7584.00 Y9174.00
G1 X7510.00 Y8990.00
G1 X7500.00 Y9000.00
G1 X7532.00 Y9200.00
G1 X7535.00 Y9183.00
G1 X7453.00 Y9031.00
G1 X7470.00 Y9160.00
G1 X7474.00 Y9105.00
G1 X5816.00 Y8625.00
G1 X5820.00 Y8575.00
G1 X5810.00 Y8614.00
G1 X5738.00 Y8750.00
G1 X5733.00 Y8743.00
G1 X5777.00 Y8605.00
G1 X5781.00 Y8555.00
G1 X5757.00 Y8605.00
G1 X5601.00 Y8755.00
G1 X5586.00 Y8749.00
G1 X5741.00 Y8568.00
G1 X5745.00 Y8540.00
G1 X5706.00 Y8599.00
G1 X5485.00 Y8729.00
G1 X5445.00 Y8728.00
G1 X5491.00 Y8720.00
G1 X5645.00 Y8646.00
G1 X5592.00 Y8640.00
G1 X5441.00 Y8670.00
G1 X5460.00 Y8660.00
G1 X5621.00 Y8577.00
G1 X5612.00 Y8559.00
G1 X5526.00 Y8615.00
G1 X5350.00 Y8633.00
G1 X5421.00 Y8616.00
G1 X5523.00 Y8594.00
G1 X5656.00 Y8468.00
G1 X5649.00 Y8457.00
G1 X5565.00 Y8530.00
G1 X5413.00 Y8580.00
G1 X5270.00 Y8571.00
G1 X5359.00 Y8562.00
G1 X5555.00 Y8508.00
G1 X5657.00 Y8374.00
G1 X5631.00 Y8403.00
G1 X5495.00 Y8506.00
G1 X5266.00 Y8526.00
G1 X5278.00 Y8506.00
G1 X5508.00 Y8471.00
G1 X5620.00 Y8365.00
G1 X5568.00 Y8399.00
G1 X5315.00 Y8473.00
G1 X5282.00 Y8447.00
G1 X5435.00 Y8408.00
G1 X5425.00 Y8404.00
G1 X5212.00 Y8425.00
G1 X5295.00 Y8391.00
G1 X5367.00 Y8367.00
G1 X5347.00 Y8364.00
G1 X5203.00 Y8374.00
G1 X5263.00 Y8348.00
G1 X5315.00 Y8330.00
G1 X5263.00 Y8335.00
G1 X5243.00 Y8314.00
G1 X5227.00 Y8300.00
G1 X5217.00 Y8264.00
G1 X5195.00 Y8246.00
G1 X5200.00 Y8214.00
G1 X5245.00 Y8202.00
G1 X5205.00 Y8200.00
G1 X5165.00 Y8199.00
G1 X5205.00 Y8179.00
G1 X5245.00 Y8160.00
G1 X5210.00 Y8164.00
G1 X5156.00 Y8176.00
G1 X5142.00 Y8169.00
G1 X5201.00 Y8127.00
G1 X5220.00 Y8104.00
G1 X5150.00 Y8116.00
G1 X5115.00 Y8123.00
G1 X5140.00 Y8095.00
G1 X5225.00 Y8039.00
G1 X5285.00 Y8010.00
G1 X5245.00 Y8010.00
G1 X5164.00 Y8034.00
G1 X5060.00 Y8075.00
G1 X5195.00 Y7987.00
G1 X5245.00 Y7959.00
G1 X5206.00 Y7965.00
G1 X5116.00 Y7997.00
G1 X4894.00 Y8142.00
G1 X4896.00 Y8148.00
G1 X4945.00 Y8150.00
G1 X4930.00 Y8185.00
G1 X4993.00 Y8163.00
G1 X4970.00 Y8185.00
G1 X4870.00 Y8262.00
G1 X4913.00 Y8246.00
G1 X5010.00 Y8208.00
G1 X4963.00 Y8239.00
G1 X4972.00 Y8261.00
G1 X5008.00 Y8255.00
G1 X4935.00 Y8280.00
G1 X4870.00 Y8324.00
G1 X4915.00 Y8315.00
G1 X5020.00 Y8310.00
G1 X4993.00 Y8320.00
G1 X4880.00 Y8369.00
G1 X4906.00 Y8370.00
G1 X5010.00 Y8349.00
G1 X4962.00 Y8373.00
G1 X4926.00 Y8418.00
G1 X4999.00 Y8403.00
G1 X4995.00 Y8414.00
G1 X4880.00 Y8480.00
G1 X4921.00 Y8475.00
G1 X4990.00 Y8451.00
G1 X4995.00 Y8457.00
G1 X4890.00 Y8536.00
G1 X4935.00 Y8524.00
G1 X4997.00 Y8502.00
G1 X4970.00 Y8528.00
G1 X4906.00 Y8565.00
G1 X4918.00 Y8582.00
G1 X5006.00 Y8540.00
G1 X4983.00 Y8567.00
G1 X4900.00 Y8640.00
G1 X4925.00 Y8640.00
G1 X5020.00 Y8582.00
G1 X4972.00 Y8630.00
G1 X4912.00 Y8695.00
G1 X4928.00 Y8694.00
G1 X5030.00 Y8638.00
G1 X4989.00 Y8672.00
G1 X4934.00 Y8724.00
G1 X4952.00 Y8731.00
G1 X5030.00 Y8684.00
G1 X4978.00 Y8740.00
G1 X4934.00 Y8797.00
G1 X4983.00 Y8762.00
G1 X5033.00 Y8720.00
G1 X4966.00 Y8818.00
G1 X5002.00 Y8813.00
G1 X5004.00 Y8839.00
G1 X4972.00 Y8901.00
G1 X5018.00 Y8869.00
G1 X5031.00 Y8881.00
G1 X5047.00 Y8910.00
G1 X5060.00 Y8925.00
G1 X5092.00 Y8934.00
G1 X5147.00 Y8894.00
G1 X5106.00 Y8951.00
G1 X5060.00 Y9011.00
G1 X5128.00 Y8969.00
G1 X5146.00 Y8982.00
G1 X5110.00 Y9032.00
G1 X5152.00 Y9012.00
G1 X5191.00 Y8965.00
G1 X5172.00 Y9008.00
G1 X5151.00 Y9044.00
G1 X5421.00 Y9050.00
G1 X5745.00 Y8942.00
G1 X5723.00 Y8951.00
G1 X5648.00 Y9009.00
G1 X5600.00 Y9045.00
G1 X5678.00 Y9005.00
G1 X5845.00 Y8828.00
G1 X5831.00 Y8830.00
G1 X5784.00 Y8905.00
G1 X5707.00 Y9003.00
G1 X5732.00 Y9008.00
G1 X6924.00 Y8921.00
G1 X6949.00 Y8841.00
G1 X6936.00 Y8948.00
G1 X6932.00 Y9036.00
G1 X6986.00 Y9008.00
G1 X7006.00 Y8916.00
G1 X7020.00 Y8845.00
G1 X7014.00 Y8943.00
G1 X7018.00 Y9040.00
G1 X7049.00 Y9023.00
G1 X7077.00 Y8932.00
G1 X7091.00 Y8854.00
G1 X7093.00 Y8941.00
G1 X7087.00 Y9033.00
G1 X7116.00 Y9026.00
G1 X7155.00 Y8920.00
G1 X7159.00 Y8860.00
G1 X7170.00 Y8949.00
G1 X7193.00 Y9016.00
G1 X7230.00 Y9006.00
G1 X7216.00 Y8843.00
G1 X7198.00 Y8770.00
G1 X7260.00 Y8957.00
G1 X7294.00 Y8994.00
G1 X7290.00 Y8836.00
G1 X7274.00 Y8762.00
G1 X7326.00 Y8919.00
G1 X7348.00 Y8970.00
G1 X7358.00 Y8908.00
G1 X7366.00 Y8875.00
G1 X7380.00 Y8928.00
G1 X7400.00 Y8939.00
G1 X7409.00 Y8934.00
G1 X7425.00 Y8889.00
G1 X7442.00 Y8901.00
G1 X7462.00 Y8922.00
G1 X7421.00 Y8807.00
G1 X7403.00 Y8765.00
G1 X7476.00 Y8863.00
G1 X7525.00 Y8890.00
G1 X7518.00 Y8857.00
G1 X7481.00 Y8795.00
G1 X7458.00 Y8755.00
G1 X7485.00 Y8785.00
G1 X7531.00 Y8838.00
G1 X7570.00 Y8855.00
G1 X7553.00 Y8822.00
G1 X7535.00 Y8795.00
G1 X7564.00 Y8818.00
G1 X7601.00 Y8840.00
G1 X7520.00 Y8731.00
G1 X7430.00 Y8631.00
G1 X7470.00 Y8663.00
G1 X7577.00 Y8761.00
G1 X7643.00 Y8814.00
G1 X7666.00 Y8787.00
G1 X7700.00 Y8760.00
G1 X7668.00 Y8721.00
G1 X7575.00 Y8655.00
G1 X7560.00 Y8631.00
G1 X7624.00 Y8677.00
G1 X7775.00 Y8721.00
G1 X7758.00 Y8705.00
G1 X7564.00 Y8578.00
G1 X7615.00 Y8605.00
G1 X7798.00 Y8690.00
G1 X7767.00 Y8652.00
G1 X7685.00 Y8605.00
G1 X7725.00 Y8616.00
G1 X7835.00 Y8648.00
G1 X7855.00 Y8637.00
G1 X7684.00 Y8543.00
G1 X7669.00 Y8526.00
G1 X7857.00 Y8615.00
G1 X7927.00 Y8609.00
G1 X7965.00 Y8597.00
G1 X7902.00 Y8584.00
G1 X7735.00 Y8505.00
G1 X7760.00 Y8514.00
G1 X7984.00 Y8561.00
G1 X7953.00 Y8545.00
G1 X7800.00 Y8470.00
G1 X7820.00 Y8473.00
G1 X7917.00 Y8514.00
G1 X8007.00 Y8519.00
G1 X8044.00 Y8507.00
G1 X7979.00 Y8491.00
G1 X7867.00 Y8444.00
G1 X7635.00 Y8241.00
G1 X7708.00 Y8298.00
G1 X7881.00 Y8436.00
G1 X8080.00 Y8459.00
G1 X8067.00 Y8450.00
G1 X7920.00 Y8388.00
G1 X7915.00 Y8375.00
G1 X8135.00 Y8418.00
G1 X8163.00 Y8403.00
G1 X8108.00 Y8397.00
G1 X7905.00 Y8306.00
G1 X7945.00 Y8320.00
G1 X8165.00 Y8375.00
G1 X8205.00 Y8368.00
G1 X8125.00 Y8346.00
G1 X7950.00 Y8265.00
G1 X8008.00 Y8291.00
G1 X8224.00 Y8326.00
G1 X8222.00 Y8300.00
G1 X8040.00 Y8247.00
G1 X7819.00 Y8113.00
G1 X7876.00 Y8142.00
G1 X8023.00 Y8225.00
G1 X8207.00 Y8275.00
G1 X8297.00 Y8263.00
G1 X8273.00 Y8250.00
G1 X8187.00 Y8235.00
G1 X7974.00 Y8143.00
G1 X8048.00 Y8169.00
G1 X8285.00 Y8230.00
G1 X8297.00 Y8201.00
G1 X8129.00 Y8151.00
G1 X7996.00 Y8106.00
G1 X7973.00 Y8094.00
G1 X8123.00 Y8134.00
G1 X8328.00 Y8180.00
G1 X8349.00 Y8156.00
G1 X8231.00 Y8121.00
G1 X8107.00 Y8075.00
G1 X8063.00 Y8054.00
G1 X8191.00 Y8091.00
G1 X8435.00 Y8120.00
G1 X8395.00 Y8100.00
G1 X8136.00 Y8023.00
G1 X8235.00 Y8050.00
G1 X8404.00 Y8080.00
G1 X8438.00 Y8057.00
G1 X8265.00 Y8016.00
G1 X8275.00 Y8005.00
G1 X8536.00 Y8032.00
G1 X8537.00 Y8020.00
G1 X8223.00 Y7945.00
G1 X8023.00 Y7905.00
G1 X7704.00 Y7835.00
G1 X7681.00 Y7837.00
G1 X8053.00 Y7961.00
G1 X8126.00 Y7978.00
G1 X7827.00 Y7919.00
G1 X7667.00 Y7880.00
G1 X7892.00 Y7985.00
G1 X8045.00 Y8041.00
G1 X8000.00 Y8031.00
G1 X7850.00 Y7984.00
G1 X7744.00 Y7949.00
G1 X7690.00 Y7925.00
G1 X7628.00 Y7893.00
G1 X7603.00 Y7884.00
G1 X7648.00 Y7943.00
G1 X7645.00 Y7955.00
G1 X7590.00 Y7897.00
G1 X7565.00 Y7852.00
G1 X7510.00 Y7667.00
G1 X7566.00 Y7709.00
G1 X7653.00 Y7789.00
G1 X7956.00 Y7880.00
G1 X8272.00 Y7943.00
G1 X8573.00 Y7986.00
G1 X8571.00 Y7960.00
G1 X8230.00 Y7890.00
G1 X7890.00 Y7811.00
G1 X7875.00 Y7801.00
G1 X8207.00 Y7869.00
G1 X8635.00 Y7930.00
G1 X8621.00 Y7921.00
G1 X8335.00 Y7854.00
G1 X7905.00 Y7773.00
G1 X7803.00 Y7797.00
G1 X7825.00 Y7809.00
G1 X7751.00 Y7791.00
G1 X7850.00 Y7754.00
G1 X8260.00 Y7815.00
G1 X8670.00 Y7884.00
G1 X8651.00 Y7878.00
G1 X8355.00 Y7803.00
G1 X7994.00 Y7718.00
G1 X7995.00 Y7702.00
G1 X8317.00 Y7774.00
G1 X8626.00 Y7850.00
G1 X8715.00 Y7840.00
G1 X8676.00 Y7830.00
G1 X8373.00 Y7764.00
G1 X8493.00 Y7785.00
G1 X8755.00 Y7800.00
G1 X8709.00 Y7790.00
G1 X8523.00 Y7760.00
G1 X8360.00 Y7730.00
G1 X8248.00 Y7710.00
G1 X8040.00 Y7683.00
G1 X7945.00 Y7668.00
G1 X8260.00 Y7695.00
G1 X8710.00 Y7765.00
G1 X8697.00 Y7737.00
G1 X8416.00 Y7686.00
G1 X8081.00 Y7631.00
G1 X7955.00 Y7623.00
G1 X8080.00 Y7622.00
G1 X8290.00 Y7641.00
G1 X8680.00 Y7715.00
G1 X8780.00 Y7706.00
G1 X8825.00 Y7692.00
G1 X8760.00 Y7691.00
G1 X8545.00 Y7659.00
G1 X8074.00 Y7592.00
G1 X7986.00 Y7576.00
G1 X8088.00 Y7570.00
G1 X8565.00 Y7646.00
G1 X8773.00 Y7666.00
G1 X8840.00 Y7649.00
G1 X8777.00 Y7640.00
G1 X8589.00 Y7616.00
G1 X8098.00 Y7542.00
G1 X8058.00 Y7520.00
G1 X8366.00 Y7544.00
G1 X8778.00 Y7616.00
G1 X8800.00 Y7590.00
G1 X8400.00 Y7523.00
G1 X8041.00 Y7490.00
G1 X8002.00 Y7495.00
G1 X8103.00 Y7462.00
G1 X8082.00 Y7440.00
G1 X7914.00 Y7524.00
G1 X7710.00 Y7618.00
G1 X7597.00 Y7601.00
G1 X7623.00 Y7637.00
G1 X7622.00 Y7656.00
G1 X7460.00 Y7353.00
G1 X7453.00 Y7290.00
G1 X7418.00 Y7322.00
G1 X7376.00 Y7335.00
G1 X7374.00 Y7309.00
G1 X7395.00 Y7310.00
G1 X7518.00 Y7203.00
G1 X7879.00 Y6738.00
G1 X7887.00 Y6690.00
G1 X7847.00 Y6697.00
G1 X7852.00 Y6675.00
G1 X7885.00 Y6667.00
G1 X7840.00 Y6660.00
G1 X7822.00 Y6652.00
G1 X7823.00 Y6619.00
G1 X7765.00 Y6618.00
G1 X7814.00 Y6606.00
G1 X7861.00 Y6562.00
G1 X7806.00 Y6565.00
G1 X7788.00 Y6549.00
G1 X7840.00 Y6519.00
G1 X7826.00 Y6495.00
G1 X7771.00 Y6498.00
G1 X7743.00 Y6492.00
G1 X7780.00 Y6460.00
G1 X7722.00 Y6454.00
G1 X7707.00 Y6434.00
G1 X7735.00 Y6412.00
G1 X7705.00 Y6400.00
G1 X7668.00 Y6405.00
G1 X7650.00 Y6391.00
G1 X7605.00 Y6374.00
G1 X7581.00 Y6373.00
G1 X7499.00 Y6447.00
G1 X7460.00 Y6507.00
G1 X7501.00 Y6425.00
G1 X7526.00 Y6350.00
G1 X7480.00 Y6417.00
G1 X7383.00 Y6577.00
G1 X7411.00 Y6520.00
G1 X7478.00 Y6365.00
G1 X7456.00 Y6379.00
G1 X7419.00 Y6464.00
G1 X7406.00 Y6480.00
G1 X7426.00 Y6405.00
G1 X7349.00 Y6477.00
G1 X7321.00 Y6560.00
G1 X7345.00 Y6541.00
G1 X7360.00 Y6497.00
G1 X7380.00 Y6457.00
G1 X7390.00 Y6435.00
G1 X7386.00 Y6482.00
G1 X7382.00 Y6512.00
G1 X7371.00 Y6541.00
G1 X7351.00 Y6567.00
G1 X7389.00 Y6607.00
G1 X7446.00 Y6749.00
G1 X7451.00 Y6781.00
G1 X7409.00 Y6943.00
G1 X7243.00 Y7026.00
G1 X6914.00 Y6888.00
G1 X6900.00 Y6805.00
G1 X6933.00 Y6713.00
G1 X7023.00 Y6676.00
G1 X7105.00 Y6700.00
G1 X7130.00 Y6707.00
G1 X7010.00 Y6654.00
G1 X7019.00 Y6591.00
G1 X7184.00 Y6520.00
G1 X7209.00 Y6463.00
G1 X7208.00 Y6405.00
G1 X7197.00 Y6460.00
G1 X7186.00 Y6515.00
G1 X7180.00 Y6453.00
G1 X7163.00 Y6378.00
G1 X7149.00 Y6436.00
G1 X7143.00 Y6475.00
G1 X7116.00 Y6344.00
G1 X7105.00 Y6415.00
G1 X7104.00 Y6480.00
G1 X7090.00 Y6390.00
G1 X7059.00 Y6312.00
G1 X7055.00 Y6353.00
G1 X7069.00 Y6422.00
G1 X7056.00 Y6405.00
G1 X7006.00 Y6291.00
G1 X7010.00 Y6353.00
G1 X7040.00 Y6437.00
G1 X7016.00 Y6397.00
G1 X6964.00 Y6297.00
G1 X6925.00 Y6273.00
G1 X6900.00 Y6275.00
G1 X6870.00 Y6277.00
G1 X6852.00 Y6277.00
G1 X6787.00 Y6260.00
G1 X6755.00 Y6290.00
G1 X6770.00 Y6312.00
G1 X6739.00 Y6296.00
G1 X6670.00 Y6279.00
G1 X6701.00 Y6315.00
G1 X6726.00 Y6347.00
G1 X6687.00 Y6322.00
G1 X6621.00 Y6296.00
G1 X6611.00 Y6366.00
G1 X6593.00 Y6370.00
G1 X6506.00 Y6371.00
G1 X6510.00 Y6435.00
G1 X6513.00 Y6450.00
G1 X6452.00 Y6452.00
G1 X6480.00 Y6485.00
G1 X6471.00 Y6502.00
G1 X6435.00 Y6499.00
G1 X6424.00 Y6576.00
G1 X6498.00 Y6874.00
G1 X6677.00 Y7137.00
G1 X6679.00 Y7167.00
G1 X6683.00 Y7177.00
G1 X6721.00 Y7181.00
G1 X6710.00 Y7217.00
G1 X6665.00 Y7224.00
G1 X6650.00 Y7198.00
G1 X6601.00 Y7254.00
G1 X6432.00 Y7430.00
G1 X6440.00 Y7409.00
G1 X6465.00 Y7389.00
G1 X6425.00 Y7397.00
G1 X6221.00 Y7380.00
G1 X6067.00 Y7228.00
G1 X5980.00 Y7151.00
G1 X5871.00 Y7124.00
G1 X5815.00 Y7120.00
G1 X5885.00 Y7145.00
G1 X5965.00 Y7181.00
G1 X5956.00 Y7186.00
G1 X5891.00 Y7168.00
G1 X5807.00 Y7139.00
G1 X5697.00 Y7110.00
G1 X5582.00 Y7087.00
G1 X5642.00 Y7074.00
G1 X5692.00 Y7047.00
G1 X5490.00 Y6999.00
G1 X5553.00 Y7006.00
G1 X5525.00 Y6961.00
G1 X5351.00 Y6886.00
G1 X5500.00 Y6932.00
G1 X6047.00 Y7090.00
G1 X6084.00 Y7042.00
G1 X6437.00 Y6934.00
G1 X6497.00 Y6956.00
G1 X6435.00 Y6848.00
G1 X6375.00 Y6803.00
G1 X6325.00 Y6778.00
G1 X6335.00 Y6774.00
G1 X6353.00 Y6736.00
G1 X6303.00 Y6704.00
G1 X6355.00 Y6719.00
G1 X6401.00 Y6740.00
G1 X6395.00 Y6711.00
G1 X6394.00 Y6513.00
G1 X6328.00 Y6446.00
G1 X6182.00 Y6335.00
G1 X6227.00 Y6357.00
G1 X6401.00 Y6450.00
G1 X6423.00 Y6436.00
G1 X6332.00 Y6359.00
G1 X6247.00 Y6293.00
G1 X6314.00 Y6324.00
G1 X6458.00 Y6377.00
G1 X6403.00 Y6317.00
G1 X6117.00 Y6027.00
G1 X6212.00 Y6115.00
G1 X6476.00 Y6330.00
G1 X6474.00 Y6286.00
G1 X6320.00 Y6137.00
G1 X6378.00 Y6178.00
G1 X6460.00 Y6235.00
G1 X6512.00 Y6261.00
G1 X6554.00 Y6265.00
G1 X6890.00 Y6208.00
G1 X6993.00 Y6225.00
G1 X7010.00 Y6216.00
G1 X7020.00 Y6200.00
G1 X7030.00 Y6220.00
G1 X7045.00 Y6240.00
G1 X7060.00 Y6220.00
G1 X7070.00 Y6200.00
G1 X7080.00 Y6225.00
G1 X7106.00 Y6218.00
G1 X7119.00 Y6209.00
G1 X7159.00 Y6208.00
G1 X7168.00 Y6175.00
G1 X7169.00 Y6208.00
G1 X7184.00 Y6240.00
G1 X7206.00 Y6208.00
G1 X7214.00 Y6175.00
G1 X7217.00 Y6213.00
G1 X7248.00 Y6224.00
G1 X7270.00 Y6218.00
G1 X7301.00 Y6218.00
G1 X7303.00 Y6185.00
G1 X7309.00 Y6219.00
G1 X7340.00 Y6235.00
G1 X7350.00 Y6215.00
G1 X7360.00 Y6246.00
G1 X7389.00 Y6238.00
G1 X7398.00 Y6205.00
G1 X7399.00 Y6248.00
G1 X7428.00 Y6268.00
G1 X7439.00 Y6266.00
G1 X7540.00 Y6297.00
G1 X7707.00 Y6340.00
G1 X7774.00 Y6371.00
G1 X7792.00 Y6348.00
G1 X7810.00 Y6334.00
G1 X7794.00 Y6362.00
G1 X7795.00 Y6386.00
G1 X7847.00 Y6356.00
G1 X7888.00 Y6324.00
G1 X7862.00 Y6363.00
G1 X7840.00 Y6420.00
G1 X7890.00 Y6384.00
G1 X7899.00 Y6404.00
G1 X7868.00 Y6462.00
G1 X7922.00 Y6436.00
G1 X7929.00 Y6466.00
G1 X7885.00 Y6510.00
G1 X7948.00 Y6485.00
G1 X8160.00 Y6364.00
G1 X8228.00 Y6321.00
G1 X8240.00 Y6329.00
G1 X8015.00 Y6485.00
G1 X7902.00 Y6551.00
G1 X7961.00 Y6561.00
G1 X7998.00 Y6555.00
G1 X7949.00 Y6595.00
G1 X7920.00 Y6621.00
G1 X7978.00 Y6629.00
G1 X7979.00 Y6653.00
G1 X7923.00 Y6678.00
G1 X7916.00 Y6741.00
G1 X7834.00 Y6951.00
G1 X7860.00 Y6990.00
G1 X7900.00 Y7001.00
G1 X7845.00 Y7005.00
G1 X7790.00 Y7013.00
G1 X7840.00 Y7034.00
G1 X7849.00 Y7055.00
G1 X7727.00 Y7078.00
G1 X7690.00 Y7107.00
G1 X7752.00 Y7114.00
G1 X7912.00 Y7187.00
G1 X7960.00 Y7332.00
G1 X7960.00 Y7392.00
G1 X7993.00 Y7387.00
G1 X8203.00 Y7369.00
G1 X8458.00 Y7375.00
G1 X8560.00 Y7406.00
G1 X8565.00 Y7416.00
G1 X8370.00 Y7374.00
G1 X8513.00 Y7431.00
G1 X8576.00 Y7452.00
G1 X8573.00 Y7460.00
G1 X8376.00 Y7411.00
G1 X8224.00 Y7383.00
G1 X8251.00 Y7395.00
G1 X8364.00 Y7435.00
G1 X8562.00 Y7494.00
G1 X8895.00 Y7476.00
G1 X8873.00 Y7453.00
G1 X8640.00 Y7460.00
G1 X8704.00 Y7456.00
G1 X8899.00 Y7408.00
G1 X8882.00 Y7388.00
G1 X8719.00 Y7439.00
G1 X8783.00 Y7411.00
G1 X8926.00 Y7320.00
G1 X8897.00 Y7324.00
G1 X8660.00 Y7381.00
G1 X8671.00 Y7371.00
G1 X8875.00 Y7316.00
G1 X8935.00 Y7230.00
G1 X8942.00 Y7205.00
G1 X8914.00 Y7232.00
G1 X8716.00 Y7270.00
G1 X8560.00 Y7238.00
G1 X8578.00 Y7235.00
G1 X8705.00 Y7247.00
G1 X8925.00 Y7130.00
G1 X8932.00 Y7095.00
G1 X8899.00 Y7127.00
G1 X8698.00 Y7190.00
G1 X8590.00 Y7180.00
G1 X8669.00 Y7170.00
G1 X8877.00 Y7113.00
G1 X8872.00 Y7070.00
G1 X8620.00 Y7100.00
G1 X8677.00 Y7090.00
G1 X8884.00 Y7028.00
G1 X8863.00 Y7009.00
G1 X8752.00 Y7049.00
G1 X8615.00 Y7050.00
G1 X8658.00 Y7040.00
G1 X8862.00 Y6988.00
G1 X8912.00 Y6928.00
G1 X8917.00 Y6884.00
G1 X8837.00 Y6913.00
G1 X8647.00 Y6970.00
G1 X8673.00 Y6947.00
G1 X8900.00 Y6796.00
G1 X8894.00 Y6757.00
G1 X8841.00 Y6792.00
G1 X8636.00 Y6900.00
G1 X8688.00 Y6865.00
G1 X8865.00 Y6660.00
G1 X8803.00 Y6700.00
G1 X8589.00 Y6825.00
G1 X8638.00 Y6789.00
G1 X8829.00 Y6581.00
G1 X8817.00 Y6555.00
G1 X8595.00 Y6760.00
G1 X8620.00 Y6725.00
G1 X8779.00 Y6561.00
G1 X8798.00 Y6482.00
G1 X8795.00 Y6445.00
G1 X8779.00 Y6480.00
G1 X8560.00 Y6682.00
G1 X8588.00 Y6658.00
G1 X8742.00 Y6498.00
G1 X8754.00 Y6375.00
G1 X8719.00 Y6417.00
G1 X8558.00 Y6597.00
G1 X8555.00 Y6576.00
G1 X8686.00 Y6425.00
G1 X8704.00 Y6297.00
G1 X8665.00 Y6359.00
G1 X8497.00 Y6534.00
G1 X8420.00 Y6562.00
G1 X8473.00 Y6526.00
G1 X8558.00 Y6472.00
G1 X8660.00 Y6291.00
G1 X8641.00 Y6211.00
G1 X8602.00 Y6280.00
G1 X8519.00 Y6398.00
G1 X8365.00 Y6491.00
G1 X8407.00 Y6456.00
G1 X8596.00 Y6155.00
G1 X8554.00 Y6210.00
G1 X8487.00 Y6317.00
G1 X8332.00 Y6430.00
G1 X8343.00 Y6403.00
G1 X8515.00 Y6240.00
G1 X8537.00 Y6096.00
G1 X8500.00 Y6145.00
G1 X8350.00 Y6335.00
G1 X8326.00 Y6328.00
G1 X8473.00 Y6151.00
G1 X8480.00 Y6010.00
G1 X8464.00 Y6015.00
G1 X8326.00 Y6257.00
G1 X8309.00 Y6244.00
G1 X8424.00 Y6008.00
G1 X8395.00 Y5956.00
G1 X8344.00 Y6102.00
G1 X8204.00 Y6258.00
G1 X8247.00 Y6198.00
G1 X8358.00 Y5965.00
G1 X8346.00 Y5891.00
G1 X8325.00 Y5907.00
G1 X8209.00 Y6146.00
G1 X8192.00 Y6132.00
G1 X8247.00 Y6065.00
G1 X8300.00 Y5896.00
G1 X8268.00 Y5830.00
G1 X8251.00 Y5888.00
G1 X8148.00 Y6087.00
G1 X8153.00 Y6049.00
G1 X8209.00 Y5937.00
G1 X8221.00 Y5780.00
G1 X8166.00 Y5873.00
G1 X8060.00 Y6024.00
G1 X8094.00 Y5961.00
G1 X8176.00 Y5775.00
G1 X8097.00 Y5838.00
G1 X8015.00 Y5955.00
G1 X8012.00 Y5923.00
G1 X8107.00 Y5700.00
G1 X8015.00 Y5805.00
G1 X7928.00 Y5910.00
G1 X7983.00 Y5813.00
G1 X8069.00 Y5659.00
G1 X8011.00 Y5694.00
G1 X7923.00 Y5796.00
G1 X7872.00 Y5850.00
G1 X7990.00 Y5687.00
G1 X8066.00 Y5634.00
G1 X8237.00 Y5625.00
G1 X8354.00 Y5459.00
G1 X8360.00 Y5320.00
G1 X8335.00 Y5375.00
G1 X8230.00 Y5564.00
G1 X8204.00 Y5564.00
G1 X8318.00 Y5335.00
G1 X8323.00 Y5270.00
G1 X8367.00 Y5270.00
G1 X8600.00 Y5134.00
G1 X8516.00 Y5159.00
G1 X8407.00 Y5209.00
G1 X8250.00 Y5236.00
G1 X8321.00 Y5208.00
G1 X8562.00 Y5093.00
G1 X8572.00 Y5058.00
G1 X8457.00 Y5097.00
G1 X8135.00 Y5203.00
G1 X8068.00 Y5215.00
G1 X8050.00 Y5213.00
G1 X8128.00 Y5186.00
G1 X8450.00 Y5073.00
G1 X8535.00 Y5005.00
G1 X8391.00 Y5036.00
G1 X8145.00 Y5129.00
G1 X7981.00 Y5190.00
G1 X7947.00 Y5197.00
G1 X8179.00 Y5095.00
G1 X8520.00 Y4939.00
G1 X8344.00 Y4966.00
G1 X7975.00 Y5120.00
G1 X7920.00 Y5139.00
G1 X8477.00 Y4904.00
G1 X8501.00 Y4881.00
G1 X8413.00 Y4878.00
G1 X7930.00 Y5076.00
G1 X7910.00 Y5081.00
G1 X8385.00 Y4855.00
G1 X8468.00 Y4835.00
G1 X8446.00 Y4815.00
G1 X8343.00 Y4814.00
G1 X7997.00 Y4968.00
G1 X7965.00 Y4976.00
G1 X8416.00 Y4770.00
G1 X8469.00 Y4787.00
G1 X8499.00 Y4805.00
G1 X8554.00 Y4751.00
G1 X8563.00 Y4693.00
G1 X8493.00 Y4749.00
G1 X8433.00 Y4751.00
G1 X8340.00 Y4740.00
G1 X8003.00 Y4903.00
G1 X7980.00 Y4914.00
G1 X8092.00 Y4811.00
G1 X8339.00 Y4714.00
G1 X8375.00 Y4694.00
G1 X8091.00 Y4741.00
G1 X8032.00 Y4766.00
G1 X8211.00 Y4666.00
G1 X8393.00 Y4666.00
G1 X8424.00 Y4683.00
G1 X8502.00 Y4602.00
G1 X8580.00 Y4500.00
G1 X8572.00 Y4480.00
G1 X8485.00 Y4546.00
G1 X8365.00 Y4628.00
G1 X8466.00 Y4522.00
G1 X8560.00 Y4395.00
G1 X8357.00 Y4557.00
G1 X8318.00 Y4607.00
G1 X8237.00 Y4618.00
G1 X8115.00 Y4647.00
G1 X7941.00 Y4777.00
G1 X7905.00 Y4801.00
G1 X7964.00 Y4725.00
G1 X8227.00 Y4593.00
G1 X8359.00 Y4514.00
G1 X8387.00 Y4404.00
G1 X8356.00 Y4448.00
G1 X8258.00 Y4550.00
G1 X8274.00 Y4525.00
G1 X8370.00 Y4343.00
G1 X8334.00 Y4371.00
G1 X8164.00 Y4530.00
G1 X7956.00 Y4652.00
G1 X7879.00 Y4734.00
G1 X7847.00 Y4739.00
G1 X8148.00 Y4520.00
G1 X8236.00 Y4454.00
G1 X8330.00 Y4253.00
G1 X8338.00 Y4223.00
G1 X8470.00 Y4070.00
G1 X8395.00 Y4088.00
G1 X8365.00 Y4088.00
G1 X8430.00 Y3959.00
G1 X8384.00 Y3967.00
G1 X8318.00 Y4046.00
G1 X8280.00 Y4087.00
G1 X8300.00 Y4143.00
G1 X8300.00 Y4255.00
G1 X8196.00 Y4419.00
G1 X8180.00 Y4409.00
G1 X8264.00 Y4094.00
G1 X8235.00 Y4060.00
G1 X8219.00 Y4255.00
G1 X8120.00 Y4369.00
G1 X8146.00 Y4329.00
G1 X8220.00 Y4105.00
G1 X8225.00 Y3985.00
G1 X8250.00 Y4027.00
G1 X8280.00 Y4070.00
G1 X8338.00 Y3988.00
G1 X8388.00 Y3876.00
G1 X8375.00 Y3844.00
G1 X8320.00 Y3903.00
G1 X8262.00 Y3968.00
G1 X8305.00 Y3886.00
G1 X8340.00 Y3801.00
G1 X8334.00 Y3757.00
G1 X8272.00 Y3826.00
G1 X8238.00 Y3837.00
G1 X8284.00 Y3763.00
G1 X8291.00 Y3666.00
G1 X8229.00 Y3743.00
G1 X8172.00 Y3808.00
G1 X8207.00 Y3734.00
G1 X8237.00 Y3577.00
G1 X8199.00 Y3617.00
G1 X8120.00 Y3713.00
G1 X8155.00 Y3650.00
G1 X8191.00 Y3530.00
G1 X8161.00 Y3523.00
G1 X8110.00 Y3613.00
G1 X8070.00 Y3686.00
G1 X8109.00 Y3780.00
G1 X8155.00 Y3887.00
G1 X8034.00 Y4232.00
G1 X8044.00 Y4180.00
G1 X8127.00 Y3882.00
G1 X8096.00 Y3869.00
G1 X8020.00 Y4100.00
G1 X7940.00 Y4192.00
G1 X7949.00 Y4175.00
G1 X8056.00 Y3954.00
G1 X7995.00 Y3567.00
G1 X7958.00 Y3520.00
G1 X7953.00 Y3533.00
G1 X7987.00 Y3610.00
G1 X8015.00 Y3790.00
G1 X7943.00 Y4063.00
G1 X7894.00 Y4117.00
G1 X7919.00 Y4061.00
G1 X7986.00 Y3728.00
G1 X7957.00 Y3722.00
G1 X7942.00 Y3876.00
G1 X7839.00 Y4050.00
G1 X7870.00 Y3973.00
G1 X7881.00 Y3548.00
G1 X7824.00 Y3439.00
G1 X7824.00 Y3468.00
G1 X7817.00 Y3906.00
G1 X7794.00 Y3903.00
G1 X7849.00 Y3650.00
G1 X7820.00 Y3528.00
G1 X7744.00 Y3392.00
G1 X7766.00 Y3459.00
G1 X7775.00 Y3740.00
G1 X7699.00 Y3870.00
G1 X7692.00 Y3863.00
G1 X7765.00 Y3625.00
G1 X7736.00 Y3440.00
G1 X7698.00 Y3335.00
G1 X7695.00 Y3350.00
G1 X7694.00 Y3685.00
G1 X7701.00 Y3591.00
G1 X7659.00 Y3352.00
G1 X7646.00 Y3365.00
G1 X7629.00 Y3605.00
G1 X7630.00 Y3580.00
G1 X7599.00 Y3324.00
G1 X7498.00 Y3170.00
G1 X7532.00 Y3255.00
G1 X7585.00 Y3506.00
G1 X7570.00 Y3465.00
G1 X7494.00 Y3240.00
G1 X7390.00 Y3101.00
G1 X7404.00 Y3129.00
G1 X7495.00 Y3346.00
G1 X7408.00 Y3787.00
G1 X7400.00 Y3757.00
G1 X7464.00 Y3611.00
G1 X7466.00 Y3340.00
G1 X7300.00 Y3061.00
G1 X7329.00 Y3113.00
G1 X7427.00 Y3465.00
G1 X7327.00 Y3804.00
G1 X7307.00 Y3800.00
G1 X7401.00 Y3511.00
G1 X7340.00 Y3195.00
G1 X7223.00 Y3023.00
G1 X7264.00 Y3107.00
G1 X7337.00 Y3368.00
G1 X7283.00 Y3510.00
G1 X7287.00 Y3478.00
G1 X7297.00 Y3240.00
G1 X7283.00 Y3195.00
G1 X7276.00 Y3270.00
G1 X7207.00 Y3482.00
G1 X7151.00 Y3612.00
G1 X7001.00 Y3990.00
G1 X7024.00 Y3917.00
G1 X7130.00 Y3610.00
G1 X7165.00 Y3515.00
G1 X7245.00 Y3260.00
G1 X7216.00 Y3115.00
G1 X7193.00 Y3092.00
G1 X7112.00 Y3459.00
G1 X7095.00 Y3448.00
G1 X7171.00 Y3118.00
G1 X7075.00 Y2950.00
G1 X7100.00 Y3025.00
G1 X7135.00 Y3165.00
G1 X7041.00 Y3393.00
G1 X7020.00 Y3388.00
G1 X7108.00 Y3184.00
G1 X7087.00 Y3057.00
G1 X6960.00 Y2875.00
G1 X6937.00 Y2855.00
G1 X6950.00 Y2880.00
G1 X6986.00 Y2940.00
G1 X7050.00 Y3144.00
G1 X7026.00 Y3245.00
G1 X6933.00 Y3346.00
G1 X6952.00 Y3317.00
G1 X7006.00 Y3236.00
G1 X7027.00 Y3126.00
G1 X6903.00 Y2871.00
G1 X6898.00 Y2901.00
G1 X6970.00 Y3108.00
G1 X6912.00 Y3268.00
G1 X6925.00 Y3224.00
G1 X6840.00 Y2862.00
G1 X6805.00 Y2847.00
G1 X6871.00 Y3133.00
G1 X6789.00 Y3330.00
G1 X6804.00 Y3275.00
G1 X6857.00 Y3040.00
G1 X6743.00 Y2802.00
G1 X6761.00 Y2906.00
G1 X6776.00 Y3078.00
G1 X6709.00 Y3314.00
G1 X6705.00 Y3300.00
G1 X6663.00 Y2798.00
G1 X6516.00 Y2650.00
G1 X6560.00 Y2707.00
G1 X6677.00 Y2917.00
G1 X6682.00 Y3084.00
G1 X6612.00 Y3322.00
G1 X6604.00 Y3315.00
G1 X6654.00 Y3040.00
G1 X6623.00 Y2844.00
G1 X6467.00 Y2658.00
G1 X6482.00 Y2691.00
G1 X6600.00 Y3062.00
G1 X6579.00 Y3242.00
G1 X6475.00 Y3394.00
G1 X6490.00 Y3356.00
G1 X6570.00 Y3000.00
G1 X6532.00 Y2819.00
G1 X6470.00 Y2738.00
G1 X6500.00 Y2811.00
G1 X6530.00 Y3218.00
G1 X6396.00 Y3365.00
G1 X6410.00 Y3326.00
G1 X6505.00 Y3149.00
G1 X6511.00 Y3095.00
G1 X6483.00 Y3164.00
G1 X6333.00 Y3350.00
G1 X6365.00 Y3298.00
G1 X6425.00 Y3221.00
G1 X6455.00 Y3041.00
G1 X6430.00 Y3077.00
G1 X6307.00 Y3289.00
G1 X6308.00 Y3255.00
G1 X6407.00 Y3015.00
G1 X6410.00 Y2945.00
G1 X6397.00 Y2990.00
G1 X6262.00 Y3213.00
G1 X6260.00 Y3176.00
G1 X6338.00 Y3066.00
G1 X6370.00 Y2859.00
G1 X6361.00 Y2849.00
G1 X6340.00 Y2940.00
G1 X6191.00 Y3164.00
G1 X6205.00 Y3120.00
G1 X6282.00 Y3000.00
G1 X6317.00 Y2830.00
G1 X6319.00 Y2725.00
G1 X6304.00 Y2785.00
G1 X6155.00 Y3100.00
G1 X6140.00 Y3083.00
G1 X6278.00 Y2715.00
G1 X6256.00 Y2740.00
G1 X6080.00 Y3090.00
G1 X6042.00 Y3119.00
G1 X6191.00 Y2838.00
G1 X6249.00 Y2605.00
G1 X6223.00 Y2640.00
G1 X6175.00 Y2771.00
G1 X6047.00 Y3025.00
G1 X5983.00 Y3128.00
G1 X5963.00 Y3147.00
G1 X6026.00 Y3029.00
G1 X6150.00 Y2770.00
G1 X6180.00 Y2680.00
G1 X6210.00 Y2565.00
G1 X6157.00 Y2637.00
G1 X6097.00 Y2756.00
G1 X6105.00 Y2690.00
G1 X6105.00 Y2348.00
G1 X5987.00 Y1840.00
G1 X5963.00 Y1535.00
G1 X5948.00 Y1545.00
G1 X5959.00 Y1890.00
G1 X6069.00 Y2385.00
G1 X6078.00 Y2716.00
G1 X6066.00 Y2593.00
G1 X5948.00 Y1925.00
G1 X5924.00 Y1546.00
G1 X5911.00 Y1531.00
G1 X5992.00 Y2280.00
G1 X6025.00 Y2595.00
G1 X6028.00 Y2785.00
G1 X6020.00 Y2620.00
G1 X5951.00 Y2190.00
G1 X5860.00 Y1672.00
G1 X5893.00 Y1535.00
G1 X5958.00 Y1380.00
G1 X5955.00 Y1329.00
G1 X5868.00 Y1374.00
G1 X5580.00 Y1420.00
G1 X5420.00 Y1359.00
G1 X5472.00 Y1370.00
G1 X5735.00 Y1397.00
G1 X5824.00 Y1369.00
G1 X5810.00 Y1366.00
G1 X5695.00 Y1373.00
G1 X5525.00 Y1346.00
G1 X5424.00 Y1292.00
G1 X5502.00 Y1305.00
G1 X5777.00 Y1326.00
G1 X6019.00 Y1153.00
G1 X6026.00 Y1116.00
G1 X6021.00 Y1083.00
G1 X6029.00 Y1005.00
G1 X6009.00 Y1058.00
G1 X5989.00 Y1025.00
G1 X5969.00 Y910.00
G1 X5959.00 Y948.00
G1 X5950.00 Y1010.00
G1 X5941.00 Y974.00
G1 X5927.00 Y901.00
G1 X5900.00 Y949.00
G1 X5890.00 Y1010.00
G1 X5880.00 Y958.00
G1 X5870.00 Y890.00
G1 X5853.00 Y890.00
G1 X5839.00 Y922.00
G1 X5833.00 Y955.00
G1 X5831.00 Y923.00
G1 X5811.00 Y881.00
G1 X5787.00 Y943.00
G1 X5714.00 Y1137.00
G1 X5725.00 Y1094.00
G1 X5739.00 Y869.00
G1 X5699.00 Y908.00
G1 X5689.00 Y975.00
G1 X5683.00 Y930.00
G1 X5660.00 Y865.00
G1 X5629.00 Y895.00
G1 X5622.00 Y925.00
G1 X5621.00 Y892.00
G1 X5593.00 Y862.00
G1 X5561.00 Y910.00
G1 X5556.00 Y955.00
G1 X5551.00 Y910.00
G1 X5526.00 Y862.00
G1 X5490.00 Y921.00
G1 X5449.00 Y1050.00
G1 X5454.00 Y962.00
G1 X5460.00 Y885.00
G1 X5417.00 Y882.00
G1 X5366.00 Y914.00
G1 X5356.00 Y918.00
G1 X5321.00 Y921.00
G1 X5293.00 Y946.00
G1 X5305.00 Y920.00
G1 X5260.00 Y936.00
G1 X5220.00 Y954.00
G1 X5190.00 Y969.00
G1 X5152.00 Y996.00
G1 X5114.00 Y1022.00
G1 X4989.00 Y1323.00
G1 X4966.00 Y1431.00
G1 X4988.00 Y1478.00
G1 X4991.00 Y1503.00
G1 X4975.00 Y1510.00
G1 X4978.00 Y1542.00
G1 X4953.00 Y1545.00
G1 X4976.00 Y1591.00
G1 X4970.00 Y1614.00
G1 X4963.00 Y1648.00
G1 X4968.00 Y1676.00
G1 X4890.00 Y1650.00
G1 X4914.00 Y1670.00
G1 X4998.00 Y1776.00
G1 X4962.00 Y1742.00
G1 X4899.00 Y1690.00
G1 X4844.00 Y1706.00
G1 X4847.00 Y1771.00
G1 X4975.00 Y1860.00
G1 X4949.00 Y1849.00
G1 X4792.00 Y1812.00
G1 X4818.00 Y1854.00
G1 X4940.00 Y1937.00
G1 X4913.00 Y1928.00
G1 X4760.00 Y1895.00
G1 X4805.00 Y1929.00
G1 X4900.00 Y1998.00
G1 X4878.00 Y1993.00
G1 X4778.00 Y1951.00
G1 X4745.00 Y1952.00
G1 X4780.00 Y1963.00
G1 X4815.00 Y1973.00
G1 X4780.00 Y1980.00
G1 X4776.00 Y2023.00
G1 X4878.00 Y2065.00
G1 X4825.00 Y2054.00
G1 X4711.00 Y2064.00
G1 X4756.00 Y2084.00
G1 X4870.00 Y2132.00
G1 X4825.00 Y2125.00
G1 X4735.00 Y2111.00
G1 X4743.00 Y2125.00
G1 X4744.00 Y2150.00
G1 X4660.00 Y2217.00
G1 X4707.00 Y2222.00
G1 X4788.00 Y2239.00
G1 X4790.00 Y2265.00
G1 X4679.00 Y2260.00
G1 X4689.00 Y2284.00
G1 X4737.00 Y2289.00
G1 X4719.00 Y2300.00
G1 X4670.00 Y2315.00
G1 X4689.00 Y2330.00
G1 X4720.00 Y2340.00
G1 X4696.00 Y2350.00
G1 X4640.00 Y2371.00
G1 X4717.00 Y2369.00
G1 X4735.00 Y2369.00
G1 X4728.00 Y2384.00
G1 X4678.00 Y2400.00
G1 X4622.00 Y2445.00
G1 X4664.00 Y2439.00
G1 X4656.00 Y2463.00
G1 X4640.00 Y2505.00
G1 X4635.00 Y2531.00
G1 X4621.00 Y2568.00
G1 X4617.00 Y2595.00
G1 X4617.00 Y2632.00
G1 X4655.00 Y2635.00
G1 X4613.00 Y2649.00
G1 X4608.00 Y2692.00
G1 X4645.00 Y2696.00
G1 X4611.00 Y2706.00
G1 X4600.00 Y2740.00
G1 X4625.00 Y2750.00
G1 X4601.00 Y2760.00
G1 X4570.00 Y2775.00
G1 X4589.00 Y2790.00
G1 X4598.00 Y2812.00
G1 X4575.00 Y2825.00
G1 X4598.00 Y2838.00
G1 X4594.00 Y2860.00
G1 X4568.00 Y2860.00
G1 X4589.00 Y2894.00
G1 X4595.00 Y2930.00
G1 X4590.00 Y2950.00
G1 X4578.00 Y2964.00
G1 X4592.00 Y3002.00
G1 X4585.00 Y3020.00
G1 X4585.00 Y3060.00
G1 X4575.00 Y3083.00
G1 X4565.00 Y3103.00
G1 X4695.00 Y3418.00
G1 X4676.00 Y3420.00
G1 X4554.00 Y3195.00
G1 X4535.00 Y3145.00
G1 X4532.00 Y3188.00
G1 X4705.00 Y3546.00
G1 X4718.00 Y3565.00
G1 X4601.00 Y3471.00
G1 X4509.00 Y3270.00
G1 X4492.00 Y3205.00
G1 X4491.00 Y3269.00
G1 X4541.00 Y3501.00
G1 X4656.00 Y3618.00
G1 X4636.00 Y3630.00
G1 X4460.00 Y3293.00
G1 X4436.00 Y3246.00
G1 X4430.00 Y3345.00
G1 X4515.00 Y3641.00
G1 X4504.00 Y3666.00
G1 X4434.00 Y3521.00
G1 X4426.00 Y3511.00
G1 X4445.00 Y3663.00
G1 X4441.00 Y3680.00
G1 X4391.00 Y3511.00
G1 X4364.00 Y3425.00
G1 X4363.00 Y3725.00
G1 X4336.00 Y3686.00
G1 X4319.00 Y3526.00
G1 X4318.00 Y3445.00
G1 X4298.00 Y3489.00
G1 X4284.00 Y3779.00
G1 X4296.00 Y3868.00
G1 X4259.00 Y3751.00
G1 X4246.00 Y3682.00
G1 X4235.00 Y3720.00
G1 X4256.00 Y3994.00
G1 X4260.00 Y4040.00
G1 X4219.00 Y3898.00
G1 X4209.00 Y3840.00
G1 X4215.00 Y4058.00
G1 X4211.00 Y4080.00
G1 X4162.00 Y3927.00
G1 X4140.00 Y3842.00
G1 X4004.00 Y3713.00
G1 X4108.00 Y3788.00
G1 X4164.00 Y3832.00
G1 X4170.00 Y3799.00
G1 X4098.00 Y3706.00
G1 X4033.00 Y3634.00
G1 X4170.00 Y3743.00
G1 X4194.00 Y3755.00
G1 X4140.00 Y3620.00
G1 X4085.00 Y3551.00
G1 X4192.00 Y3646.00
G1 X4211.00 Y3670.00
G1 X4229.00 Y3597.00
G1 X4120.00 Y3500.00
G1 X4133.00 Y3487.00
G1 X4186.00 Y3531.00
G1 X4232.00 Y3580.00
G1 X4242.00 Y3553.00
G1 X4196.00 Y3478.00
G1 X4153.00 Y3423.00
G1 X4203.00 Y3458.00
G1 X4252.00 Y3500.00
G1 X4264.00 Y3475.00
G1 X4315.00 Y3384.00
G1 X4360.00 Y3310.00
G1 X4307.00 Y3341.00
G1 X4291.00 Y3360.00
G1 X4318.00 Y3294.00
G1 X4380.00 Y3198.00
G1 X4339.00 Y3230.00
G1 X4345.00 Y3195.00
G1 X4438.00 Y3010.00
G1 X4291.00 Y3241.00
G1 X4233.00 Y3363.00
G1 X4288.00 Y3185.00
G1 X4376.00 Y3037.00
G1 X4450.00 Y2908.00
G1 X4209.00 Y3228.00
G1 X4140.00 Y3331.00
G1 X4261.00 Y3092.00
G1 X4322.00 Y2997.00
G1 X4394.00 Y2902.00
G1 X4432.00 Y2830.00
G1 X4285.00 Y2984.00
G1 X4221.00 Y3073.00
G1 X4153.00 Y3180.00
G1 X4025.00 Y3398.00
G1 X4088.00 Y3249.00
G1 X4348.00 Y2861.00
G1 X4406.00 Y2793.00
G1 X4239.00 Y2928.00
G1 X3978.00 Y3340.00
G1 X3914.00 Y3447.00
G1 X4121.00 Y3023.00
G1 X4237.00 Y2884.00
G1 X4297.00 Y2814.00
G1 X4150.00 Y2926.00
G1 X3986.00 Y3158.00
G1 X3969.00 Y3142.00
G1 X4169.00 Y2860.00
G1 X4184.00 Y2844.00
G1 X4041.00 Y2966.00
G1 X3733.00 Y3505.00
G1 X3673.00 Y3659.00
G1 X3800.00 Y3264.00
G1 X4018.00 Y2943.00
G1 X4081.00 Y2860.00
G1 X3853.00 Y3079.00
G1 X3638.00 Y3557.00
G1 X3590.00 Y3690.00
G1 X3676.00 Y3349.00
G1 X3709.00 Y3279.00
G1 X3750.00 Y3180.00
G1 X3935.00 Y2931.00
G1 X3910.00 Y2935.00
G1 X3600.00 Y3375.00
G1 X3514.00 Y3698.00
G1 X3499.00 Y3756.00
G1 X3525.00 Y3558.00
G1 X3772.00 Y3033.00
G1 X3850.00 Y2945.00
G1 X3631.00 Y3160.00
G1 X3423.00 Y3696.00
G1 X3400.00 Y3775.00
G1 X3397.00 Y3743.00
G1 X3548.00 Y3246.00
G1 X3693.00 Y3053.00
G1 X3783.00 Y2950.00
G1 X3610.00 Y3094.00
G1 X3468.00 Y3305.00
G1 X3351.00 Y3650.00
G1 X3325.00 Y3730.00
G1 X3349.00 Y3558.00
G1 X3570.00 Y3090.00
G1 X3630.00 Y3013.00
G1 X3590.00 Y3041.00
G1 X3426.00 Y3258.00
G1 X3385.00 Y3303.00
G1 X3341.00 Y3388.00
G1 X3250.00 Y3765.00
G1 X3234.00 Y3869.00
G1 X3234.00 Y3733.00
G1 X3364.00 Y3278.00
G1 X3434.00 Y3177.00
G1 X3439.00 Y3140.00
G1 X3364.00 Y3231.00
G1 X3165.00 Y3746.00
G1 X3150.00 Y3890.00
G1 X3139.00 Y3926.00
G1 X3156.00 Y3661.00
G1 X3347.00 Y3200.00
G1 X3360.00 Y3172.00
G1 X3200.00 Y3395.00
G1 X3125.00 Y3590.00
G1 X3070.00 Y3915.00
G1 X3061.00 Y3925.00
G1 X3091.00 Y3646.00
G1 X3171.00 Y3392.00
G1 X3200.00 Y3324.00
G1 X3235.00 Y3262.00
G1 X3271.00 Y3205.00
G1 X3240.00 Y3240.00
G1 X3099.00 Y3480.00
G1 X2994.00 Y3874.00
G1 X2970.00 Y3928.00
G1 X3126.00 Y3363.00
G1 X3156.00 Y3303.00
G1 X3066.00 Y3427.00
G1 X2947.00 Y3711.00
G1 X2890.00 Y4008.00
G1 X2867.00 Y4063.00
G1 X2904.00 Y3794.00
G1 X3046.00 Y3400.00
G1 X3061.00 Y3375.00
G1 X3039.00 Y3400.00
G1 X2884.00 Y3716.00
G1 X2820.00 Y4039.00
G1 X2810.00 Y4110.00
G1 X2826.00 Y3875.00
G1 X2910.00 Y3590.00
G1 X2944.00 Y3510.00
G1 X2802.00 Y3785.00
G1 X2750.00 Y4074.00
G1 X2727.00 Y4200.00
G1 X2725.00 Y4108.00
G1 X2841.00 Y3593.00
G1 X2871.00 Y3514.00
G1 X2725.00 Y3793.00
G1 X2672.00 Y4173.00
G1 X2665.00 Y4267.00
G1 X2674.00 Y3867.00
G1 X2620.00 Y3925.00
G1 X2581.00 Y4180.00
G1 X2561.00 Y4315.00
G1 X2554.00 Y4220.00
G1 X2529.00 Y4254.00
G1 X2536.00 Y4468.00
G1 X2508.00 Y4468.00
G1 X2531.00 Y4075.00
G1 X2545.00 Y4029.00
G1 X2505.00 Y3914.00
G1 X2426.00 Y3795.00
G1 X2389.00 Y3730.00
G1 X2510.00 Y3881.00
G1 X2571.00 Y3964.00
G1 X2358.00 Y3554.00
G1 X2140.00 Y3330.00
G1 X2130.00 Y3320.00
G1 X2246.00 Y3403.00
G1 X2527.00 Y3765.00
G1 X2590.00 Y3870.00
G1 X2607.00 Y3840.00
G1 X2573.00 Y3732.00
G1 X2166.00 Y3245.00
G1 X2109.00 Y3180.00
G1 X2340.00 Y3377.00
G1 X2600.00 Y3729.00
G1 X2635.00 Y3767.00
G1 X2384.00 Y3309.00
G1 X2254.00 Y3174.00
G1 X2097.00 Y3020.00
G1 X2397.00 Y3293.00
G1 X2645.00 Y3665.00
G1 X2680.00 Y3658.00
G1 X2456.00 Y3285.00
G1 X2025.00 Y2874.00
G1 X1891.00 Y2806.00
G1 X1819.00 Y2766.00
G1 X2045.00 Y2862.00
G1 X2530.00 Y3344.00
G1 X2594.00 Y3428.00
G1 X2675.00 Y3552.00
G1 X2713.00 Y3584.00
G1 X2709.00 Y3531.00
G1 X2389.00 Y3070.00
G1 X1928.00 Y2725.00
G1 X1880.00 Y2699.00
G1 X2150.00 Y2814.00
G1 X2683.00 Y3437.00
G1 X2722.00 Y3425.00
G1 X2270.00 Y2846.00
G1 X2030.00 Y2709.00
G1 X2015.00 Y2685.00
G1 X2299.00 Y2837.00
G1 X2583.00 Y3152.00
G1 X2636.00 Y3230.00
G1 X2582.00 Y3094.00
G1 X2412.00 Y2872.00
G1 X2025.00 Y2659.00
G1 X2041.00 Y2640.00
G1 X2391.00 Y2820.00
G1 X2660.00 Y3209.00
G1 X2782.00 Y3452.00
G1 X2650.00 Y3104.00
G1 X2422.00 Y2794.00
G1 X2270.00 Y2708.00
G1 X2138.00 Y2639.00
G1 X2066.00 Y2614.00
G1 X2003.00 Y2595.00
G1 X2078.00 Y2576.00
G1 X2169.00 Y2569.00
G1 X2135.00 Y2507.00
G1 X1996.00 Y2148.00
G1 X1979.00 Y1950.00
G1 X1990.00 Y1993.00
G1 X2206.00 Y2580.00
G1 X2191.00 Y2506.00
G1 X2051.00 Y2057.00
G1 X2048.00 Y1950.00
G1 X2067.00 Y2049.00
G1 X2196.00 Y2471.00
G1 X2240.00 Y2579.00
G1 X2250.00 Y2590.00
G1 X2205.00 Y2420.00
G1 X2115.00 Y2025.00
G1 X2111.00 Y1915.00
G1 X2125.00 Y2033.00
G1 X2155.00 Y2215.00
G1 X2291.00 Y2572.00
G1 X2264.00 Y2449.00
G1 X2164.00 Y2045.00
G1 X2194.00 Y1859.00
G1 X2220.00 Y1665.00
G1 X2210.00 Y1689.00
G1 X2176.00 Y1770.00
G1 X2167.00 Y1711.00
G1 X2141.00 Y1696.00
G1 X2078.00 Y1820.00
G1 X2072.00 Y1813.00
G1 X2104.00 Y1619.00
G1 X2074.00 Y1661.00
G1 X2062.00 Y1725.00
G1 X2061.00 Y1664.00
G1 X2045.00 Y1590.00
G1 X2011.00 Y1646.00
G1 X2002.00 Y1705.00
G1 X2001.00 Y1644.00
G1 X1975.00 Y1578.00
G1 X1938.00 Y1629.00
G1 X1937.00 Y1675.00
G1 X1931.00 Y1625.00
G1 X1893.00 Y1572.00
G1 X1853.00 Y1597.00
G1 X1845.00 Y1718.00
G1 X1836.00 Y1807.00
G1 X1813.00 Y1648.00
G1 X1799.00 Y1570.00
G1 X1772.00 Y1632.00
G1 X1762.00 Y1695.00
G1 X1763.00 Y1635.00
G1 X1747.00 Y1572.00
G1 X1730.00 Y1580.00
G1 X1716.00 Y1581.00
G1 X1650.00 Y1622.00
G1 X1642.00 Y1650.00
G1 X1638.00 Y1616.00
G1 X1622.00 Y1587.00
G1 X1580.00 Y1612.00
G1 X1561.00 Y1718.00
G1 X1553.00 Y1807.00
G1 X1520.00 Y1691.00
G1 X1519.00 Y1635.00
G1 X1498.00 Y1660.00
G1 X1469.00 Y1683.00
G1 X1410.00 Y1818.00
G1 X1434.00 Y2380.00
G1 X1443.00 Y2720.00
G1 X1440.00 Y2746.00
G1 X1433.00 Y2785.00
G1 X1433.00 Y2818.00
G1 X1431.00 Y2845.00
G1 X1432.00 Y2886.00
G1 X1424.00 Y2905.00
G1 X1395.00 Y2918.00
G1 X1425.00 Y2931.00
G1 X1455.00 Y2944.00
G1 X1428.00 Y2948.00
G1 X1420.00 Y2970.00
G1 X1423.00 Y2995.00
G1 X1403.00 Y3031.00
G1 X1407.00 Y3044.00
G1 X1439.00 Y3020.00
G1 X1432.00 Y3048.00
G1 X1400.00 Y3099.00
G1 X1497.00 Y3022.00
G1 X1525.00 Y3002.00
G1 X1595.00 Y3278.00
G1 X1559.00 Y3163.00
G1 X1532.00 Y3060.00
G1 X1517.00 Y3025.00
G1 X1509.00 Y3055.00
G1 X1510.00 Y3140.00
G1 X1555.00 Y3343.00
G1 X1551.00 Y3360.00
G1 X1535.00 Y3338.00
G1 X1493.00 Y3145.00
G1 X1479.00 Y3125.00
G1 X1515.00 Y3402.00
G1 X1520.00 Y3445.00
G1 X1466.00 Y3298.00
G1 X1425.00 Y3272.00
G1 X1487.00 Y3533.00
G1 X1462.00 Y3523.00
G1 X1423.00 Y3405.00
G1 X1392.00 Y3353.00
G1 X1445.00 Y3603.00
G1 X1451.00 Y3645.00
G1 X1391.00 Y3494.00
G1 X1360.00 Y3422.00
G1 X1389.00 Y3649.00
G1 X1396.00 Y3725.00
G1 X1353.00 Y3608.00
G1 X1319.00 Y3536.00
G1 X1351.00 Y3750.00
G1 X1369.00 Y3900.00
G1 X1369.00 Y3886.00
G1 X1362.00 Y3833.00
G1 X1319.00 Y3723.00
G1 X1288.00 Y3656.00
G1 X1280.00 Y3711.00
G1 X1355.00 Y3938.00
G1 X1362.00 Y3980.00
G1 X1313.00 Y3882.00
G1 X1256.00 Y3788.00
G1 X1304.00 Y3982.00
G1 X1329.00 Y4066.00
G1 X1304.00 Y4033.00
G1 X1262.00 Y3940.00
G1 X1236.00 Y3885.00
G1 X1232.00 Y3931.00
G1 X1291.00 Y4119.00
G1 X1306.00 Y4157.00
G1 X1248.00 Y4079.00
G1 X1210.00 Y4082.00
G1 X1277.00 Y4216.00
G1 X1283.00 Y4241.00
G1 X1221.00 Y4163.00
G1 X1190.00 Y4153.00
G1 X1246.00 Y4287.00
G1 X1260.00 Y4330.00
G1 X1217.00 Y4278.00
G1 X1182.00 Y4248.00
G1 X1243.00 Y4372.00
G1 X1210.00 Y4370.00
G1 X1182.00 Y4336.00
G1 X1175.00 Y4425.00
G1 X1221.00 Y5151.00
G1 X1358.00 Y5343.00
G1 X1383.00 Y5380.00
G1 X1263.00 Y5244.00
G1 X1220.00 Y5222.00
G1 X1347.00 Y5421.00
G1 X1419.00 Y5510.00
G1 X1328.00 Y5428.00
G1 X1250.00 Y5368.00
G1 X1420.00 Y5583.00
G1 X1457.00 Y5626.00
G1 X1323.00 Y5509.00
G1 X1272.00 Y5454.00
G1 X1286.00 Y5510.00
G1 X1376.00 Y5628.00
G1 X1477.00 Y5717.00
G1 X1489.00 Y5740.00
G1 X1397.00 Y5674.00
G1 X1349.00 Y5676.00
G1 X1574.00 Y5871.00
G1 X1828.00 Y5988.00
G1 X1800.00 Y5961.00
G1 X1640.00 Y5854.00
G1 X1698.00 Y5881.00
G1 X1800.00 Y5937.00
G1 X1862.00 Y5973.00
G1 X1890.00 Y5974.00
G1 X1621.00 Y5807.00
G1 X1538.00 Y5746.00
G1 X1573.00 Y5760.00
G1 X1673.00 Y5815.00
G1 X1839.00 Y5905.00
G1 X1962.00 Y5958.00
G1 X1874.00 Y5880.00
G1 X1735.00 Y5796.00
G1 X1732.00 Y5783.00
G1 X1910.00 Y5876.00
G1 X2060.00 Y5947.00
G1 X1952.00 Y5869.00
G1 X1814.00 Y5763.00
G1 X1940.00 Y5842.00
G1 X2116.00 Y5947.00
G1 X1968.00 Y5809.00
G1 X1904.00 Y5740.00
G1 X2080.00 Y5869.00
G1 X2185.00 Y5940.00
G1 X2033.00 Y5788.00
G1 X1980.00 Y5738.00
G1 X2114.00 Y5829.00
G1 X2258.00 Y5944.00
G1 X2229.00 Y5883.00
G1 X2073.00 Y5723.00
G1 X2133.00 Y5766.00
G1 X2393.00 Y5973.00
G1 X2353.00 Y5911.00
G1 X2161.00 Y5738.00
G1 X2232.00 Y5781.00
G1 X2335.00 Y5870.00
G1 X2415.00 Y5940.00
G1 X2505.00 Y6000.00
G1 X2380.00 Y5863.00
G1 X2259.00 Y5742.00
G1 X2489.00 Y5939.00
G1 X2635.00 Y6040.00
G1 X2515.00 Y5900.00
G1 X2395.00 Y5772.00
G1 X2583.00 Y5938.00
G1 X2681.00 Y6032.00
G1 X2733.00 Y6016.00
G1 X3054.00 Y5963.00
G1 X3178.00 Y5971.00
G1 X3063.00 Y5991.00
G1 X2748.00 Y6046.00
G1 X2716.00 Y6084.00
G1 X3155.00 Y6024.00
G1 X3245.00 Y6007.00
G1 X3258.00 Y6015.00
G1 X3030.00 Y6074.00
G1 X2790.00 Y6130.00
G1 X2820.00 Y6150.00
G1 X3348.00 Y6033.00
G1 X3360.00 Y6043.00
G1 X3007.00 Y6170.00
G1 X2934.00 Y6225.00
G1 X3358.00 Y6114.00
G1 X3430.00 Y6094.00
G1 X3048.00 Y6250.00
G1 X3015.00 Y6286.00
G1 X3398.00 Y6179.00
G1 X3424.00 Y6195.00
G1 X3245.00 Y6274.00
G1 X3100.00 Y6319.00
G1 X3075.00 Y6327.00
G1 X3101.00 Y6340.00
G1 X3500.00 Y6221.00
G1 X3539.00 Y6223.00
G1 X3182.00 Y6376.00
G1 X3176.00 Y6391.00
G1 X3572.00 Y6269.00
G1 X3585.00 Y6286.00
G1 X3336.00 Y6410.00
G1 X3424.00 Y6425.00
G1 X3665.00 Y6320.00
G1 X3690.00 Y6324.00
G1 X3387.00 Y6470.00
G1 X3332.00 Y6501.00
G1 X3703.00 Y6408.00
G1 X3743.00 Y6418.00
G1 X3493.00 Y6516.00
G1 X3454.00 Y6550.00
G1 X3802.00 Y6450.00
G1 X3860.00 Y6438.00
G1 X3565.00 Y6568.00
G1 X3474.00 Y6592.00
G1 X3506.00 Y6606.00
G1 X3821.00 Y6529.00
G1 X3904.00 Y6517.00
G1 X3648.00 Y6624.00
G1 X3677.00 Y6647.00
G1 X3926.00 Y6558.00
G1 X3977.00 Y6534.00
G1 X3970.00 Y6566.00
G1 X3766.00 Y6665.00
G1 X3689.00 Y6694.00
G1 X3980.00 Y6610.00
G1 X4078.00 Y6530.00
G1 X4000.00 Y6491.00
G1 X4041.00 Y6497.00
G1 X4089.00 Y6505.00
G1 X4021.00 Y6464.00
G1 X3930.00 Y6428.00
G1 X3948.00 Y6425.00
G1 X4010.00 Y6438.00
G1 X4042.00 Y6428.00
G1 X3922.00 Y6394.00
G1 X3871.00 Y6364.00
G1 X3842.00 Y6324.00
G1 X3903.00 Y6318.00
G1 X3947.00 Y6288.00
G1 X3893.00 Y6277.00
G1 X3826.00 Y6276.00
G1 X3860.00 Y6250.00
G1 X3909.00 Y6224.00
G1 X3830.00 Y6219.00
G1 X3756.00 Y6205.00
G1 X3817.00 Y6191.00
G1 X3882.00 Y6180.00
G1 X3793.00 Y6151.00
G1 X3718.00 Y6144.00
G1 X3780.00 Y6128.00
G1 X3838.00 Y6102.00
G1 X3767.00 Y6088.00
G1 X3691.00 Y6056.00
G1 X3753.00 Y6062.00
G1 X3816.00 Y6067.00
G1 X3810.00 Y6041.00
G1 X3766.00 Y6020.00
G1 X3666.00 Y5995.00
G1 X3773.00 Y6000.00
G1 X3780.00 Y5940.00
G1 X3753.00 Y5813.00
G1 X3747.00 Y5740.00
G1 X3809.00 Y5740.00
G1 X4074.00 Y5771.00
G1 X4020.00 Y5780.00
G1 X3864.00 Y5766.00
G1 X3762.00 Y5761.00
G1 X3773.00 Y5784.00
G1 X3905.00 Y5813.00
G1 X4097.00 Y5846.00
G1 X3951.00 Y5839.00
G1 X3804.00 Y5832.00
G1 X3809.00 Y5858.00
G1 X3937.00 Y5884.00
G1 X4118.00 Y5920.00
G1 X4104.00 Y5926.00
G1 X3832.00 Y5905.00
G1 X3966.00 Y5948.00
G1 X4128.00 Y5986.00
G1 X4059.00 Y5980.00
G1 X3860.00 Y5978.00
G1 X3946.00 Y6010.00
G1 X4061.00 Y6021.00
G1 X4133.00 Y6033.00
G1 X4150.00 Y6048.00
G1 X4133.00 Y6056.00
G1 X3911.00 Y6035.00
G1 X3921.00 Y6056.00
G1 X4026.00 Y6081.00
G1 X4178.00 Y6122.00
G1 X4143.00 Y6125.00
G1 X3945.00 Y6108.00
G1 X4075.00 Y6150.00
G1 X4208.00 Y6193.00
G1 X4164.00 Y6197.00
G1 X3992.00 Y6165.00
G1 X4076.00 Y6205.00
G1 X4190.00 Y6238.00
G1 X4185.00 Y6255.00
G1 X4094.00 Y6234.00
G1 X4040.00 Y6243.00
G1 X4063.00 Y6264.00
G1 X4155.00 Y6280.00
G1 X4260.00 Y6310.00
G1 X4127.00 Y6295.00
G1 X4095.00 Y6300.00
G1 X4110.00 Y6328.00
G1 X4120.00 Y6340.00
G1 X4130.00 Y6330.00
G1 X4265.00 Y6346.00
G1 X4250.00 Y6355.00
G1 X4171.00 Y6343.00
G1 X4144.00 Y6348.00
G1 X4228.00 Y6376.00
G1 X4268.00 Y6399.00
G1 X4175.00 Y6400.00
G1 X4315.00 Y6441.00
G1 X4281.00 Y6445.00
G1 X4206.00 Y6450.00
G1 X4295.00 Y6475.00
G1 X4394.00 Y6510.00
G1 X4372.00 Y6515.00
G1 X4255.00 Y6497.00
G1 X4315.00 Y6526.00
G1 X4386.00 Y6564.00
G1 X4471.00 Y6622.00
G1 X4409.00 Y6604.00
G1 X4295.00 Y6552.00
G1 X4390.00 Y6621.00
G1 X4533.00 Y6712.00
G1 X4588.00 Y6740.00
G1 X4587.00 Y6625.00
G1 X4550.00 Y6566.00
G1 X4527.00 Y6527.00
G1 X4553.00 Y6545.00
G1 X4580.00 Y6553.00
G1 X4539.00 Y6520.00
G1 X4502.00 Y6484.00
G1 X4534.00 Y6491.00
G1 X4568.00 Y6496.00
G1 X4509.00 Y6450.00
G1 X4490.00 Y6439.00
G1 X4525.00 Y6434.00
G1 X4518.00 Y6399.00
G1 X4491.00 Y6365.00
G1 X4537.00 Y6382.00
G1 X4566.00 Y6387.00
G1 X4509.00 Y6345.00
G1 X4464.00 Y6313.00
G1 X4513.00 Y6324.00
G1 X4515.00 Y6294.00
G1 X4450.00 Y6253.00
G1 X4511.00 Y6266.00
G1 X4574.00 Y6287.00
G1 X4614.00 Y6189.00
G1 X4744.00 Y5923.00
G1 X4814.00 Y5848.00
G1 X4772.00 Y6138.00
G1 X4799.00 Y6040.00
G1 X4891.00 Y5759.00
G1 X4900.00 Y5780.00
G1 X4836.00 Y6035.00
G1 X4845.00 Y6049.00
G1 X4879.00 Y5933.00
G1 X4978.00 Y5678.00
G1 X4986.00 Y5685.00
G1 X4930.00 Y5917.00
G1 X4970.00 Y5811.00
G1 X5100.00 Y5565.00
G1 X5059.00 Y5664.00
G1 X5007.00 Y5840.00
G1 X5082.00 Y5701.00
G1 X5138.00 Y5647.00
G1 X5103.00 Y5747.00
G1 X5172.00 Y5620.00
G1 X5235.00 Y5505.00
G1 X5261.00 Y5475.00
G1 X5236.00 Y5525.00
G1 X5184.00 Y5660.00
G1 X5228.00 Y5593.00
G1 X5372.00 Y5420.00
G1 X5361.00 Y5448.00
G1 X5282.00 Y5566.00
G1 X5357.00 Y5486.00
G1 X5583.00 Y5280.00
G1 X5510.00 Y5365.00
G1 X5431.00 Y5454.00
G1 X5511.00 Y5394.00
G1 X5795.00 Y5212.00
G1 X5975.00 Y5111.00
G1 X6078.00 Y5055.00
G1 X6027.00 Y5127.00
G1 X5889.00 Y5380.00
G1 X5872.00 Y5394.00
G1 X5894.00 Y5301.00
G1 X5909.00 Y5226.00
G1 X5800.00 Y5451.00
G1 X5789.00 Y5475.00
G1 X5821.00 Y5336.00
G1 X5845.00 Y5262.00
G1 X5801.00 Y5319.00
G1 X5720.00 Y5526.00
G1 X5709.00 Y5555.00
G1 X5732.00 Y5402.00
G1 X5747.00 Y5333.00
G1 X5663.00 Y5504.00
G1 X5635.00 Y5589.00
G1 X5655.00 Y5460.00
G1 X5664.00 Y5395.00
G1 X5565.00 Y5604.00
G1 X5543.00 Y5657.00
G1 X5591.00 Y5471.00
G1 X5599.00 Y5416.00
G1 X5499.00 Y5608.00
G1 X5471.00 Y5669.00
G1 X5517.00 Y5494.00
G1 X5514.00 Y5480.00
G1 X5430.00 Y5645.00
G1 X5398.00 Y5725.00
G1 X5393.00 Y5715.00
G1 X5415.00 Y5630.00
G1 X5440.00 Y5540.00
G1 X5450.00 Y5515.00
G1 X5431.00 Y5537.00
G1 X5374.00 Y5655.00
G1 X5333.00 Y5747.00
G1 X5350.00 Y5674.00
G1 X5361.00 Y5600.00
G1 X5284.00 Y5775.00
G1 X5260.00 Y5818.00
G1 X5280.00 Y5729.00
G1 X5296.00 Y5662.00
G1 X5200.00 Y5885.00
G1 X5190.00 Y5910.00
G1 X5206.00 Y5770.00
G1 X5215.00 Y5721.00
G1 X5140.00 Y5916.00
G1 X5124.00 Y5990.00
G1 X5135.00 Y5845.00
G1 X5128.00 Y5838.00
G1 X5079.00 Y6007.00
G1 X5077.00 Y6095.00
G1 X5066.00 Y6015.00
G1 X5030.00 Y6048.00
G1 X5020.00 Y6070.00
G1 X5011.00 Y5995.00
G1 X4995.00 Y6013.00
G1 X4994.00 Y6106.00
G1 X4981.00 Y6118.00
G1 X4972.00 Y6085.00
G1 X4971.00 Y6121.00
G1 X4985.00 Y6200.00
G1 X5000.00 Y6249.00
G1 X4954.00 Y6150.00
G1 X4941.00 Y6128.00
G1 X4930.00 Y6150.00
G1 X4936.00 Y6233.00
G1 X4951.00 Y6265.00
G1 X4921.00 Y6230.00
G1 X4890.00 Y6220.00
G1 X5018.00 Y6449.00
G1 X5046.00 Y6434.00
G1 X5042.00 Y6408.00
G1 X5074.00 Y6406.00
G1 X5084.00 Y6387.00
G1 X5093.00 Y6364.00
G1 X5108.00 Y6359.00
G1 X5114.00 Y6329.00
G1 X5105.00 Y6300.00
G1 X5125.00 Y6307.00
G1 X5140.00 Y6290.00
G1 X5149.00 Y6282.00
G1 X5166.00 Y6265.00
G1 X5180.00 Y6242.00
G1 X5199.00 Y6224.00
G1 X5201.00 Y6210.00
G1 X5225.00 Y6190.00
G1 X5218.00 Y6158.00
G1 X5236.00 Y6163.00
G1 X5264.00 Y6155.00
G1 X5284.00 Y6147.00
G1 X5302.00 Y6152.00
G1 X5301.00 Y6127.00
G1 X5296.00 Y6096.00
G1 X5320.00 Y6095.00
G1 X5332.00 Y6063.00
G1 X5352.00 Y6057.00
G1 X5369.00 Y6044.00
G1 X5383.00 Y6034.00
G1 X5393.00 Y6008.00
G1 X5392.00 Y5990.00
G1 X5420.00 Y6005.00
G1 X5443.00 Y6013.00
G1 X5435.00 Y5993.00
G1 X5455.00 Y5979.00
G1 X5500.00 Y5960.00
G1 X5508.00 Y5940.00
G1 X5485.00 Y5950.00
G1 X5450.00 Y5934.00
G1 X5521.00 Y5920.00
G1 X5575.00 Y5911.00
G1 X5567.00 Y5900.00
G1 X5537.00 Y5882.00
G1 X5585.00 Y5868.00
G1 X5623.00 Y5830.00
G1 X5595.00 Y5809.00
G1 X5630.00 Y5814.00
G1 X5688.00 Y5826.00
G1 X5690.00 Y5805.00
G1 X5725.00 Y5780.00
G1 X5745.00 Y5754.00
G1 X5748.00 Y5731.00
G1 X5850.00 Y5720.00
G1 X5813.00 Y5704.00
G1 X5775.00 Y5697.00
G1 X5805.00 Y5688.00
G1 X5884.00 Y5687.00
G1 X5928.00 Y5679.00
G1 X5894.00 Y5660.00
G1 X5865.00 Y5654.00
G1 X5890.00 Y5647.00
G1 X5965.00 Y5640.00
G1 X6015.00 Y5640.00
G1 X5990.00 Y5619.00
G1 X5965.00 Y5599.00
G1 X5998.00 Y5605.00
G1 X6073.00 Y5605.00
G1 X6090.00 Y5587.00
G1 X6065.00 Y5576.00
G1 X6095.00 Y5572.00
G1 X6246.00 Y5544.00
G1 X6400.00 Y5520.00
G1 X6417.00 Y5538.00
G1 X6439.00 Y5657.00
G1 X6449.00 Y5704.00
G1 X6403.00 Y5623.00
G1 X6350.00 Y5560.00
G1 X6330.00 Y5585.00
G1 X6382.00 Y5712.00
G1 X6390.00 Y5750.00
G1 X6314.00 Y5617.00
G1 X6296.00 Y5584.00
G1 X6210.00 Y5616.00
G1 X6288.00 Y5732.00
G1 X6327.00 Y5787.00
G1 X6218.00 Y5673.00
G1 X6150.00 Y5644.00
G1 X6224.00 Y5813.00
G1 X6236.00 Y5838.00
G1 X6132.00 Y5707.00
G1 X6076.00 Y5665.00
G1 X6142.00 Y5845.00
G1 X6127.00 Y5854.00
G1 X6060.00 Y5771.00
G1 X6009.00 Y5695.00
G1 X5992.00 Y5733.00
G1 X6067.00 Y5878.00
G1 X6087.00 Y5906.00
G1 X5978.00 Y5783.00
G1 X5950.00 Y5730.00
G1 X5906.00 Y5778.00
G1 X5980.00 Y5899.00
G1 X5967.00 Y5911.00
G1 X5904.00 Y5833.00
G1 X5855.00 Y5780.00
G1 X5907.00 Y5938.00
G1 X5922.00 Y5964.00
G1 X5824.00 Y5865.00
G1 X5799.00 Y5820.00
G1 X5774.00 Y5845.00
G1 X5776.00 Y5905.00
G1 X5834.00 Y5980.00
G1 X5867.00 Y6026.00
G1 X5755.00 Y5910.00
G1 X5727.00 Y5870.00
G1 X5670.00 Y5934.00
G1 X5784.00 Y6045.00
G1 X5757.00 Y6046.00
G1 X5668.00 Y5971.00
G1 X5623.00 Y5921.00
G1 X5601.00 Y5950.00
G1 X5580.00 Y5994.00
G1 X5725.00 Y6100.00
G1 X5737.00 Y6130.00
G1 X5579.00 Y6034.00
G1 X5516.00 Y6029.00
G1 X5539.00 Y6083.00
G1 X5630.00 Y6145.00
G1 X5680.00 Y6180.00
G1 X5613.00 Y6163.00
G1 X5517.00 Y6097.00
G1 X5469.00 Y6071.00
G1 X5460.00 Y6095.00
G1 X5587.00 Y6237.00
G1 X5626.00 Y6278.00
G1 X5451.00 Y6121.00
G1 X5420.00 Y6149.00
G1 X5570.00 Y6342.00
G1 X5573.00 Y6353.00
G1 X5396.00 Y6165.00
G1 X5371.00 Y6178.00
G1 X5361.00 Y6227.00
G1 X5481.00 Y6374.00
G1 X5526.00 Y6417.00
G1 X5383.00 Y6300.00
G1 X5307.00 Y6244.00
G1 X5323.00 Y6323.00
G1 X5414.00 Y6428.00
G1 X5460.00 Y6480.00
G1 X5297.00 Y6310.00
G1 X5278.00 Y6276.00
G1 X5259.00 Y6300.00
G1 X5244.00 Y6341.00
G1 X5229.00 Y6353.00
G1 X5210.00 Y6357.00
G1 X5357.00 Y6490.00
G1 X5406.00 Y6528.00
G1 X5236.00 Y6411.00
G1 X5186.00 Y6397.00
G1 X5307.00 Y6526.00
G1 X5386.00 Y6592.00
G1 X5217.00 Y6473.00
G1 X5163.00 Y6472.00
G1 X5325.00 Y6618.00
G1 X5355.00 Y6642.00
G1 X5321.00 Y6622.00
G1 X5215.00 Y6541.00
G1 X5136.00 Y6480.00
G1 X5130.00 Y6494.00
G1 X5118.00 Y6513.00
G1 X5239.00 Y6624.00
G1 X5335.00 Y6685.00
G1 X5330.00 Y6689.00
G1 X5252.00 Y6644.00
G1 X5192.00 Y6610.00
G1 X5150.00 Y6580.00
G1 X5090.00 Y6559.00
G1 X5323.00 Y6743.00
G1 X5370.00 Y6776.00
G1 X5175.00 Y6665.00
G1 X5083.00 Y6606.00
G1 X5111.00 Y6672.00
G1 X5151.00 Y6710.00
G1 X5106.00 Y6688.00
G1 X5120.00 Y6744.00
G1 X5180.00 Y6786.00
G1 X5115.00 Y6758.00
G1 X5044.00 Y6749.00
G1 X5106.00 Y6790.00
G1 X5101.00 Y6806.00
G1 X5036.00 Y6795.00
G1 X5131.00 Y6857.00
G1 X5217.00 Y6907.00
G1 X5053.00 Y6838.00
G1 X5025.00 Y6832.00
G1 X5125.00 Y6902.00
G1 X5230.00 Y6949.00
G1 X5224.00 Y6956.00
G1 X5115.00 Y6915.00
G1 X5035.00 Y6900.00
G1 X5243.00 Y7000.00
G1 X5307.00 Y7026.00
G1 X5102.00 Y6964.00
G1 X5039.00 Y6964.00
G1 X5655.00 Y7125.00
G1 X5851.00 Y7184.00
G1 X5961.00 Y7246.00
G1 X5934.00 Y7242.00
G1 X5586.00 Y7140.00
G1 X5099.00 Y7019.00
G1 X5077.00 Y7033.00
G1 X5553.00 Y7155.00
G1 X5937.00 Y7278.00
G1 X5924.00 Y7289.00
G1 X5565.00 Y7180.00
G1 X5124.00 Y7081.00
G1 X5050.00 Y7070.00
G1 X5410.00 Y7180.00
G1 X5730.00 Y7252.00
G1 X5987.00 Y7357.00
G1 X5847.00 Y7311.00
G1 X5459.00 Y7211.00
G1 X5143.00 Y7145.00
G1 X5066.00 Y7145.00
G1 X5371.00 Y7230.00
G1 X5777.00 Y7320.00
G1 X5946.00 Y7390.00
G1 X5811.00 Y7350.00
G1 X5375.00 Y7251.00
G1 X5197.00 Y7219.00
G1 X5092.00 Y7204.00
G1 X5321.00 Y7275.00
G1 X5765.00 Y7368.00
G1 X5910.00 Y7417.00
G1 X5942.00 Y7435.00
G1 X5782.00 Y7391.00
G1 X5480.00 Y7320.00
G1 X5200.00 Y7270.00
G1 X5104.00 Y7269.00
G1 X5425.00 Y7349.00
G1 X5804.00 Y7429.00
G1 X6038.00 Y7480.00
G1 X6125.00 Y7489.00
G1 X6020.00 Y7485.00
G1 X5810.00 Y7445.00
G1 X5440.00 Y7370.00
G1 X5158.00 Y7325.00
G1 X5168.00 Y7353.00
G1 X5545.00 Y7431.00
G1 X5770.00 Y7467.00
G1 X5165.00 Y7384.00
G1 X5168.00 Y7399.00
G1 X5675.00 Y7496.00
G1 X5765.00 Y7508.00
G1 X5570.00 Y7500.00
G1 X5225.00 Y7455.00
G1 X5241.00 Y7474.00
G1 X5560.00 Y7545.00
G1 X6220.00 Y7562.00
G1 X6278.00 Y7566.00
G1 X6150.00 Y7580.00
G1 X5236.00 Y7504.00
G1 X5268.00 Y7539.00
G1 X5520.00 Y7601.00
G1 X5555.00 Y7614.00
G1 X5295.00 Y7575.00
G1 X5310.00 Y7594.00
G1 X5615.00 Y7660.00
G1 X5745.00 Y7668.00
G1 X5585.00 Y7665.00
G1 X5353.00 Y7637.00
G1 X5333.00 Y7654.00
G1 X5765.00 Y7710.00
G1 X5875.00 Y7711.00
G1 X5402.00 Y7705.00
G1 X5337.00 Y7693.00
G1 X5540.00 Y7766.00
G1 X6060.00 Y7750.00
G1 X6199.00 Y7735.00
G1 X6065.00 Y7761.00
G1 X5377.00 Y7743.00
G1 X5382.00 Y7763.00
G1 X5520.00 Y7817.00
G1 X5790.00 Y7845.00
G1 X5920.00 Y7851.00
G1 X5420.00 Y7810.00
G1 X5400.00 Y7814.00
G1 X5625.00 Y7901.00
G1 X5646.00 Y7914.00
G1 X5435.00 Y7865.00
G1 X5415.00 Y7858.00
G1 X5435.00 Y7875.00
G1 X5603.00 Y7936.00
G1 X6169.00 Y7849.00
G1 X6227.00 Y7834.00
G1 X5890.00 Y7930.00
G1 X5516.00 Y7942.00
G1 X5507.00 Y7958.00
G1 X6164.00 Y7914.00
G1 X6247.00 Y7883.00
G1 X6065.00 Y7963.00
G1 X5696.00 Y8014.00
G1 X5551.00 Y8020.00
G1 X5655.00 Y8050.00
G1 X6138.00 Y7991.00
G1 X6186.00 Y7979.00
G1 X5902.00 Y8079.00
G1 X5680.00 Y8076.00
G1 X5585.00 Y8056.00
G1 X5626.00 Y8085.00
G1 X5788.00 Y8132.00
G1 X5962.00 Y8123.00
G1 X6258.00 Y8000.00
G1 X6415.00 Y7909.00
G1 X6055.00 Y8113.00
G1 X5745.00 Y8145.00
G1 X5634.00 Y8123.00
G1 X5638.00 Y8145.00
G1 X5725.00 Y8165.00
G1 X5795.00 Y8177.00
G1 X5726.00 Y8179.00
G1 X5663.00 Y8186.00
G1 X5862.00 Y8199.00
G1 X6155.00 Y8135.00
G1 X6210.00 Y8116.00
G1 X6020.00 Y8193.00
G1 X5821.00 Y8222.00
G1 X5721.00 Y8248.00
G1 X5825.00 Y8270.00
G1 X5895.00 Y8279.00
G1 X5808.00 Y8276.00
G1 X5764.00 Y8305.00
G1 X6116.00 Y8260.00
G1 X6200.00 Y8225.00
G1 X6002.00 Y8321.00
G1 X5852.00 Y8341.00
G1 X5833.00 Y8369.00
G1 X5844.00 Y8391.00
G1 X5795.00 Y8392.00
G1 X5835.00 Y8400.00
G1 X6176.00 Y8314.00
G1 X6220.00 Y8294.00
G1 X6025.00 Y8395.00
G1 X5895.00 Y8429.00
G1 X5835.00 Y8436.00
G1 X5872.00 Y8455.00
G1 X6020.00 Y8446.00
G1 X6148.00 Y8414.00
G1 X6121.00 Y8431.00
G1 X5988.00 Y8474.00
G1 X5900.00 Y8503.00
G1 X6075.00 Y8494.00
G1 X6160.00 Y8485.00
G1 X5958.00 Y8534.00
G1 X5933.00 Y8563.00
G1 X6135.00 Y8544.00
G1 X6139.00 Y8549.00
G1 X6036.00 Y8576.00
G1 X5966.00 Y8603.00
G1 X6105.00 Y8595.00
G1 X6125.00 Y8588.00
G1 X6105.00 Y8602.00
G1 X5990.00 Y8637.00
G1 X5977.00 Y8646.00
G1 X6035.00 Y8660.00
G1 X6206.00 Y8598.00
G1 X6643.00 Y8210.00
G1 X6830.00 Y7630.00
G1 X6861.00 Y7463.00
G1 X6866.00 Y7393.00
G1 X6869.00 Y7345.00
G1 X6865.00 Y7571.00
G1 X6744.00 Y8050.00
G1 X6496.00 Y8428.00
G1 X6271.00 Y8586.00
G1 X6031.00 Y8696.00
G1 X6039.00 Y8714.00
G1 X6163.00 Y8674.00
G1 X6153.00 Y8700.00
G1 X6093.00 Y8760.00
G1 X6160.00 Y8734.00
G1 X6346.00 Y8657.00
G1 X6129.00 Y8777.00
G1 X6113.00 Y8818.00
G1 X6235.00 Y8764.00
G1 X6345.00 Y8712.00
G1 X6243.00 Y8786.00
G1 X6163.00 Y8858.00
G1 X6296.00 Y8796.00
G1 X6413.00 Y8730.00
G1 X6287.00 Y8829.00
G1 X6220.00 Y8895.00
G1 X6420.00 Y8769.00
G1 X6470.00 Y8745.00
G1 X6289.00 Y8908.00
G1 X6255.00 Y8930.00
G1 X6285.00 Y8930.00
G1 X6350.00 Y8909.00
G1 X6568.00 Y8690.00
G1 X6631.00 Y8610.00
G1 X6710.00 Y8485.00
G1 X6745.00 Y8430.00
G1 X6384.00 Y8911.00
G1 X6380.00 Y8960.00
G1 X6443.00 Y8923.00
G1 X6568.00 Y8790.00
G1 X6766.00 Y8492.00
G1 X6794.00 Y8440.00
G1 X6606.00 Y8770.00
G1 X6477.00 Y8918.00
G1 X6429.00 Y8980.00
G1 X6462.00 Y8980.00
G1 X6604.00 Y8841.00
G1 X6650.00 Y8809.00
G1 X6585.00 Y8901.00
G1 X6520.00 Y8993.00
G1 X6594.00 Y8984.00
G1 X6686.00 Y8838.00
G1 X6714.00 Y8813.00
G1 X6645.00 Y8951.00
G1 X6610.00 Y9011.00
G1 X6648.00 Y9018.00
G1 X6741.00 Y8902.00
G1 X6805.00 Y8782.00
G1 X6755.00 Y8931.00
G1 X6710.00 Y9028.00
G1 X6758.00 Y9028.00
G1 X6805.00 Y9025.00
G1 X6832.00 Y8922.00
G1 X6850.00 Y8930.00
G1 X6830.00 Y9028.00
G1 X6898.00 Y9027.00
G1 X5880.00 Y8786.00
G1 X5868.00 Y8758.00
G1 X5857.00 Y8807.00
G1 X5774.00 Y8995.00
G1 X5759.00 Y9030.00
G1 X5810.00 Y8979.00
G1 X5919.00 Y8832.00
G1 X5918.00 Y8775.00
G1 X5909.00 Y8817.00
G1 X5834.00 Y8987.00
G1 X5862.00 Y8983.00
G1 X6000.00 Y8850.00
G1 X5990.00 Y8888.00
G1 X5976.00 Y8963.00
G1 X5970.00 Y9000.00
G1 X5988.00 Y8968.00
G1 X5962.00 Y8825.00
G1 X5947.00 Y8860.00
G1 X5921.00 Y8946.00
G1 X5934.00 Y8958.00
G1 X6050.00 Y8835.00
G1 X6037.00 Y8895.00
G1 X6016.00 Y8970.00
G1 X6024.00 Y8969.00
G1 X6045.00 Y8894.00
G1 X8617.00 Y8423.00
G1 X8601.00 Y8428.00
G1 X8695.00 Y8639.00
G1 X8705.00 Y8628.00
G1 X5691.00 Y8568.00
G1 X5666.00 Y8575.00
G1 X5660.00 Y8600.00
G1 X8653.00 Y8425.00
G1 X8625.00 Y8406.00
G1 X8657.00 Y8443.00
G1 X8695.00 Y8500.00
G1 X8706.00 Y8517.00
G1 X8696.00 Y8478.00
G1 X3450.00 Y8101.00
G1 X3726.00 Y7420.00
G1 X3698.00 Y7405.00
G1 X3611.00 Y7786.00
G1 X3190.00 Y8223.00
G1 X2476.00 Y8440.00
G1 X2413.00 Y8461.00
G1 X2688.00 Y8460.00
G1 X8533.00 Y8302.00
G1 X8742.00 Y8440.00
G1 X8784.00 Y8445.00
G1 X2872.00 Y8358.00
G1 X3158.00 Y8200.00
G1 X3257.00 Y8097.00
G1 X3493.00 Y7783.00
G1 X3584.00 Y7370.00
G1 X3558.00 Y7128.00
G1 X3296.00 Y6740.00
G1 X2903.00 Y6585.00
G1 X2648.00 Y6643.00
G1 X2600.00 Y6682.00
G1 X2653.00 Y6665.00
G1 X3099.00 Y6681.00
G1 X3541.00 Y7253.00
G1 X3390.00 Y7857.00
G1 X3151.00 Y8100.00
G1 X3234.00 Y8003.00
G1 X3434.00 Y7720.00
G1 X3496.00 Y7155.00
G1 X3080.00 Y6711.00
G1 X2610.00 Y6718.00
G1 X2528.00 Y6758.00
G1 X2520.00 Y6740.00
G1 X2662.00 Y6594.00
G1 X2771.00 Y6554.00
G1 X3195.00 Y6627.00
G1 X3245.00 Y6651.00
G1 X3205.00 Y6616.00
G1 X2627.00 Y6498.00
G1 X2465.00 Y6649.00
G1 X2438.00 Y6690.00
G1 X2521.00 Y6535.00
G1 X2780.00 Y6433.00
G1 X3030.00 Y6466.00
G1 X2902.00 Y6382.00
G1 X2730.00 Y6345.00
G1 X2592.00 Y6368.00
G1 X2563.00 Y6355.00
G1 X2745.00 Y6310.00
G1 X2825.00 Y6309.00
G1 X2765.00 Y6278.00
G1 X2532.00 Y6285.00
G1 X2385.00 Y6394.00
G1 X2239.00 Y6847.00
G1 X2240.00 Y6910.00
G1 X2214.00 Y6868.00
G1 X2196.00 Y6735.00
G1 X2229.00 Y6569.00
G1 X2589.00 Y6225.00
G1 X2625.00 Y6211.00
G1 X2588.00 Y6211.00
G1 X2230.00 Y6412.00
G1 X2226.00 Y7083.00
G1 X2255.00 Y7130.00
G1 X2118.00 Y6980.00
G1 X2086.00 Y6652.00
G1 X2434.00 Y6217.00
G1 X2404.00 Y6195.00
G1 X2068.00 Y6512.00
G1 X2020.00 Y6568.00
G1 X2142.00 Y6344.00
G1 X2333.00 Y6188.00
G1 X2370.00 Y6155.00
G1 X1985.00 Y6546.00
G1 X1985.00 Y6888.00
G1 X2224.00 Y7210.00
G1 X2360.00 Y7239.00
G1 X2435.00 Y7251.00
G1 X2395.00 Y7271.00
G1 X1973.00 Y6955.00
G1 X1955.00 Y6541.00
G1 X2201.00 Y6195.00
G1 X2182.00 Y6189.00
G1 X1942.00 Y6433.00
G1 X1876.00 Y6725.00
G1 X1898.00 Y6912.00
G1 X1945.00 Y7014.00
G1 X1915.00 Y7022.00
G1 X1791.00 Y6772.00
G1 X1794.00 Y6504.00
G1 X2006.00 Y6195.00
G1 X2060.00 Y6142.00
G1 X1885.00 Y6261.00
G1 X1705.00 Y6676.00
G1 X1740.00 Y6960.00
G1 X1739.00 Y6985.00
G1 X1700.00 Y6904.00
G1 X1749.00 Y6397.00
G1 X1790.00 Y6312.00
G1 X1697.00 Y6423.00
G1 X1648.00 Y6544.00
G1 X1616.00 Y6735.00
G1 X1648.00 Y6929.00
G1 X1700.00 Y7051.00
G1 X1711.00 Y7085.00
G1 X1626.00 Y6949.00
G1 X1591.00 Y6659.00
G1 X1695.00 Y6378.00
G1 X1710.00 Y6335.00
G1 X1553.00 Y6585.00
G1 X1527.00 Y6765.00
G1 X1590.00 Y7088.00
G1 X1797.00 Y7338.00
G1 X1833.00 Y7383.00
G1 X1571.00 Y7098.00
G1 X1496.00 Y6885.00
G1 X1496.00 Y6952.00
G1 X1571.00 Y7219.00
G1 X1577.00 Y7268.00
G1 X1489.00 Y7090.00
G1 X1488.00 Y6677.00
G1 X1719.00 Y6288.00
G1 X1807.00 Y6190.00
G1 X1649.00 Y6303.00
G1 X1469.00 Y6631.00
G1 X1440.00 Y7096.00
G1 X1786.00 Y7576.00
G1 X1745.00 Y7576.00
G1 X1473.00 Y7265.00
G1 X1425.00 Y7140.00
G1 X1396.00 Y6920.00
G1 X1476.00 Y6533.00
G1 X1516.00 Y6433.00
G1 X1355.00 Y6777.00
G1 X1344.00 Y7220.00
G1 X1520.00 Y7562.00
G1 X1715.00 Y7730.00
G1 X1802.00 Y7776.00
G1 X2338.00 Y7866.00
G1 X2333.00 Y7891.00
G1 X1960.00 Y7865.00
G1 X1466.00 Y7542.00
G1 X1318.00 Y7245.00
G1 X1320.00 Y6795.00
G1 X1361.00 Y6657.00
G1 X1357.00 Y6620.00
G1 X1234.00 Y7060.00
G1 X1254.00 Y7273.00
G1 X1482.00 Y7676.00
G1 X1995.00 Y7941.00
G1 X2310.00 Y7947.00
G1 X2346.00 Y7954.00
G1 X2111.00 Y7977.00
G1 X1663.00 Y7828.00
G1 X1605.00 Y7805.00
G1 X1850.00 Y7951.00
G1 X2458.00 Y7978.00
G1 X2528.00 Y7968.00
G1 X2455.00 Y8009.00
G1 X2020.00 Y8021.00
G1 X1635.00 Y7864.00
G1 X1423.00 Y7654.00
G1 X1266.00 Y7402.00
G1 X1244.00 Y7363.00
G1 X1354.00 Y7708.00
G1 X1557.00 Y8041.00
G1 X2185.00 Y8393.00
G1 X2715.00 Y8399.00
G1 X8582.00 Y8240.00
G1 X8610.00 Y8290.00
G1 X8740.00 Y8350.00
G1 X8810.00 Y8372.00
G1 X8643.00 Y8210.00
G1 X8685.00 Y8239.00
G1 X8749.00 Y8264.00
G1 X8749.00 Y8258.00
G1 X3569.00 Y7797.00
G1 X3657.00 Y7435.00
G1 X3547.00 Y6980.00
G1 X3554.00 Y7026.00
G1 X3615.00 Y7355.00
G1 X3529.00 Y7770.00
G1 X3195.00 Y8177.00
G1 X3240.00 Y8164.00
G1 X8801.00 Y8095.00
G1 X8729.00 Y8100.00
G1 X8690.00 Y8110.00
G1 X8795.00 Y8104.00
G1 X5198.00 Y7941.00
G1 X5257.00 Y7926.00
G1 X5139.00 Y7931.00
G1 X4880.00 Y8099.00
G1 X5066.00 Y8003.00
G1 X8929.00 Y8006.00
G1 X8835.00 Y8030.00
G1 X8700.00 Y8069.00
G1 X8725.00 Y8075.00
G1 X8830.00 Y8060.00
G1 X4974.00 Y7971.00
G1 X4916.00 Y8025.00
G1 X4967.00 Y8000.00
G1 X5045.00 Y7938.00
G1 X8927.00 Y7954.00
G1 X8685.00 Y8031.00
G1 X8800.00 Y8013.00
G1 X5255.00 Y7879.00
G1 X5145.00 Y7861.00
G1 X4890.00 Y7909.00
G1 X5160.00 Y7891.00
G1 X5220.00 Y7820.00
G1 X5030.00 Y7785.00
G1 X4865.00 Y7820.00
G1 X4927.00 Y7840.00
G1 X5113.00 Y7833.00
G1 X5127.00 Y7745.00
G1 X5147.00 Y7719.00
G1 X5160.00 Y7690.00
G1 X4911.00 Y7698.00
G1 X4870.00 Y7731.00
G1 X5044.00 Y7760.00
G1 X5178.00 Y7775.00
G1 X5199.00 Y7780.00
G1 X5205.00 Y7771.00
G1 X5045.00 Y7611.00
G1 X5065.00 Y7625.00
G1 X5095.00 Y7625.00
G1 X5027.00 Y7540.00
G1 X4938.00 Y7515.00
G1 X4896.00 Y7516.00
G1 X5110.00 Y7578.00
G1 X5085.00 Y7559.00
G1 X8859.00 Y7529.00
G1 X8385.00 Y7470.00
G1 X8296.00 Y7458.00
G1 X8651.00 Y7559.00
G1 X8877.00 Y7545.00
G1 X4843.00 Y7433.00
G1 X4969.00 Y7506.00
G1 X4951.00 Y7478.00
G1 X4969.00 Y7428.00
G1 X4873.00 Y7391.00
G1 X4919.00 Y7429.00
G1 X5041.00 Y7494.00
G1 X5049.00 Y7477.00
G1 X7667.00 Y7416.00
G1 X7616.00 Y7421.00
G1 X7559.00 Y7432.00
G1 X7562.00 Y7467.00
G1 X7660.00 Y7470.00
G1 X5033.00 Y7413.00
G1 X4912.00 Y7359.00
G1 X4799.00 Y7324.00
G1 X5016.00 Y7424.00
G1 X5036.00 Y7433.00
G1 X5050.00 Y7430.00
G1 X7886.00 Y7235.00
G1 X7875.00 Y7253.00
G1 X7890.00 Y7347.00
G1 X7901.00 Y7393.00
G1 X7908.00 Y7322.00
G1 X4967.00 Y7309.00
G1 X4905.00 Y7261.00
G1 X4804.00 Y7188.00
G1 X4755.00 Y7152.00
G1 X4885.00 Y7275.00
G1 X4966.00 Y7340.00
G1 X4835.00 Y7270.00
G1 X4801.00 Y7268.00
G1 X4970.00 Y7363.00
G1 X4998.00 Y7353.00
G1 X6386.00 Y7202.00
G1 X6352.00 Y7198.00
G1 X6259.00 Y7216.00
G1 X6230.00 Y7199.00
G1 X6230.00 Y7228.00
G1 X6360.00 Y7285.00
G1 X4937.00 Y7237.00
G1 X4820.00 Y7146.00
G1 X4751.00 Y7095.00
G1 X4925.00 Y7254.00
G1 X4990.00 Y7280.00
G1 X4826.00 Y7093.00
G1 X4751.00 Y7042.00
G1 X4979.00 Y7234.00
G1 X4941.00 Y7191.00
G1 X6542.00 Y7048.00
G1 X6534.00 Y7055.00
G1 X6553.00 Y7140.00
G1 X6571.00 Y7178.00
G1 X6568.00 Y7106.00
G1 X4816.00 Y7035.00
G1 X4743.00 Y6944.00
G1 X4746.00 Y6973.00
G1 X4792.00 Y7043.00
G1 X4868.00 Y7106.00
G1 X4977.00 Y7190.00
G1 X4971.00 Y7172.00
G1 X4858.00 Y7013.00
G1 X4765.00 Y6906.00
G1 X4739.00 Y6891.00
G1 X4833.00 Y7029.00
G1 X4895.00 Y7074.00
G1 X4935.00 Y7087.00
G1 X6231.00 Y6974.00
G1 X6309.00 Y6950.00
G1 X6355.00 Y6942.00
G1 X6310.00 Y6941.00
G1 X6156.00 Y7017.00
G1 X6129.00 Y7110.00
G1 X6140.00 Y7092.00
G1 X4867.00 Y6973.00
G1 X4801.00 Y6884.00
G1 X4723.00 Y6764.00
G1 X4763.00 Y6863.00
G1 X4866.00 Y7003.00
G1 X4921.00 Y7033.00
G1 X4899.00 Y6960.00
G1 X4830.00 Y6854.00
G1 X4740.00 Y6695.00
G1 X4781.00 Y6810.00
G1 X4815.00 Y6882.00
G1 X4868.00 Y6954.00
G1 X4920.00 Y6980.00
G1 X7232.00 Y6890.00
G1 X7176.00 Y6875.00
G1 X7098.00 Y6860.00
G1 X7015.00 Y6835.00
G1 X6990.00 Y6831.00
G1 X7006.00 Y6886.00
G1 X7074.00 Y6935.00
G1 X7264.00 Y6930.00
G1 X4895.00 Y6899.00
G1 X4859.00 Y6833.00
G1 X4864.00 Y6819.00
G1 X4890.00 Y6860.00
G1 X4920.00 Y6877.00
G1 X4912.00 Y6855.00
G1 X4879.00 Y6760.00
G1 X4900.00 Y6795.00
G1 X4921.00 Y6830.00
G1 X4899.00 Y6750.00
G1 X4844.00 Y6660.00
G1 X4763.00 Y6534.00
G1 X4816.00 Y6687.00
G1 X4856.00 Y6780.00
G1 X4774.00 Y6634.00
G1 X4750.00 Y6622.00
G1 X4789.00 Y6726.00
G1 X4835.00 Y6831.00
G1 X4920.00 Y6945.00
G1 X1894.00 Y6455.00
G1 X2173.00 Y6153.00
G1 X2193.00 Y6133.00
G1 X2138.00 Y6151.00
G1 X1847.00 Y6440.00
G1 X1815.00 Y6635.00
G1 X1845.00 Y6850.00
G1 X1844.00 Y6773.00
G1 X4249.00 Y6716.00
G1 X4198.00 Y6728.00
G1 X4118.00 Y6776.00
G1 X4070.00 Y6802.00
G1 X4197.00 Y6757.00
G1 X4283.00 Y6745.00
G1 X4187.00 Y6800.00
G1 X4255.00 Y6776.00
G1 X4199.00 Y6696.00
G1 X4185.00 Y6689.00
G1 X4060.00 Y6744.00
G1 X4051.00 Y6771.00
G1 X4380.00 Y6647.00
G1 X4464.00 Y6705.00
G1 X4555.00 Y6769.00
G1 X4583.00 Y6780.00
G1 X4575.00 Y6754.00
G1 X4188.00 Y6652.00
G1 X4073.00 Y6675.00
G1 X3906.00 Y6740.00
G1 X3831.00 Y6766.00
G1 X4001.00 Y6736.00
G1 X4925.00 Y6675.00
G1 X4950.00 Y6683.00
G1 X4932.00 Y6648.00
G1 X4884.00 Y6562.00
G1 X4790.00 Y6433.00
G1 X4806.00 Y6483.00
G1 X4837.00 Y6556.00
G1 X4804.00 Y6518.00
G1 X4811.00 Y6581.00
G1 X4938.00 Y6736.00
G1 X4921.00 Y6694.00
G1 X4147.00 Y6586.00
G1 X4065.00 Y6600.00
G1 X3819.00 Y6704.00
G1 X3775.00 Y6739.00
G1 X3860.00 Y6720.00
G1 X4955.00 Y6616.00
G1 X4939.00 Y6571.00
G1 X4910.00 Y6500.00
G1 X4860.00 Y6418.00
G1 X4820.00 Y6394.00
G1 X4849.00 Y6462.00
G1 X4905.00 Y6565.00
G1 X4942.00 Y6638.00
G1 X4970.00 Y6643.00
G1 X4987.00 Y6564.00
G1 X4976.00 Y6507.00
G1 X4907.00 Y6381.00
G1 X4959.00 Y6451.00
G1 X5020.00 Y6500.00
G1 X4869.00 Y6250.00
G1 X4876.00 Y6321.00
G1 X4893.00 Y6355.00
G1 X4876.00 Y6346.00
G1 X4841.00 Y6321.00
G1 X4929.00 Y6504.00
G1 X4953.00 Y6561.00
G1 X4976.00 Y6620.00
G1 X4978.00 Y6590.00
G1 X7355.00 Y6428.00
G1 X7388.00 Y6368.00
G1 X7307.00 Y6469.00
G1 X7283.00 Y6540.00
G1 X7309.00 Y6509.00
G1 X7360.00 Y6515.00
G1 X7350.00 Y6531.00
G1 X7360.00 Y6535.00
G1 X7370.00 Y6519.00
G1 X7296.00 Y6436.00
G1 X7317.00 Y6405.00
G1 X7302.00 Y6391.00
G1 X7265.00 Y6454.00
G1 X7242.00 Y6518.00
G1 X7274.00 Y6493.00
G1 X4695.00 Y6055.00
G1 X4686.00 Y6061.00
G1 X4617.00 Y6360.00
G1 X4631.00 Y6340.00
G1 X4670.00 Y6170.00
G1 X3880.00 Y6340.00
G1 X3940.00 Y6371.00
G1 X3993.00 Y6379.00
G1 X4000.00 Y6371.00
G1 X4765.00 Y5991.00
G1 X4774.00 Y5915.00
G1 X4690.00 Y6284.00
G1 X4695.00 Y6338.00
G1 X4720.00 Y6210.00
G1 X1548.00 Y6089.00
G1 X1544.00 Y6099.00
G1 X1570.00 Y6110.00
G1 X1486.00 Y6000.00
G1 X1549.00 Y6062.00
G1 X1600.00 Y6080.00
G1 X8699.00 Y5995.00
G1 X8684.00 Y6023.00
G1 X8691.00 Y6070.00
G1 X8700.00 Y6033.00
G1 X1646.00 Y6040.00
G1 X1589.00 Y6012.00
G1 X1505.00 Y5960.00
G1 X1485.00 Y5959.00
G1 X1648.00 Y6060.00
G1 X1665.00 Y6050.00
G1 X1533.00 Y5944.00
G1 X1651.00 Y6023.00
G1 X1705.00 Y6031.00
G1 X1795.00 Y6002.00
G1 X1775.00 Y5995.00
G1 X1456.00 Y5808.00
G1 X1373.00 Y5754.00
G1 X1429.00 Y5844.00
G1 X1750.00 Y6019.00
G1 X1775.00 Y6010.00
G1 X8652.00 Y5957.00
G1 X8641.00 Y6020.00
G1 X8666.00 Y5984.00
G1 X8622.00 Y5944.00
G1 X8636.00 Y5905.00
G1 X8657.00 Y5838.00
G1 X8645.00 Y5835.00
G1 X8608.00 Y5897.00
G1 X8592.00 Y5968.00
G1 X8621.00 Y5959.00
G1 X8626.00 Y5773.00
G1 X8631.00 Y5725.00
G1 X8606.00 Y5782.00
G1 X8556.00 Y5873.00
G1 X8530.00 Y5913.00
G1 X8572.00 Y5903.00
G1 X8595.00 Y5680.00
G1 X8570.00 Y5688.00
G1 X8490.00 Y5835.00
G1 X8471.00 Y5866.00
G1 X8540.00 Y5843.00
G1 X8525.00 Y5750.00
G1 X8532.00 Y5590.00
G1 X8510.00 Y5661.00
G1 X8466.00 Y5755.00
G1 X8400.00 Y5787.00
G1 X8365.00 Y5796.00
G1 X8395.00 Y5813.00
G1 X8473.00 Y5805.00
G1 X8498.00 Y5552.00
G1 X8487.00 Y5525.00
G1 X8432.00 Y5678.00
G1 X8290.00 Y5720.00
G1 X8314.00 Y5710.00
G1 X8439.00 Y5605.00
G1 X8451.00 Y5476.00
G1 X8421.00 Y5551.00
G1 X8297.00 Y5690.00
G1 X8295.00 Y5669.00
G1 X8409.00 Y5497.00
G1 X8406.00 Y5395.00
G1 X8391.00 Y5355.00
G1 X8391.00 Y5397.00
G1 X8327.00 Y5578.00
G1 X8196.00 Y5660.00
G1 X8197.00 Y5686.00
G1 X8270.00 Y5725.00
G1 X8330.00 Y5763.00
G1 X8425.00 Y5741.00
G1 X8671.00 Y5736.00
G1 X8688.00 Y5740.00
G1 X8681.00 Y5717.00
G1 X8688.00 Y5660.00
G1 X8650.00 Y5692.00
G1 X8695.00 Y5670.00
G1 X8661.00 Y5594.00
G1 X8620.00 Y5651.00
G1 X8662.00 Y5633.00
G1 X8626.00 Y5540.00
G1 X8577.00 Y5593.00
G1 X8638.00 Y5571.00
G1 X8619.00 Y5459.00
G1 X8564.00 Y5490.00
G1 X8550.00 Y5525.00
G1 X8608.00 Y5508.00
G1 X8664.00 Y5458.00
G1 X5520.00 Y5445.00
G1 X5510.00 Y5461.00
G1 X5524.00 Y5454.00
G1 X8658.00 Y5359.00
G1 X8588.00 Y5395.00
G1 X8510.00 Y5440.00
G1 X8507.00 Y5463.00
G1 X8594.00 Y5439.00
G1 X8650.00 Y5281.00
G1 X8625.00 Y5270.00
G1 X8470.00 Y5367.00
G1 X8456.00 Y5391.00
G1 X8539.00 Y5391.00
G1 X8620.00 Y5207.00
G1 X8557.00 Y5226.00
G1 X8405.00 Y5290.00
G1 X8387.00 Y5322.00
G1 X8484.00 Y5328.00
G1 X8636.00 Y5069.00
G1 X8633.00 Y5098.00
G1 X8649.00 Y5074.00
G1 X8648.00 Y5004.00
G1 X8590.00 Y5030.00
G1 X8640.00 Y5025.00
G1 X8641.00 Y4932.00
G1 X8570.00 Y4971.00
G1 X8638.00 Y4952.00
G1 X8599.00 Y4856.00
G1 X8553.00 Y4888.00
G1 X8546.00 Y4918.00
G1 X8591.00 Y4910.00
G1 X8635.00 Y4859.00
G1 X8564.00 Y4786.00
G1 X8522.00 Y4868.00
G1 X8582.00 Y4828.00
G1 X8630.00 Y4758.00
G1 X8587.00 Y4574.00
G1 X8533.00 Y4612.00
G1 X8455.00 Y4677.00
G1 X8444.00 Y4719.00
G1 X8470.00 Y4740.00
G1 X8528.00 Y4686.00
G1 X8540.00 Y4327.00
G1 X8520.00 Y4313.00
G1 X8415.00 Y4427.00
G1 X8409.00 Y4456.00
G1 X8478.00 Y4412.00
G1 X8520.00 Y4239.00
G1 X8446.00 Y4266.00
G1 X8445.00 Y4229.00
G1 X8486.00 Y4130.00
G1 X8350.00 Y4255.00
G1 X8369.00 Y4291.00
G1 X8394.00 Y4348.00
G1 X8408.00 Y4380.00
G1 X8448.00 Y4343.00
G1 X2705.00 Y3714.00
G1 X2690.00 Y3747.00
G1 X2709.00 Y3728.00
G1 X2730.00 Y3655.00
G1 X2720.00 Y3678.00
G1 X2730.00 Y3680.00
G1 X2740.00 Y3657.00
G1 X8131.00 Y3441.00
G1 X8101.00 Y3474.00
G1 X8060.00 Y3551.00
G1 X8045.00 Y3610.00
G1 X8060.00 Y3640.00
G1 X8104.00 Y3576.00
G1 X8081.00 Y3375.00
G1 X8045.00 Y3405.00
G1 X8003.00 Y3478.00
G1 X8023.00 Y3559.00
G1 X8041.00 Y3549.00
G1 X8069.00 Y3483.00
G1 X7923.00 Y3474.00
G1 X7925.00 Y3489.00
G1 X7933.00 Y3485.00
G1 X8024.00 Y3326.00
G1 X7975.00 Y3369.00
G1 X7954.00 Y3454.00
G1 X8005.00 Y3428.00
G1 X7961.00 Y3270.00
G1 X7948.00 Y3260.00
G1 X7890.00 Y3363.00
G1 X7922.00 Y3400.00
G1 X7945.00 Y3376.00
G1 X2540.00 Y2845.00
G1 X2539.00 Y2874.00
G1 X2779.00 Y3323.00
G1 X2814.00 Y3353.00
G1 X7895.00 Y3226.00
G1 X7860.00 Y3267.00
G1 X7890.00 Y3308.00
G1 X7833.00 Y3196.00
G1 X7805.00 Y3172.00
G1 X7799.00 Y3208.00
G1 X7818.00 Y3280.00
G1 X7843.00 Y3250.00
G1 X7772.00 Y3184.00
G1 X7653.00 Y3120.00
G1 X7773.00 Y3230.00
G1 X7780.00 Y3213.00
G1 X8042.00 Y3115.00
G1 X8041.00 Y3161.00
G1 X8048.00 Y3214.00
G1 X8051.00 Y3149.00
G1 X7987.00 Y2915.00
G1 X7901.00 Y2595.00
G1 X7892.00 Y2565.00
G1 X7891.00 Y2593.00
G1 X7909.00 Y2718.00
G1 X7976.00 Y3100.00
G1 X7993.00 Y3178.00
G1 X8010.00 Y3070.00
G1 X7890.00 Y2765.00
G1 X7865.00 Y2626.00
G1 X7845.00 Y2529.00
G1 X7814.00 Y2398.00
G1 X7788.00 Y2290.00
G1 X7784.00 Y2295.00
G1 X7810.00 Y2445.00
G1 X7886.00 Y2865.00
G1 X7907.00 Y3030.00
G1 X7928.00 Y3143.00
G1 X7955.00 Y3103.00
G1 X7836.00 Y2730.00
G1 X7740.00 Y2163.00
G1 X7754.00 Y2022.00
G1 X7728.00 Y2011.00
G1 X7730.00 Y2321.00
G1 X7844.00 Y3053.00
G1 X7881.00 Y3120.00
G1 X7889.00 Y3063.00
G1 X7805.00 Y2915.00
G1 X7706.00 Y2338.00
G1 X7689.00 Y2043.00
G1 X7736.00 Y1937.00
G1 X7756.00 Y1893.00
G1 X7653.00 Y1981.00
G1 X7655.00 Y2270.00
G1 X7751.00 Y2880.00
G1 X7809.00 Y3090.00
G1 X7825.00 Y3063.00
G1 X7700.00 Y2650.00
G1 X7596.00 Y2120.00
G1 X7591.00 Y1927.00
G1 X7623.00 Y1883.00
G1 X7643.00 Y1860.00
G1 X7622.00 Y1860.00
G1 X7595.00 Y1850.00
G1 X7550.00 Y1987.00
G1 X7609.00 Y2420.00
G1 X7655.00 Y2695.00
G1 X7716.00 Y3061.00
G1 X7740.00 Y3053.00
G1 X7589.00 Y2455.00
G1 X7547.00 Y1861.00
G1 X7565.00 Y1819.00
G1 X7676.00 Y1817.00
G1 X7843.00 Y1778.00
G1 X7989.00 Y1521.00
G1 X7988.00 Y1485.00
G1 X7978.00 Y1520.00
G1 X7879.00 Y1706.00
G1 X7862.00 Y1692.00
G1 X7946.00 Y1475.00
G1 X7911.00 Y1509.00
G1 X7823.00 Y1668.00
G1 X7843.00 Y1622.00
G1 X7896.00 Y1441.00
G1 X7856.00 Y1484.00
G1 X7834.00 Y1556.00
G1 X7825.00 Y1555.00
G1 X7830.00 Y1425.00
G1 X7799.00 Y1448.00
G1 X7790.00 Y1505.00
G1 X7781.00 Y1469.00
G1 X7766.00 Y1407.00
G1 X7739.00 Y1454.00
G1 X7729.00 Y1520.00
G1 X7726.00 Y1490.00
G1 X7690.00 Y1400.00
G1 X7657.00 Y1451.00
G1 X7598.00 Y1568.00
G1 X7601.00 Y1533.00
G1 X7620.00 Y1447.00
G1 X7593.00 Y1404.00
G1 X7543.00 Y1411.00
G1 X7520.00 Y1421.00
G1 X7510.00 Y1425.00
G1 X7474.00 Y1447.00
G1 X7459.00 Y1453.00
G1 X7404.00 Y1463.00
G1 X7356.00 Y1505.00
G1 X7378.00 Y1467.00
G1 X7380.00 Y1440.00
G1 X7241.00 Y1620.00
G1 X7164.00 Y1869.00
G1 X7151.00 Y1930.00
G1 X7169.00 Y1768.00
G1 X7270.00 Y1541.00
G1 X7295.00 Y1480.00
G1 X7162.00 Y1699.00
G1 X7146.00 Y1721.00
G1 X7222.00 Y1547.00
G1 X7244.00 Y1492.00
G1 X7126.00 Y1689.00
G1 X7247.00 Y2720.00
G1 X7316.00 Y2877.00
G1 X7297.00 Y2793.00
G1 X7214.00 Y2340.00
G1 X7213.00 Y2002.00
G1 X7232.00 Y2151.00
G1 X7254.00 Y2390.00
G1 X7411.00 Y2936.00
G1 X7386.00 Y2764.00
G1 X7315.00 Y2365.00
G1 X7309.00 Y2090.00
G1 X7325.00 Y2193.00
G1 X7446.00 Y2873.00
G1 X7521.00 Y3021.00
G1 X7500.00 Y2850.00
G1 X7415.00 Y2354.00
G1 X7420.00 Y1824.00
G1 X7424.00 Y1876.00
G1 X7434.00 Y2335.00
G1 X7475.00 Y2580.00
G1 X7581.00 Y3028.00
G1 X7610.00 Y3031.00
G1 X7585.00 Y2888.00
G1 X7535.00 Y2579.00
G1 X7495.00 Y2295.00
G1 X7471.00 Y1920.00
G1 X7512.00 Y1810.00
G1 X7515.00 Y1828.00
G1 X7549.00 Y2514.00
G1 X7662.00 Y3051.00
G1 X7678.00 Y3055.00
G1 X7650.00 Y2838.00
G1 X6628.00 Y2690.00
G1 X6653.00 Y2738.00
G1 X6704.00 Y2818.00
G1 X6725.00 Y2811.00
G1 X7090.00 Y1913.00
G1 X7151.00 Y1563.00
G1 X7123.00 Y1558.00
G1 X7048.00 Y1863.00
G1 X7053.00 Y2163.00
G1 X7089.00 Y2420.00
G1 X7182.00 Y2774.00
G1 X7236.00 Y2830.00
G1 X7228.00 Y2778.00
G1 X3609.00 Y2230.00
G1 X3614.00 Y2195.00
G1 X3486.00 Y2593.00
G1 X3475.00 Y2818.00
G1 X3490.00 Y2733.00
G1 X2176.00 Y2624.00
G1 X2207.00 Y2655.00
G1 X2411.00 Y2760.00
G1 X2450.00 Y2783.00
G1 X2420.00 Y2748.00
G1 X3775.00 Y2062.00
G1 X3748.00 Y2068.00
G1 X3579.00 Y2441.00
G1 X3530.00 Y2761.00
G1 X3565.00 Y2683.00
G1 X6760.00 Y2765.00
G1 X6750.00 Y2769.00
G1 X6760.00 Y2780.00
G1 X6770.00 Y2776.00
G1 X7026.00 Y2025.00
G1 X7052.00 Y1690.00
G1 X7085.00 Y1575.00
G1 X7061.00 Y1589.00
G1 X6975.00 Y1838.00
G1 X6964.00 Y1980.00
G1 X7004.00 Y2415.00
G1 X7128.00 Y2770.00
G1 X7093.00 Y2598.00
G1 X3654.00 Y2600.00
G1 X3887.00 Y2050.00
G1 X3944.00 Y1980.00
G1 X3809.00 Y2078.00
G1 X3647.00 Y2485.00
G1 X3599.00 Y2750.00
G1 X3619.00 Y2728.00
G1 X3760.00 Y2510.00
G1 X3977.00 Y2089.00
G1 X4050.00 Y1995.00
G1 X4009.00 Y1996.00
G1 X3861.00 Y2140.00
G1 X3679.00 Y2720.00
G1 X3699.00 Y2698.00
G1 X6950.00 Y2321.00
G1 X6942.00 Y2046.00
G1 X6934.00 Y1860.00
G1 X6938.00 Y1828.00
G1 X7016.00 Y1593.00
G1 X6911.00 Y1852.00
G1 X6895.00 Y1925.00
G1 X6934.00 Y2465.00
G1 X7012.00 Y2693.00
G1 X7045.00 Y2703.00
G1 X3864.00 Y2490.00
G1 X4026.00 Y2151.00
G1 X4122.00 Y1960.00
G1 X4091.00 Y2001.00
G1 X4014.00 Y2102.00
G1 X3809.00 Y2474.00
G1 X3754.00 Y2657.00
G1 X3778.00 Y2679.00
G1 X3819.00 Y2642.00
G1 X3954.00 Y2496.00
G1 X4117.00 Y2160.00
G1 X4188.00 Y1962.00
G1 X4162.00 Y2004.00
G1 X4068.00 Y2147.00
G1 X3896.00 Y2509.00
G1 X3908.00 Y2623.00
G1 X6914.00 Y2530.00
G1 X6860.00 Y2128.00
G1 X6851.00 Y2010.00
G1 X6810.00 Y2117.00
G1 X6901.00 Y2606.00
G1 X6940.00 Y2628.00
G1 X6167.00 Y2395.00
G1 X6044.00 Y1737.00
G1 X5983.00 Y1577.00
G1 X5995.00 Y1781.00
G1 X6133.00 Y2488.00
G1 X6142.00 Y2610.00
G1 X6161.00 Y2568.00
G1 X4039.00 Y2487.00
G1 X4153.00 Y2244.00
G1 X4270.00 Y1985.00
G1 X4257.00 Y1970.00
G1 X4232.00 Y2026.00
G1 X4146.00 Y2176.00
G1 X3990.00 Y2493.00
G1 X3970.00 Y2588.00
G1 X4008.00 Y2583.00
G1 X4121.00 Y2471.00
G1 X4261.00 Y2284.00
G1 X4398.00 Y2040.00
G1 X4395.00 Y1995.00
G1 X4381.00 Y2040.00
G1 X4251.00 Y2237.00
G1 X4225.00 Y2228.00
G1 X4331.00 Y1981.00
G1 X4296.00 Y2020.00
G1 X4215.00 Y2214.00
G1 X4050.00 Y2572.00
G1 X4088.00 Y2557.00
G1 X6795.00 Y2310.00
G1 X6779.00 Y2180.00
G1 X6769.00 Y2215.00
G1 X6836.00 Y2580.00
G1 X6829.00 Y2508.00
G1 X4233.00 Y2391.00
G1 X4226.00 Y2375.00
G1 X4135.00 Y2570.00
G1 X4170.00 Y2504.00
G1 X4235.00 Y2451.00
G1 X4190.00 Y2548.00
G1 X4224.00 Y2508.00
G1 X2242.00 Y1865.00
G1 X2249.00 Y1805.00
G1 X2220.00 Y1865.00
G1 X2200.00 Y2153.00
G1 X2274.00 Y2410.00
G1 X2258.00 Y2318.00
G1 X7705.00 Y1878.00
G1 X7675.00 Y1882.00
G1 X7618.00 Y1935.00
G1 X7590.00 Y2010.00
G1 X7616.00 Y1990.00
G1 X7673.00 Y1912.00
G1 X6905.00 Y1785.00
G1 X6927.00 Y1696.00
G1 X6860.00 Y1891.00
G1 X6870.00 Y1895.00
G1 X6880.00 Y1876.00
G0 X8385.00 Y9295.00
G1 X8352.00 Y9244.00
G1 X8395.00 Y9285.00
G1 X8428.00 Y9336.00
G1 X8385.00 Y9295.00
G0 X8411.00 Y9269.00
G1 X8383.00 Y9224.00
G1 X8424.00 Y9265.00
G1 X8452.00 Y9310.00
G1 X8411.00 Y9269.00
G0 X8489.00 Y9162.00
G1 X8468.00 Y9117.00
G1 X8518.00 Y9185.00
G1 X8489.00 Y9162.00
G0 X8488.00 Y9052.00
G1 X8460.00 Y9027.00
G1 X8490.00 Y9040.00
G1 X8520.00 Y9066.00
G1 X8488.00 Y9052.00
G0 X7792.00 Y9017.00
G1 X7781.00 Y8959.00
G1 X7796.00 Y8989.00
G1 X7792.00 Y9017.00
G0 X8174.00 Y8929.00
G1 X8119.00 Y8893.00
G1 X8112.00 Y8879.00
G1 X8187.00 Y8916.00
G1 X8174.00 Y8929.00
G0 X7990.00 Y8850.00
G1 X7984.00 Y8830.00
G1 X8000.00 Y8850.00
G1 X8006.00 Y8870.00
G1 X7990.00 Y8850.00
G0 X5200.00 Y9000.00
G1 X5226.00 Y8970.00
G1 X5210.00 Y9000.00
G1 X5184.00 Y9030.00
G1 X5200.00 Y9000.00
G0 X7566.00 Y8699.00
G1 X7535.00 Y8658.00
G1 X7651.00 Y8770.00
G1 X7566.00 Y8699.00
G0 X6826.00 Y8675.00
G1 X6871.00 Y8535.00
G1 X6885.00 Y8510.00
G1 X6815.00 Y8726.00
G1 X6826.00 Y8675.00
G0 X6926.00 Y8708.00
G1 X6939.00 Y8560.00
G1 X6947.00 Y8445.00
G1 X6949.00 Y8546.00
G1 X6929.00 Y8740.00
G1 X6926.00 Y8708.00
G0 X6720.00 Y8714.00
G1 X6762.00 Y8636.00
G1 X6827.00 Y8505.00
G1 X6849.00 Y8458.00
G1 X6779.00 Y8645.00
G1 X6720.00 Y8714.00
G0 X7017.00 Y8681.00
G1 X7011.00 Y8581.00
G1 X7013.00 Y8515.00
G1 X7021.00 Y8590.00
G1 X7028.00 Y8690.00
G1 X7017.00 Y8681.00
G0 X6390.00 Y8695.00
G1 X6428.00 Y8671.00
G1 X6497.00 Y8623.00
G1 X6691.00 Y8348.00
G1 X6717.00 Y8293.00
G1 X6700.00 Y8353.00
G1 X6541.00 Y8592.00
G1 X6390.00 Y8695.00
G0 X7329.00 Y8683.00
G1 X7333.00 Y8679.00
G1 X7350.00 Y8696.00
G1 X7329.00 Y8683.00
G0 X7097.00 Y8675.00
G1 X7073.00 Y8534.00
G1 X7108.00 Y8682.00
G1 X7097.00 Y8675.00
G0 X7161.00 Y8637.00
G1 X7087.00 Y8277.00
G1 X7087.00 Y8235.00
G1 X7156.00 Y8579.00
G1 X7176.00 Y8658.00
G1 X7161.00 Y8637.00
G0 X6360.00 Y8646.00
G1 X6393.00 Y8618.00
G1 X6607.00 Y8370.00
G1 X6641.00 Y8337.00
G1 X6450.00 Y8583.00
G1 X6360.00 Y8646.00
G0 X7191.00 Y8536.00
G1 X7170.00 Y8451.00
G1 X7195.00 Y8510.00
G1 X7216.00 Y8595.00
G1 X7191.00 Y8536.00
G0 X7624.00 Y8565.00
G1 X7616.00 Y8550.00
G1 X7640.00 Y8565.00
G1 X7624.00 Y8565.00
G0 X6259.00 Y8505.00
G1 X6434.00 Y8377.00
G1 X6667.00 Y8056.00
G1 X6667.00 Y8081.00
G1 X6432.00 Y8397.00
G1 X6278.00 Y8510.00
G1 X6181.00 Y8550.00
G1 X6259.00 Y8505.00
G0 X6205.00 Y8460.00
G1 X6224.00 Y8450.00
G1 X6296.00 Y8409.00
G1 X6325.00 Y8400.00
G1 X6251.00 Y8451.00
G1 X6205.00 Y8460.00
G0 X7444.00 Y8435.00
G1 X7421.00 Y8396.00
G1 X7452.00 Y8431.00
G1 X7444.00 Y8435.00
G0 X7377.00 Y8437.00
G1 X7335.00 Y8340.00
G1 X7370.00 Y8400.00
G1 X7377.00 Y8437.00
G0 X7162.00 Y8410.00
G1 X7167.00 Y8398.00
G1 X7167.00 Y8423.00
G1 X7162.00 Y8410.00
G0 X7577.00 Y8385.00
G1 X7550.00 Y8353.00
G1 X7580.00 Y8375.00
G1 X7607.00 Y8410.00
G1 X7577.00 Y8385.00
G0 X6200.00 Y8396.00
G1 X6263.00 Y8350.00
G1 X6352.00 Y8282.00
G1 X6385.00 Y8262.00
G1 X6253.00 Y8369.00
G1 X6200.00 Y8396.00
G0 X6405.00 Y8320.00
G1 X6459.00 Y8270.00
G1 X6415.00 Y8320.00
G1 X6361.00 Y8370.00
G1 X6405.00 Y8320.00
G0 X7310.00 Y8310.00
G1 X7304.00 Y8290.00
G1 X7320.00 Y8310.00
G1 X7326.00 Y8330.00
G1 X7310.00 Y8310.00
G0 X7360.00 Y8279.00
G1 X7353.00 Y8254.00
G1 X7368.00 Y8275.00
G1 X7360.00 Y8279.00
G0 X7270.00 Y8244.00
G1 X7210.00 Y8026.00
G1 X7236.00 Y8098.00
G1 X7275.00 Y8227.00
G1 X7285.00 Y8268.00
G1 X7270.00 Y8244.00
G0 X6477.00 Y8235.00
G1 X6555.00 Y8115.00
G1 X6629.00 Y8000.00
G1 X6795.00 Y7565.00
G1 X6853.00 Y7390.00
G1 X6856.00 Y7408.00
G1 X6806.00 Y7601.00
G1 X6746.00 Y7802.00
G1 X6715.00 Y7869.00
G1 X6627.00 Y8023.00
G1 X6521.00 Y8187.00
G1 X6473.00 Y8252.00
G1 X6477.00 Y8235.00
G0 X7914.00 Y8244.00
G1 X7918.00 Y8240.00
G1 X7940.00 Y8255.00
G1 X7914.00 Y8244.00
G0 X6275.00 Y8168.00
G1 X6625.00 Y7721.00
G1 X6599.00 Y7726.00
G1 X6268.00 Y8084.00
G1 X6273.00 Y8070.00
G1 X6504.00 Y7841.00
G1 X6570.00 Y7734.00
G1 X6523.00 Y7771.00
G1 X6375.00 Y7880.00
G1 X6308.00 Y7915.00
G1 X6243.00 Y7946.00
G1 X6297.00 Y7909.00
G1 X6699.00 Y7516.00
G1 X6724.00 Y7378.00
G1 X6758.00 Y7260.00
G1 X6795.00 Y7232.00
G1 X6786.00 Y7255.00
G1 X6746.00 Y7376.00
G1 X6740.00 Y7445.00
G1 X6761.00 Y7380.00
G1 X6826.00 Y7263.00
G1 X6810.00 Y7312.00
G1 X6775.00 Y7426.00
G1 X6537.00 Y7918.00
G1 X6284.00 Y8168.00
G1 X6235.00 Y8202.00
G1 X6275.00 Y8168.00
G0 X6834.00 Y8178.00
G1 X6911.00 Y7750.00
G1 X6937.00 Y7465.00
G1 X6951.00 Y7275.00
G1 X6956.00 Y7455.00
G1 X6926.00 Y7765.00
G1 X6889.00 Y7945.00
G1 X6833.00 Y8200.00
G1 X6834.00 Y8178.00
G0 X7430.00 Y8180.00
G1 X7424.00 Y8160.00
G1 X7440.00 Y8180.00
G1 X7446.00 Y8200.00
G1 X7430.00 Y8180.00
G0 X7013.00 Y8110.00
G1 X7017.00 Y8078.00
G1 X7017.00 Y8143.00
G1 X7013.00 Y8110.00
G0 X7071.00 Y8154.00
G1 X7077.00 Y8148.00
G1 X7076.00 Y8167.00
G1 X7071.00 Y8154.00
G0 X6764.00 Y8145.00
G1 X6897.00 Y7455.00
G1 X6919.00 Y7375.00
G1 X6864.00 Y7830.00
G1 X6763.00 Y8160.00
G1 X6764.00 Y8145.00
G0 X7345.00 Y8139.00
G1 X7343.00 Y8124.00
G1 X7353.00 Y8135.00
G1 X7345.00 Y8139.00
G0 X7401.00 Y8132.00
G1 X7406.00 Y8118.00
G1 X7417.00 Y8147.00
G1 X7401.00 Y8132.00
G0 X6904.00 Y8100.00
G1 X6935.00 Y7930.00
G1 X6981.00 Y7495.00
G1 X6990.00 Y7310.00
G1 X7001.00 Y7395.00
G1 X6975.00 Y7800.00
G1 X6930.00 Y8029.00
G1 X6904.00 Y8100.00
G0 X7600.00 Y8129.00
G1 X7610.00 Y8125.00
G1 X7620.00 Y8136.00
G1 X7610.00 Y8140.00
G1 X7600.00 Y8129.00
G0 X6968.00 Y8045.00
G1 X6981.00 Y7915.00
G1 X6983.00 Y7979.00
G1 X6970.00 Y8109.00
G1 X6968.00 Y8045.00
G0 X7292.00 Y8011.00
G1 X7230.00 Y7758.00
G1 X7203.00 Y7290.00
G1 X7224.00 Y7480.00
G1 X7305.00 Y8014.00
G1 X7336.00 Y8107.00
G1 X7292.00 Y8011.00
G0 X7397.00 Y8004.00
G1 X7323.00 Y7807.00
G1 X7345.00 Y7850.00
G1 X7411.00 Y8004.00
G1 X7455.00 Y8108.00
G1 X7397.00 Y8004.00
G0 X7759.00 Y8063.00
G1 X7725.00 Y8025.00
G1 X7763.00 Y8059.00
G1 X7797.00 Y8100.00
G1 X7759.00 Y8063.00
G0 X7446.00 Y7997.00
G1 X7311.00 Y7698.00
G1 X7295.00 Y7371.00
G1 X7306.00 Y7295.00
G1 X7314.00 Y7395.00
G1 X7460.00 Y7997.00
G1 X7505.00 Y8090.00
G1 X7446.00 Y7997.00
G0 X6496.00 Y8068.00
G1 X6568.00 Y7967.00
G1 X6751.00 Y7560.00
G1 X6851.00 Y7300.00
G1 X6846.00 Y7343.00
G1 X6642.00 Y7880.00
G1 X6494.00 Y8080.00
G1 X6496.00 Y8068.00
G0 X7172.00 Y8055.00
G1 X7160.00 Y7930.00
G1 X7128.00 Y7286.00
G1 X7143.00 Y7453.00
G1 X7165.00 Y7801.00
G1 X7177.00 Y8031.00
G1 X7172.00 Y8055.00
G0 X7880.00 Y8070.00
G1 X7895.00 Y8066.00
G1 X7914.00 Y8080.00
G1 X7880.00 Y8070.00
G0 X7261.00 Y8054.00
G1 X7267.00 Y8048.00
G1 X7266.00 Y8067.00
G1 X7261.00 Y8054.00
G0 X7752.00 Y8000.00
G1 X7680.00 Y7944.00
G1 X7825.00 Y8042.00
G1 X7752.00 Y8000.00
G0 X7022.00 Y7652.00
G1 X7030.00 Y7270.00
G1 X7039.00 Y7363.00
G1 X7038.00 Y7690.00
G1 X7032.00 Y7980.00
G1 X7022.00 Y7652.00
G0 X7245.00 Y8010.00
G1 X7243.00 Y7983.00
G1 X7255.00 Y8000.00
G1 X7257.00 Y8027.00
G1 X7245.00 Y8010.00
G0 X7112.00 Y7907.00
G1 X7100.00 Y7740.00
G1 X7089.00 Y7585.00
G1 X7087.00 Y7405.00
G1 X7094.00 Y7315.00
G1 X7101.00 Y7455.00
G1 X7120.00 Y7799.00
G1 X7127.00 Y8006.00
G1 X7112.00 Y7907.00
G0 X7321.00 Y7953.00
G1 X7290.00 Y7823.00
G1 X7276.00 Y7731.00
G1 X7241.00 Y7370.00
G1 X7269.00 Y7466.00
G1 X7292.00 Y7675.00
G1 X7305.00 Y7815.00
G1 X7329.00 Y7939.00
G1 X7321.00 Y7953.00
G0 X6716.00 Y7967.00
G1 X6728.00 Y7955.00
G1 X6721.00 Y7973.00
G1 X6716.00 Y7967.00
G0 X7065.00 Y7808.00
G1 X7068.00 Y7278.00
G1 X7079.00 Y7330.00
G1 X7078.00 Y7665.00
G1 X7065.00 Y7808.00
G0 X7216.00 Y7943.00
G1 X7200.00 Y7850.00
G1 X7179.00 Y7715.00
G1 X7167.00 Y7293.00
G1 X7185.00 Y7487.00
G1 X7210.00 Y7815.00
G1 X7216.00 Y7943.00
G0 X6260.00 Y7876.00
G1 X6276.00 Y7866.00
G1 X6285.00 Y7870.00
G1 X6260.00 Y7876.00
G0 X6054.00 Y7819.00
G1 X6147.00 Y7804.00
G1 X5986.00 Y7839.00
G1 X6054.00 Y7819.00
G0 X6175.00 Y7790.00
G1 X6200.00 Y7790.00
G1 X6170.00 Y7799.00
G1 X6175.00 Y7790.00
G0 X6110.00 Y7676.00
G1 X6275.00 Y7610.00
G1 X6369.00 Y7555.00
G1 X6489.00 Y7484.00
G1 X6525.00 Y7462.00
G1 X6488.00 Y7528.00
G1 X6383.00 Y7621.00
G1 X6262.00 Y7660.00
G1 X6145.00 Y7679.00
G1 X6060.00 Y7689.00
G1 X6110.00 Y7676.00
G0 X6320.00 Y7683.00
G1 X6455.00 Y7601.00
G1 X6391.00 Y7662.00
G1 X6320.00 Y7683.00
G0 X5925.00 Y7630.00
G1 X6185.00 Y7611.00
G1 X6223.00 Y7620.00
G1 X5960.00 Y7634.00
G1 X5735.00 Y7638.00
G1 X5925.00 Y7630.00
G0 X5898.00 Y7526.00
G1 X5803.00 Y7506.00
G1 X5825.00 Y7504.00
G1 X6030.00 Y7517.00
G1 X6185.00 Y7531.00
G1 X5898.00 Y7526.00
G0 X7334.00 Y7413.00
G1 X7340.00 Y7352.00
G1 X7350.00 Y7335.00
G1 X7338.00 Y7450.00
G1 X7334.00 Y7413.00
G0 X8470.00 Y7340.00
G1 X8495.00 Y7337.00
G1 X8514.00 Y7350.00
G1 X8470.00 Y7340.00
G0 X8575.00 Y7313.00
G1 X8536.00 Y7299.00
G1 X8635.00 Y7305.00
G1 X8660.00 Y7317.00
G1 X8575.00 Y7313.00
G0 X6692.00 Y7265.00
G1 X6760.00 Y7212.00
G1 X6730.00 Y7249.00
G1 X6692.00 Y7265.00
G0 X5468.00 Y7043.00
G1 X5493.00 Y7043.00
G1 X5480.00 Y7048.00
G1 X5468.00 Y7043.00
G0 X5500.00 Y6905.00
G1 X5486.00 Y6890.00
G1 X5516.00 Y6905.00
G1 X5500.00 Y6905.00
G0 X5440.00 Y6839.00
G1 X5430.00 Y6826.00
G1 X5470.00 Y6846.00
G1 X5440.00 Y6839.00
G0 X5188.00 Y6734.00
G1 X5160.00 Y6715.00
G1 X5201.00 Y6730.00
G1 X5188.00 Y6734.00
G0 X5369.00 Y6713.00
G1 X5373.00 Y6709.00
G1 X5386.00 Y6730.00
G1 X5369.00 Y6713.00
G0 X8055.00 Y6530.00
G1 X8071.00 Y6520.00
G1 X8080.00 Y6530.00
G1 X8064.00 Y6540.00
G1 X8055.00 Y6530.00
G0 X6553.00 Y6408.00
G1 X6520.00 Y6379.00
G1 X6592.00 Y6418.00
G1 X6553.00 Y6408.00
G0 X6949.00 Y6350.00
G1 X6929.00 Y6300.00
G1 X6969.00 Y6347.00
G1 X6949.00 Y6350.00
G0 X6655.00 Y6360.00
G1 X6642.00 Y6335.00
G1 X6665.00 Y6350.00
G1 X6678.00 Y6375.00
G1 X6655.00 Y6360.00
G0 X4956.00 Y6283.00
G1 X4961.00 Y6277.00
G1 X4968.00 Y6295.00
G1 X4956.00 Y6283.00
G0 X7750.00 Y6272.00
G1 X7765.00 Y6250.00
G1 X7780.00 Y6248.00
G1 X7765.00 Y6270.00
G1 X7750.00 Y6272.00
G0 X7710.00 Y6254.00
G1 X7762.00 Y6180.00
G1 X7749.00 Y6215.00
G1 X7710.00 Y6254.00
G0 X4520.00 Y6230.00
G1 X4485.00 Y6220.00
G1 X4441.00 Y6196.00
G1 X4588.00 Y6228.00
G1 X4520.00 Y6230.00
G0 X6485.00 Y6222.00
G1 X6431.00 Y6146.00
G1 X6478.00 Y6191.00
G1 X6518.00 Y6240.00
G1 X6485.00 Y6222.00
G0 X7680.00 Y6208.00
G1 X7737.00 Y6143.00
G1 X7684.00 Y6220.00
G1 X7680.00 Y6208.00
G0 X4520.00 Y6180.00
G1 X4450.00 Y6157.00
G1 X4507.00 Y6156.00
G1 X4581.00 Y6167.00
G1 X4600.00 Y6176.00
G1 X4520.00 Y6180.00
G0 X7640.00 Y6175.00
G1 X7656.00 Y6129.00
G1 X7640.00 Y6124.00
G1 X7606.00 Y6138.00
G1 X7617.00 Y6100.00
G1 X7602.00 Y6110.00
G1 X7582.00 Y6134.00
G1 X7578.00 Y6105.00
G1 X7574.00 Y6075.00
G1 X7562.00 Y6103.00
G1 X7542.00 Y6100.00
G1 X7525.00 Y6080.00
G1 X7506.00 Y6068.00
G1 X7498.00 Y6058.00
G1 X7470.00 Y6043.00
G1 X7460.00 Y6025.00
G1 X7450.00 Y6057.00
G1 X7443.00 Y6077.00
G1 X7438.00 Y6040.00
G1 X7429.00 Y6010.00
G1 X7420.00 Y6034.00
G1 X7410.00 Y6065.00
G1 X7400.00 Y6035.00
G1 X7390.00 Y6005.00
G1 X7380.00 Y6031.00
G1 X7369.00 Y6050.00
G1 X7365.00 Y6021.00
G1 X7356.00 Y5987.00
G1 X7330.00 Y6022.00
G1 X7320.00 Y6045.00
G1 X7313.00 Y6007.00
G1 X7281.00 Y6010.00
G1 X7276.00 Y6045.00
G1 X7271.00 Y6006.00
G1 X7233.00 Y5997.00
G1 X7223.00 Y6035.00
G1 X7221.00 Y5999.00
G1 X7205.00 Y5957.00
G1 X7184.00 Y5986.00
G1 X7183.00 Y6013.00
G1 X7170.00 Y5991.00
G1 X7140.00 Y5980.00
G1 X7130.00 Y6005.00
G1 X7120.00 Y5974.00
G1 X7105.00 Y5950.00
G1 X7090.00 Y5980.00
G1 X7080.00 Y6010.00
G1 X7070.00 Y5980.00
G1 X7055.00 Y5950.00
G1 X7040.00 Y5986.00
G1 X7030.00 Y6015.00
G1 X7020.00 Y5984.00
G1 X7010.00 Y5960.00
G1 X7000.00 Y5990.00
G1 X6989.00 Y6020.00
G1 X6985.00 Y6001.00
G1 X6958.00 Y5977.00
G1 X6927.00 Y5981.00
G1 X6914.00 Y6012.00
G1 X6921.00 Y6045.00
G1 X6905.00 Y6018.00
G1 X6870.00 Y5997.00
G1 X6850.00 Y6012.00
G1 X6833.00 Y6009.00
G1 X6824.00 Y6025.00
G1 X6831.00 Y6055.00
G1 X6810.00 Y6030.00
G1 X6790.00 Y6005.00
G1 X6795.00 Y6040.00
G1 X6800.00 Y6075.00
G1 X6785.00 Y6043.00
G1 X6760.00 Y6010.00
G1 X6760.00 Y6035.00
G1 X6770.00 Y6063.00
G1 X6751.00 Y6054.00
G1 X6721.00 Y6016.00
G1 X6710.00 Y5999.00
G1 X6720.00 Y5995.00
G1 X6751.00 Y5957.00
G1 X6762.00 Y5944.00
G1 X6794.00 Y5893.00
G1 X6809.00 Y5908.00
G1 X6867.00 Y5928.00
G1 X6845.00 Y5876.00
G1 X6841.00 Y5842.00
G1 X6864.00 Y5880.00
G1 X6920.00 Y5904.00
G1 X6935.00 Y5900.00
G1 X6974.00 Y5848.00
G1 X6971.00 Y5795.00
G1 X6978.00 Y5842.00
G1 X7019.00 Y5895.00
G1 X7041.00 Y5862.00
G1 X7051.00 Y5815.00
G1 X7054.00 Y5843.00
G1 X7064.00 Y5890.00
G1 X7105.00 Y5838.00
G1 X7115.00 Y5847.00
G1 X7125.00 Y5890.00
G1 X7156.00 Y5873.00
G1 X7196.00 Y5792.00
G1 X7181.00 Y5843.00
G1 X7167.00 Y5894.00
G1 X7227.00 Y5845.00
G1 X7262.00 Y5790.00
G1 X7235.00 Y5870.00
G1 X7239.00 Y5900.00
G1 X7287.00 Y5850.00
G1 X7305.00 Y5850.00
G1 X7294.00 Y5910.00
G1 X7340.00 Y5859.00
G1 X7354.00 Y5864.00
G1 X7333.00 Y5916.00
G1 X7390.00 Y5880.00
G1 X7430.00 Y5837.00
G1 X7405.00 Y5883.00
G1 X7400.00 Y5930.00
G1 X7441.00 Y5905.00
G1 X7467.00 Y5870.00
G1 X7450.00 Y5913.00
G1 X7450.00 Y5950.00
G1 X7472.00 Y5954.00
G1 X7480.00 Y5960.00
G1 X7495.00 Y5966.00
G1 X7510.00 Y5975.00
G1 X7559.00 Y5963.00
G1 X7580.00 Y5947.00
G1 X7570.00 Y5965.00
G1 X7575.00 Y6020.00
G1 X7610.00 Y6015.00
G1 X7618.00 Y6028.00
G1 X7620.00 Y6050.00
G1 X7644.00 Y6057.00
G1 X7690.00 Y6100.00
G1 X7700.00 Y6110.00
G1 X7684.00 Y6159.00
G1 X7640.00 Y6175.00
G0 X6489.00 Y6163.00
G1 X6493.00 Y6159.00
G1 X6506.00 Y6180.00
G1 X6489.00 Y6163.00
G0 X6511.00 Y6138.00
G1 X6495.00 Y6092.00
G1 X6540.00 Y6168.00
G1 X6511.00 Y6138.00
G0 X6574.00 Y6158.00
G1 X6533.00 Y6073.00
G1 X6564.00 Y6119.00
G1 X6574.00 Y6158.00
G0 X6600.00 Y6135.00
G1 X6592.00 Y6115.00
G1 X6610.00 Y6125.00
G1 X6618.00 Y6145.00
G1 X6600.00 Y6135.00
G0 X6460.00 Y6129.00
G1 X6470.00 Y6125.00
G1 X6480.00 Y6136.00
G1 X6470.00 Y6140.00
G1 X6460.00 Y6129.00
G0 X4478.00 Y6118.00
G1 X4443.00 Y6091.00
G1 X4604.00 Y6123.00
G1 X4478.00 Y6118.00
G0 X6605.00 Y6079.00
G1 X6582.00 Y6032.00
G1 X6648.00 Y6125.00
G1 X6605.00 Y6079.00
G0 X6656.00 Y6066.00
G1 X6646.00 Y6021.00
G1 X6697.00 Y6106.00
G1 X6656.00 Y6066.00
G0 X6714.00 Y6063.00
G1 X6680.00 Y6010.00
G1 X6667.00 Y5985.00
G1 X6691.00 Y6007.00
G1 X6742.00 Y6090.00
G1 X6714.00 Y6063.00
G0 X4481.00 Y6064.00
G1 X4413.00 Y6034.00
G1 X4479.00 Y6040.00
G1 X4584.00 Y6049.00
G1 X4611.00 Y6070.00
G1 X4481.00 Y6064.00
G0 X6876.00 Y6035.00
G1 X6881.00 Y6023.00
G1 X6887.00 Y6046.00
G1 X6876.00 Y6035.00
G0 X6940.00 Y6020.00
G1 X6950.00 Y6010.00
G1 X6960.00 Y6020.00
G1 X6950.00 Y6030.00
G1 X6940.00 Y6020.00
G0 X4555.00 Y6005.00
G1 X4473.00 Y5989.00
G1 X4400.00 Y5968.00
G1 X4494.00 Y5970.00
G1 X4601.00 Y5982.00
G1 X4629.00 Y5997.00
G1 X4555.00 Y6005.00
G0 X3676.00 Y5941.00
G1 X3642.00 Y5921.00
G1 X3661.00 Y5914.00
G1 X3723.00 Y5927.00
G1 X3760.00 Y5941.00
G1 X3676.00 Y5941.00
G0 X4471.00 Y5925.00
G1 X4402.00 Y5905.00
G1 X4476.00 Y5905.00
G1 X4608.00 Y5920.00
G1 X4665.00 Y5930.00
G1 X4471.00 Y5925.00
G0 X3667.00 Y5875.00
G1 X3623.00 Y5844.00
G1 X3735.00 Y5882.00
G1 X3667.00 Y5875.00
G0 X4513.00 Y5861.00
G1 X4421.00 Y5826.00
G1 X4485.00 Y5835.00
G1 X4612.00 Y5856.00
G1 X4674.00 Y5871.00
G1 X4513.00 Y5861.00
G0 X6907.00 Y5856.00
G1 X6905.00 Y5822.00
G1 X6918.00 Y5857.00
G1 X6915.00 Y5885.00
G1 X6907.00 Y5856.00
G0 X4615.00 Y5813.00
G1 X4460.00 Y5770.00
G1 X4453.00 Y5750.00
G1 X4470.00 Y5759.00
G1 X4642.00 Y5796.00
G1 X4694.00 Y5811.00
G1 X4615.00 Y5813.00
G0 X3632.00 Y5794.00
G1 X3638.00 Y5776.00
G1 X3677.00 Y5790.00
G1 X3695.00 Y5800.00
G1 X3632.00 Y5794.00
G0 X7806.00 Y5778.00
G1 X7888.00 Y5672.00
G1 X7972.00 Y5588.00
G1 X7953.00 Y5627.00
G1 X7870.00 Y5723.00
G1 X7807.00 Y5790.00
G1 X7806.00 Y5778.00
G0 X4590.00 Y5739.00
G1 X4454.00 Y5689.00
G1 X4471.00 Y5684.00
G1 X4662.00 Y5723.00
G1 X4714.00 Y5744.00
G1 X4590.00 Y5739.00
G0 X3625.00 Y5720.00
G1 X3639.00 Y5710.00
G1 X3660.00 Y5720.00
G1 X3646.00 Y5730.00
G1 X3625.00 Y5720.00
G0 X3940.00 Y5710.00
G1 X3793.00 Y5701.00
G1 X3750.00 Y5690.00
G1 X4052.00 Y5708.00
G1 X4055.00 Y5718.00
G1 X3940.00 Y5710.00
G0 X7750.00 Y5714.00
G1 X7888.00 Y5550.00
G1 X7792.00 Y5684.00
G1 X7750.00 Y5714.00
G0 X4570.00 Y5649.00
G1 X4481.00 Y5606.00
G1 X4545.00 Y5621.00
G1 X4673.00 Y5647.00
G1 X4746.00 Y5661.00
G1 X4570.00 Y5649.00
G0 X6491.00 Y5639.00
G1 X6464.00 Y5570.00
G1 X6447.00 Y5523.00
G1 X6457.00 Y5510.00
G1 X6483.00 Y5561.00
G1 X6505.00 Y5637.00
G1 X6516.00 Y5667.00
G1 X6491.00 Y5639.00
G0 X7704.00 Y5648.00
G1 X7819.00 Y5510.00
G1 X7784.00 Y5563.00
G1 X7717.00 Y5640.00
G1 X7704.00 Y5648.00
G0 X4029.00 Y5646.00
G1 X3886.00 Y5631.00
G1 X3736.00 Y5609.00
G1 X4044.00 Y5640.00
G1 X4029.00 Y5646.00
G0 X4750.00 Y5612.00
G1 X4505.00 Y5531.00
G1 X4563.00 Y5545.00
G1 X4699.00 Y5584.00
G1 X4787.00 Y5604.00
G1 X4750.00 Y5612.00
G0 X6537.00 Y5583.00
G1 X6540.00 Y5490.00
G1 X6550.00 Y5540.00
G1 X6537.00 Y5583.00
G0 X7686.00 Y5541.00
G1 X7728.00 Y5482.00
G1 X7709.00 Y5527.00
G1 X7686.00 Y5541.00
G0 X3975.00 Y5570.00
G1 X3837.00 Y5554.00
G1 X3732.00 Y5525.00
G1 X3983.00 Y5551.00
G1 X4030.00 Y5571.00
G1 X3975.00 Y5570.00
G0 X8152.00 Y5532.00
G1 X8230.00 Y5421.00
G1 X8266.00 Y5383.00
G1 X8161.00 Y5543.00
G1 X8152.00 Y5532.00
G0 X4765.00 Y5553.00
G1 X4530.00 Y5459.00
G1 X4597.00 Y5474.00
G1 X4725.00 Y5520.00
G1 X4765.00 Y5553.00
G0 X6608.00 Y5554.00
G1 X6610.00 Y5470.00
G1 X6622.00 Y5460.00
G1 X6608.00 Y5554.00
G0 X4218.00 Y5533.00
G1 X4238.00 Y5514.00
G1 X4333.00 Y5520.00
G1 X4390.00 Y5530.00
G1 X4218.00 Y5533.00
G0 X8112.00 Y5478.00
G1 X8201.00 Y5357.00
G1 X8242.00 Y5300.00
G1 X8083.00 Y5525.00
G1 X8112.00 Y5478.00
G0 X4005.00 Y5511.00
G1 X3763.00 Y5474.00
G1 X3743.00 Y5451.00
G1 X4018.00 Y5503.00
G1 X4005.00 Y5511.00
G0 X4757.00 Y5485.00
G1 X4560.00 Y5390.00
G1 X4643.00 Y5415.00
G1 X4781.00 Y5470.00
G1 X4850.00 Y5495.00
G1 X4757.00 Y5485.00
G0 X6706.00 Y5480.00
G1 X6724.00 Y5451.00
G1 X6714.00 Y5480.00
G1 X6699.00 Y5505.00
G1 X6706.00 Y5480.00
G0 X7557.00 Y5466.00
G1 X7582.00 Y5430.00
G1 X7550.00 Y5495.00
G1 X7557.00 Y5466.00
G0 X7620.00 Y5494.00
G1 X7653.00 Y5450.00
G1 X7640.00 Y5480.00
G1 X7620.00 Y5494.00
G0 X8030.00 Y5483.00
G1 X8069.00 Y5426.00
G1 X8121.00 Y5348.00
G1 X8142.00 Y5320.00
G1 X8072.00 Y5443.00
G1 X8030.00 Y5483.00
G0 X4286.00 Y5469.00
G1 X4295.00 Y5447.00
G1 X4410.00 Y5457.00
G1 X4370.00 Y5479.00
G1 X4286.00 Y5469.00
G0 X7486.00 Y5447.00
G1 X7498.00 Y5435.00
G1 X7491.00 Y5453.00
G1 X7486.00 Y5447.00
G0 X7989.00 Y5412.00
G1 X8030.00 Y5353.00
G1 X8065.00 Y5321.00
G1 X7959.00 Y5460.00
G1 X7989.00 Y5412.00
G0 X3995.00 Y5440.00
G1 X3890.00 Y5426.00
G1 X3710.00 Y5397.00
G1 X3780.00 Y5394.00
G1 X3920.00 Y5406.00
G1 X4007.00 Y5425.00
G1 X3995.00 Y5440.00
G0 X6881.00 Y5430.00
G1 X6900.00 Y5406.00
G1 X6884.00 Y5436.00
G1 X6881.00 Y5430.00
G0 X7030.00 Y5445.00
G1 X7080.00 Y5360.00
G1 X7064.00 Y5410.00
G1 X7030.00 Y5445.00
G0 X4785.00 Y5418.00
G1 X4609.00 Y5300.00
G1 X4631.00 Y5316.00
G1 X4822.00 Y5405.00
G1 X4884.00 Y5431.00
G1 X4785.00 Y5418.00
G0 X6960.00 Y5437.00
G1 X6995.00 Y5370.00
G1 X7000.00 Y5383.00
G1 X6960.00 Y5437.00
G0 X7195.00 Y5413.00
G1 X7235.00 Y5372.00
G1 X7209.00 Y5411.00
G1 X7179.00 Y5445.00
G1 X7195.00 Y5413.00
G0 X7120.00 Y5422.00
G1 X7161.00 Y5360.00
G1 X7145.00 Y5405.00
G1 X7120.00 Y5422.00
G0 X7900.00 Y5424.00
G1 X7916.00 Y5394.00
G1 X7919.00 Y5400.00
G1 X7900.00 Y5424.00
G0 X4325.00 Y5404.00
G1 X4200.00 Y5368.00
G1 X4223.00 Y5365.00
G1 X4333.00 Y5377.00
G1 X4404.00 Y5404.00
G1 X4325.00 Y5404.00
G0 X7830.00 Y5396.00
G1 X7898.00 Y5294.00
G1 X7869.00 Y5349.00
G1 X7830.00 Y5396.00
G0 X4850.00 Y5356.00
G1 X4660.00 Y5261.00
G1 X4701.00 Y5263.00
G1 X4903.00 Y5350.00
G1 X4936.00 Y5365.00
G1 X4935.00 Y5379.00
G1 X4850.00 Y5356.00
G0 X3830.00 Y5355.00
G1 X3706.00 Y5330.00
G1 X3974.00 Y5355.00
G1 X3980.00 Y5368.00
G1 X3830.00 Y5355.00
G0 X7946.00 Y5346.00
G1 X7980.00 Y5329.00
G1 X7954.00 Y5355.00
G1 X7927.00 Y5372.00
G1 X7946.00 Y5346.00
G0 X5962.00 Y5323.00
G1 X6290.00 Y4949.00
G1 X6372.00 Y4897.00
G1 X6361.00 Y4944.00
G1 X6274.00 Y5065.00
G1 X6251.00 Y5064.00
G1 X6267.00 Y5004.00
G1 X6174.00 Y5170.00
G1 X6150.00 Y5245.00
G1 X6154.00 Y5160.00
G1 X6159.00 Y5110.00
G1 X6070.00 Y5294.00
G1 X6058.00 Y5316.00
G1 X6090.00 Y5178.00
G1 X6115.00 Y5120.00
G1 X5989.00 Y5306.00
G1 X5962.00 Y5323.00
G0 X7720.00 Y5310.00
G1 X7745.00 Y5270.00
G1 X7730.00 Y5310.00
G1 X7705.00 Y5350.00
G1 X7720.00 Y5310.00
G0 X7780.00 Y5345.00
G1 X7836.00 Y5260.00
G1 X7796.00 Y5335.00
G1 X7780.00 Y5345.00
G0 X4298.00 Y5326.00
G1 X4218.00 Y5301.00
