; G-code generated from SVG
G21 ; Set units to mm
G90 ; Absolute positioning
G0 X4905.00 Y9714.00
G1 X4767.00 Y9694.00
G1 X3855.00 Y9375.00
G1 X3108.00 Y8628.00
G1 X2845.00 Y7325.00
G1 X3275.00 Y6300.00
G1 X3605.00 Y5560.00
G1 X3295.00 Y5389.00
G1 X2650.00 Y5868.00
G1 X2316.00 Y6357.00
G1 X1986.00 Y6674.00
G1 X1694.00 Y6830.00
G1 X1713.00 Y6867.00
G1 X1771.00 Y6911.00
G1 X1818.00 Y6921.00
G1 X2026.00 Y6972.00
G1 X2125.00 Y7206.00
G1 X2129.00 Y7221.00
G1 X2182.00 Y7223.00
G1 X2286.00 Y7343.00
G1 X2281.00 Y7551.00
G1 X2258.00 Y7581.00
G1 X2298.00 Y7618.00
G1 X2329.00 Y7836.00
G1 X2325.00 Y7893.00
G1 X2319.00 Y8045.00
G1 X2225.00 Y8160.00
G1 X2210.00 Y8179.00
G1 X2100.00 Y8406.00
G1 X2070.00 Y8434.00
G1 X1913.00 Y8570.00
G1 X1859.00 Y8600.00
G1 X1772.00 Y8647.00
G1 X1690.00 Y8682.00
G1 X1435.00 Y8730.00
G1 X759.00 Y8127.00
G1 X1061.00 Y7700.00
G1 X1362.00 Y7708.00
G1 X1524.00 Y8098.00
G1 X1270.00 Y8170.00
G1 X1275.00 Y8042.00
G1 X1311.00 Y8013.00
G1 X1290.00 Y7987.00
G1 X1218.00 Y7960.00
G1 X1130.00 Y7998.00
G1 X1361.00 Y8381.00
G1 X1845.00 Y8127.00
G1 X1886.00 Y7841.00
G1 X1638.00 Y7447.00
G1 X1335.00 Y7305.00
G1 X790.00 Y6922.00
G1 X730.00 Y6849.00
G1 X640.00 Y6806.00
G1 X37.00 Y6193.00
G1 X3.00 Y5940.00
G1 X0.00 Y5755.00
G1 X29.00 Y5865.00
G1 X330.00 Y6443.00
G1 X1185.00 Y6810.00
G1 X1912.00 Y6577.00
G1 X2461.00 Y5933.00
G1 X2750.00 Y5526.00
G1 X3263.00 Y5245.00
G1 X3335.00 Y5232.00
G1 X3296.00 Y5215.00
G1 X2980.00 Y5168.00
G1 X2775.00 Y5190.00
G1 X2475.00 Y5515.00
G1 X2340.00 Y5834.00
G1 X2391.00 Y5630.00
G1 X2532.00 Y5270.00
G1 X3077.00 Y5044.00
G1 X3657.00 Y5254.00
G1 X3723.00 Y5303.00
G1 X3740.00 Y5236.00
G1 X3300.00 Y4625.00
G1 X2708.00 Y4431.00
G1 X2620.00 Y4412.00
G1 X2600.00 Y4457.00
G1 X2420.00 Y4711.00
G1 X2350.00 Y4817.00
G1 X2310.00 Y4960.00
G1 X2270.00 Y5090.00
G1 X2294.00 Y5137.00
G1 X2368.00 Y5165.00
G1 X2457.00 Y5134.00
G1 X2551.00 Y4966.00
G1 X2546.00 Y4885.00
G1 X2510.00 Y4872.00
G1 X2490.00 Y4840.00
G1 X2571.00 Y4770.00
G1 X2610.00 Y4798.00
G1 X2628.00 Y4905.00
G1 X2540.00 Y5140.00
G1 X2381.00 Y5230.00
G1 X2357.00 Y5230.00
G1 X2378.00 Y5253.00
G1 X2416.00 Y5340.00
G1 X2377.00 Y5594.00
G1 X2233.00 Y5710.00
G1 X2235.00 Y5756.00
G1 X2110.00 Y6165.00
G1 X2063.00 Y6189.00
G1 X2068.00 Y6243.00
G1 X2044.00 Y6351.00
G1 X1968.00 Y6441.00
G1 X1708.00 Y6521.00
G1 X1676.00 Y6560.00
G1 X1406.00 Y6771.00
G1 X1201.00 Y6743.00
G1 X895.00 Y6686.00
G1 X572.00 Y6497.00
G1 X502.00 Y6437.00
G1 X264.00 Y6181.00
G1 X213.00 Y6026.00
G1 X149.00 Y5816.00
G1 X224.00 Y5008.00
G1 X650.00 Y4470.00
G1 X688.00 Y4444.00
G1 X657.00 Y4374.00
G1 X611.00 Y4268.00
G1 X591.00 Y4230.00
G1 X379.00 Y4416.00
G1 X30.00 Y5105.00
G1 X1.00 Y5215.00
G1 X3.00 Y5010.00
G1 X5.00 Y4805.00
G1 X53.00 Y4705.00
G1 X289.00 Y4344.00
G1 X528.00 Y4120.00
G1 X551.00 Y4105.00
G1 X525.00 Y4030.00
G1 X535.00 Y3286.00
G1 X838.00 Y2879.00
G1 X1224.00 Y2695.00
G1 X1346.00 Y2670.00
G1 X1374.00 Y2662.00
G1 X1359.00 Y2544.00
G1 X1873.00 Y1562.00
G1 X2203.00 Y1513.00
G1 X2488.00 Y1585.00
G1 X2565.00 Y1607.00
G1 X2585.00 Y1545.00
G1 X2871.00 Y1104.00
G1 X3123.00 Y930.00
G1 X3545.00 Y845.00
G1 X3953.00 Y926.00
G1 X4182.00 Y1078.00
G1 X4239.00 Y1132.00
G1 X4302.00 Y1107.00
G1 X4675.00 Y1104.00
G1 X4856.00 Y1488.00
G1 X4733.00 Y1650.00
G1 X4496.00 Y1628.00
G1 X4480.00 Y1621.00
G1 X4545.00 Y1696.00
G1 X4680.00 Y1750.00
G1 X4790.00 Y1787.00
G1 X4790.00 Y1760.00
G1 X4857.00 Y1591.00
G1 X4892.00 Y1471.00
G1 X5508.00 Y810.00
G1 X5777.00 Y865.00
G1 X5829.00 Y888.00
G1 X5892.00 Y855.00
G1 X6205.00 Y773.00
G1 X6807.00 Y997.00
G1 X6991.00 Y1291.00
G1 X7028.00 Y1382.00
G1 X7127.00 Y1345.00
G1 X7393.00 Y1248.00
G1 X7680.00 Y1225.00
G1 X8137.00 Y1305.00
G1 X8732.00 Y2140.00
G1 X8744.00 Y2250.00
G1 X8774.00 Y2254.00
G1 X8870.00 Y2265.00
G1 X9312.00 Y2412.00
G1 X9790.00 Y3172.00
G1 X9795.00 Y3353.00
G1 X9788.00 Y3431.00
G1 X9882.00 Y3528.00
G1 X10197.00 Y4041.00
G1 X10235.00 Y4145.00
G1 X10235.00 Y4535.00
G1 X10211.00 Y4995.00
G1 X9894.00 Y5507.00
G1 X9115.00 Y5810.00
G1 X9005.00 Y5810.00
G1 X9041.00 Y5843.00
G1 X9140.00 Y5996.00
G1 X9116.00 Y6268.00
G1 X9137.00 Y6314.00
G1 X9198.00 Y6399.00
G1 X9223.00 Y6545.00
G1 X9106.00 Y6821.00
G1 X9093.00 Y6840.00
G1 X9141.00 Y6869.00
G1 X9170.00 Y6949.00
G1 X9087.00 Y7193.00
G1 X8969.00 Y7296.00
G1 X8927.00 Y7359.00
G1 X8902.00 Y7456.00
G1 X8688.00 Y7648.00
G1 X8607.00 Y7715.00
G1 X8403.00 Y8120.00
G1 X8619.00 Y8364.00
G1 X8656.00 Y8276.00
G1 X8572.00 Y8187.00
G1 X8599.00 Y8120.00
G1 X8681.00 Y8090.00
G1 X8887.00 Y8464.00
G1 X8710.00 Y8639.00
G1 X8420.00 Y8656.00
G1 X8050.00 Y8236.00
G1 X8040.00 Y8005.00
G1 X8030.00 Y7942.00
G1 X8025.00 Y7804.00
G1 X8129.00 Y7665.00
G1 X8155.00 Y7614.00
G1 X8268.00 Y7387.00
G1 X8326.00 Y7344.00
G1 X8383.00 Y7243.00
G1 X8287.00 Y6320.00
G1 X7775.00 Y5773.00
G1 X7315.00 Y5598.00
G1 X7092.00 Y5769.00
G1 X7217.00 Y6165.00
G1 X7527.00 Y7065.00
G1 X7526.00 Y7755.00
G1 X7066.00 Y8805.00
G1 X6660.00 Y9211.00
G1 X5515.00 Y9696.00
G1 X4905.00 Y9714.00
G1 X6415.00 Y9208.00
G1 X7057.00 Y8530.00
G1 X7366.00 Y7661.00
G1 X7355.00 Y7106.00
G1 X7056.00 Y6232.00
G1 X6879.00 Y5810.00
G1 X6855.00 Y5565.00
G1 X6882.00 Y5310.00
G1 X7224.00 Y4725.00
G1 X8285.00 Y4263.00
G1 X8475.00 Y4245.00
G1 X8375.00 Y4240.00
G1 X8065.00 Y4232.00
G1 X7315.00 Y4375.00
G1 X7013.00 Y4580.00
G1 X6940.00 Y4621.00
G1 X7124.00 Y4438.00
G1 X7307.00 Y4329.00
G1 X8230.00 Y4214.00
G1 X9087.00 Y4105.00
G1 X9443.00 Y3827.00
G1 X9641.00 Y3256.00
G1 X8860.00 Y2392.00
G1 X8706.00 Y2498.00
G1 X8673.00 Y2618.00
G1 X8708.00 Y2630.00
G1 X8780.00 Y2652.00
G1 X8718.00 Y2658.00
G1 X8747.00 Y2698.00
G1 X9167.00 Y2948.00
G1 X9172.00 Y2924.00
G1 X8846.00 Y2676.00
G1 X8837.00 Y2659.00
G1 X9074.00 Y2759.00
G1 X9248.00 Y2966.00
G1 X9244.00 Y3509.00
G1 X8973.00 Y3789.00
G1 X8270.00 Y3874.00
G1 X7825.00 Y3729.00
G1 X7725.00 Y3709.00
G1 X7605.00 Y3791.00
G1 X7505.00 Y3855.00
G1 X7629.00 Y3862.00
G1 X7764.00 Y3902.00
G1 X7641.00 Y3910.00
G1 X7277.00 Y3994.00
G1 X6744.00 Y4344.00
G1 X6471.00 Y4623.00
G1 X6420.00 Y4660.00
G1 X6623.00 Y4368.00
G1 X7387.00 Y3755.00
G1 X8561.00 Y2425.00
G1 X8565.00 Y2020.00
G1 X8092.00 Y1423.00
G1 X7940.00 Y1372.00
G1 X7685.00 Y1346.00
G1 X6835.00 Y1658.00
G1 X6330.00 Y1918.00
G1 X5520.00 Y1882.00
G1 X5199.00 Y1472.00
G1 X5425.00 Y1071.00
G1 X5901.00 Y1272.00
G1 X5910.00 Y1478.00
G1 X5755.00 Y1507.00
G1 X5775.00 Y1400.00
G1 X5798.00 Y1300.00
G1 X5744.00 Y1325.00
G1 X5798.00 Y1637.00
G1 X6028.00 Y1404.00
G1 X5626.00 Y931.00
G1 X5156.00 Y1061.00
G1 X4989.00 Y1546.00
G1 X5176.00 Y1899.00
G1 X5803.00 Y2232.00
G1 X6380.00 Y2237.00
G1 X7054.00 Y1961.00
G1 X7683.00 Y1740.00
G1 X8024.00 Y1861.00
G1 X8069.00 Y2390.00
G1 X7932.00 Y2510.00
G1 X7925.00 Y2532.00
G1 X7931.00 Y2705.00
G1 X7923.00 Y2747.00
G1 X7995.00 Y2657.00
G1 X8153.00 Y1900.00
G1 X7940.00 Y1688.00
G1 X7605.00 Y1625.00
G1 X7333.00 Y1652.00
G1 X7093.00 Y1735.00
G1 X6910.00 Y1792.00
G1 X7382.00 Y1603.00
G1 X7835.00 Y1603.00
G1 X8169.00 Y1846.00
G1 X8190.00 Y2456.00
G1 X7760.00 Y2966.00
G1 X7267.00 Y3293.00
G1 X6548.00 Y3596.00
G1 X5991.00 Y3955.00
G1 X5835.00 Y4265.00
G1 X5781.00 Y4388.00
G1 X5786.00 Y4282.00
G1 X6197.00 Y3477.00
G1 X6773.00 Y2495.00
G1 X6867.00 Y2223.00
G1 X6789.00 Y2253.00
G1 X6385.00 Y2370.00
G1 X6336.00 Y2418.00
G1 X6226.00 Y2580.00
G1 X6140.00 Y2726.00
G1 X5989.00 Y2962.00
G1 X5658.00 Y3475.00
G1 X5643.00 Y3595.00
G1 X5539.00 Y4066.00
G1 X5257.00 Y4349.00
G1 X4452.00 Y4368.00
G1 X4044.00 Y3875.00
G1 X4015.00 Y3650.00
G1 X4047.00 Y3425.00
G1 X4078.00 Y3335.00
G1 X4053.00 Y3300.00
G1 X3841.00 Y3078.00
G1 X3442.00 Y2636.00
G1 X3131.00 Y2163.00
G1 X3003.00 Y1480.00
G1 X3251.00 Y1160.00
G1 X3575.00 Y1070.00
G1 X3500.00 Y1104.00
G1 X3197.00 Y1250.00
G1 X3044.00 Y1490.00
G1 X3042.00 Y1847.00
G1 X3497.00 Y2645.00
G1 X3605.00 Y2775.00
G1 X3611.00 Y2704.00
G1 X3629.00 Y2613.00
G1 X3582.00 Y2581.00
G1 X3330.00 Y2393.00
G1 X3302.00 Y2261.00
G1 X3254.00 Y2123.00
G1 X3134.00 Y1901.00
G1 X3114.00 Y1745.00
G1 X3250.00 Y1321.00
G1 X3546.00 Y1164.00
G1 X4054.00 Y1218.00
G1 X4092.00 Y1217.00
G1 X4080.00 Y1170.00
G1 X4115.00 Y1195.00
G1 X4136.00 Y1174.00
G1 X3785.00 Y983.00
G1 X3340.00 Y984.00
G1 X2693.00 Y1836.00
G1 X3174.00 Y3133.00
G1 X3730.00 Y3755.00
G1 X4032.00 Y4086.00
G1 X4220.00 Y4393.00
G1 X4164.00 Y4362.00
G1 X3857.00 Y4025.00
G1 X3065.00 Y3811.00
G1 X2766.00 Y3794.00
G1 X2667.00 Y3788.00
G1 X2673.00 Y3816.00
G1 X2686.00 Y3953.00
G1 X2693.00 Y4060.00
G1 X2721.00 Y4060.00
G1 X2796.00 Y4088.00
G1 X2741.00 Y4090.00
G1 X2675.00 Y4190.00
G1 X2664.00 Y4261.00
G1 X2808.00 Y4313.00
G1 X3333.00 Y4487.00
G1 X3896.00 Y5032.00
G1 X3906.00 Y5137.00
G1 X3817.00 Y5352.00
G1 X3761.00 Y5497.00
G1 X3640.00 Y5870.00
G1 X3571.00 Y6065.00
G1 X3355.00 Y6514.00
G1 X3003.00 Y7371.00
G1 X3004.00 Y7925.00
G1 X3284.00 Y8630.00
G1 X4277.00 Y9429.00
G1 X5410.00 Y9579.00
G1 X1694.00 Y8547.00
G1 X1793.00 Y8489.00
G1 X1901.00 Y8415.00
G1 X1986.00 Y8305.00
G1 X2030.00 Y8200.00
G1 X2106.00 Y7895.00
G1 X2095.00 Y7595.00
G1 X1972.00 Y7332.00
G1 X1575.00 Y7035.00
G1 X1440.00 Y6975.00
G1 X1225.00 Y6936.00
G1 X1033.00 Y6923.00
G1 X990.00 Y6927.00
G1 X1055.00 Y6984.00
G1 X1120.00 Y7041.00
G1 X977.00 Y6953.00
G1 X880.00 Y6899.00
G1 X1054.00 Y7075.00
G1 X1345.00 Y7210.00
G1 X1800.00 Y7466.00
G1 X1961.00 Y8047.00
G1 X1853.00 Y8265.00
G1 X1607.00 Y8432.00
G1 X1240.00 Y8432.00
G1 X1043.00 Y8286.00
G1 X990.00 Y8112.00
G1 X1297.00 Y7899.00
G1 X1377.00 Y8004.00
G1 X1345.00 Y8077.00
G1 X1326.00 Y8127.00
G1 X1415.00 Y8107.00
G1 X1408.00 Y7864.00
G1 X1179.00 Y7782.00
G1 X946.00 Y7891.00
G1 X919.00 Y8378.00
G1 X1570.00 Y8610.00
G1 X8814.00 Y8262.00
G1 X8655.00 Y8164.00
G1 X8657.00 Y8211.00
G1 X8726.00 Y8285.00
G1 X8647.00 Y8419.00
G1 X8322.00 Y8164.00
G1 X8534.00 Y7677.00
G1 X8836.00 Y6905.00
G1 X8721.00 Y6210.00
G1 X8377.00 Y5668.00
G1 X7484.00 Y5415.00
G1 X7406.00 Y5458.00
G1 X7452.00 Y5486.00
G1 X8027.00 Y5819.00
G1 X8505.00 Y6670.00
G1 X8505.00 Y7142.00
G1 X8233.00 Y7709.00
G1 X8208.00 Y7763.00
G1 X8169.00 Y7890.00
G1 X8126.00 Y8090.00
G1 X8153.00 Y8279.00
G1 X8293.00 Y8496.00
G1 X8452.00 Y8585.00
G1 X8663.00 Y8570.00
G1 X1810.00 Y8570.00
G1 X1764.00 Y8576.00
G1 X1763.00 Y8586.00
G1 X1796.00 Y8580.00
G1 X1996.00 Y8432.00
G1 X1922.00 Y8478.00
G1 X1975.00 Y8463.00
G1 X2116.00 Y8237.00
G1 X2103.00 Y8214.00
G1 X2058.00 Y8325.00
G1 X2090.00 Y8305.00
G1 X2130.00 Y8290.00
G1 X2130.00 Y8312.00
G1 X2160.00 Y8268.00
G1 X2166.00 Y7910.00
G1 X2167.00 Y7765.00
G1 X2149.00 Y7820.00
G1 X2104.00 Y8123.00
G1 X2119.00 Y8126.00
G1 X2140.00 Y8036.00
G1 X2276.00 Y7993.00
G1 X2256.00 Y8025.00
G1 X2220.00 Y8027.00
G1 X2240.00 Y7961.00
G1 X2241.00 Y7915.00
G1 X2209.00 Y8094.00
G1 X2226.00 Y8110.00
G1 X2255.00 Y8054.00
G1 X8115.00 Y7750.00
G1 X8064.00 Y7887.00
G1 X8109.00 Y7834.00
G1 X2261.00 Y7777.00
G1 X2247.00 Y7705.00
G1 X2216.00 Y7672.00
G1 X2260.00 Y7810.00
G1 X2270.00 Y7806.00
G1 X2290.00 Y7710.00
G1 X2287.00 Y7763.00
G1 X2300.00 Y7740.00
G1 X2146.00 Y7552.00
G1 X2131.00 Y7573.00
G1 X2140.00 Y7640.00
G1 X2164.00 Y7604.00
G1 X8300.00 Y7475.00
G1 X8280.00 Y7480.00
G1 X8220.00 Y7617.00
G1 X8276.00 Y7545.00
G1 X8831.00 Y7405.00
G1 X8720.00 Y7572.00
G1 X8801.00 Y7479.00
G1 X2115.00 Y7393.00
G1 X2070.00 Y7321.00
G1 X2150.00 Y7517.00
G1 X2167.00 Y7491.00
G1 X2215.00 Y7346.00
G1 X2185.00 Y7299.00
G1 X2150.00 Y7308.00
G1 X2195.00 Y7456.00
G1 X2248.00 Y7456.00
G1 X1942.00 Y7230.00
G1 X1977.00 Y7268.00
G1 X2031.00 Y7286.00
G1 X1996.00 Y7248.00
G1 X8839.00 Y7277.00
G1 X8805.00 Y7313.00
G1 X8848.00 Y7285.00
G1 X8890.00 Y7254.00
G1 X2076.00 Y7246.00
G1 X2069.00 Y7260.00
G1 X2085.00 Y7250.00
G1 X8986.00 Y6883.00
G1 X9009.00 Y6846.00
G1 X8977.00 Y6826.00
G1 X8880.00 Y6533.00
G1 X8945.00 Y6350.00
G1 X8971.00 Y6322.00
G1 X8925.00 Y6300.00
G1 X8790.00 Y6122.00
G1 X8785.00 Y5896.00
G1 X8782.00 Y5860.00
G1 X8561.00 Y5707.00
G1 X8499.00 Y5645.00
G1 X8229.00 Y5372.00
G1 X8016.00 Y5303.00
G1 X7904.00 Y5309.00
G1 X7924.00 Y5320.00
G1 X8248.00 Y5492.00
G1 X8855.00 Y6535.00
G1 X8833.00 Y7225.00
G1 X8828.00 Y7245.00
G1 X8848.00 Y7225.00
G1 X8885.00 Y7125.00
G1 X9098.00 Y6958.00
G1 X8970.00 Y7043.00
G1 X8950.00 Y7225.00
G1 X9030.00 Y7167.00
G1 X2029.00 Y7180.00
G1 X1890.00 Y6993.00
G1 X1859.00 Y7001.00
G1 X1975.00 Y7184.00
G1 X2040.00 Y7190.00
G1 X1760.00 Y7047.00
G1 X1783.00 Y7099.00
G1 X1839.00 Y7144.00
G1 X1819.00 Y7101.00
G1 X2004.00 Y7031.00
G1 X1940.00 Y7026.00
G1 X2007.00 Y7130.00
G1 X2070.00 Y7140.00
G1 X1642.00 Y6928.00
G1 X1567.00 Y6911.00
G1 X1571.00 Y6905.00
G1 X1594.00 Y6901.00
G1 X1555.00 Y6893.00
G1 X1510.00 Y6900.00
G1 X1630.00 Y6973.00
G1 X1730.00 Y6966.00
G1 X9152.00 Y6547.00
G1 X9128.00 Y6422.00
G1 X9071.00 Y6372.00
G1 X8965.00 Y6681.00
G1 X9100.00 Y6742.00
G1 X1574.00 Y6480.00
G1 X1400.00 Y6416.00
G1 X1154.00 Y6545.00
G1 X1153.00 Y6623.00
G1 X1494.00 Y6686.00
G1 X1104.00 Y6488.00
G1 X1478.00 Y6333.00
G1 X1530.00 Y6332.00
G1 X1679.00 Y6120.00
G1 X1719.00 Y6064.00
G1 X1710.00 Y5975.00
G1 X1835.00 Y5725.00
G1 X2041.00 Y5653.00
G1 X2080.00 Y5655.00
G1 X2060.00 Y5609.00
G1 X2040.00 Y5490.00
G1 X2039.00 Y5415.00
G1 X2022.00 Y5466.00
G1 X1860.00 Y5641.00
G1 X1691.00 Y5660.00
G1 X1668.00 Y5694.00
G1 X1556.00 Y5936.00
G1 X1179.00 Y6183.00
G1 X766.00 Y6050.00
G1 X579.00 Y5706.00
G1 X575.00 Y5444.00
G1 X535.00 Y5545.00
G1 X533.00 Y5901.00
G1 X627.00 Y6066.00
G1 X715.00 Y6190.00
G1 X732.00 Y6245.00
G1 X790.00 Y6246.00
G1 X911.00 Y6277.00
G1 X1059.00 Y6405.00
G1 X1033.00 Y6638.00
G1 X1030.00 Y6654.00
G1 X1060.00 Y6663.00
G1 X1099.00 Y6669.00
G1 X1105.00 Y6644.00
G1 X991.00 Y6453.00
G1 X657.00 Y6379.00
G1 X701.00 Y6557.00
G1 X899.00 Y6617.00
G1 X982.00 Y6581.00
G1 X1971.00 Y6341.00
G1 X1969.00 Y6198.00
G1 X1850.00 Y6172.00
G1 X1718.00 Y6203.00
G1 X1599.00 Y6383.00
G1 X1860.00 Y6440.00
G1 X432.00 Y6066.00
G1 X353.00 Y6094.00
G1 X335.00 Y6158.00
G1 X507.00 Y6365.00
G1 X593.00 Y6332.00
G1 X640.00 Y6252.00
G1 X9074.00 Y6040.00
G1 X8866.00 Y5903.00
G1 X8867.00 Y6156.00
G1 X9039.00 Y6235.00
G1 X2210.00 Y5942.00
G1 X2184.00 Y5780.00
G1 X2181.00 Y5798.00
G1 X2084.00 Y6087.00
G1 X2088.00 Y6116.00
G1 X2121.00 Y5820.00
G1 X1781.00 Y6032.00
G1 X1912.00 Y6097.00
G1 X2019.00 Y6067.00
G1 X1563.00 Y5645.00
G1 X1561.00 Y5555.00
G1 X1542.00 Y5448.00
G1 X1564.00 Y5313.00
G1 X1717.00 Y5140.00
G1 X1720.00 Y5105.00
G1 X1699.00 Y5054.00
G1 X1645.00 Y5010.00
G1 X1212.00 Y4910.00
G1 X1149.00 Y4880.00
G1 X1087.00 Y4905.00
G1 X680.00 Y5455.00
G1 X835.00 Y5949.00
G1 X1135.00 Y6057.00
G1 X1290.00 Y6020.00
G1 X385.00 Y5953.00
G1 X374.00 Y5503.00
G1 X407.00 Y5440.00
G1 X396.00 Y5565.00
G1 X411.00 Y5921.00
G1 X458.00 Y5973.00
G1 X497.00 Y5975.00
G1 X484.00 Y5889.00
G1 X473.00 Y5670.00
G1 X541.00 Y5344.00
G1 X706.00 Y5071.00
G1 X943.00 Y4850.00
G1 X1011.00 Y4805.00
G1 X973.00 Y4776.00
G1 X768.00 Y4571.00
G1 X742.00 Y4536.00
G1 X701.00 Y4563.00
G1 X478.00 Y4786.00
G1 X300.00 Y5103.00
G1 X223.00 Y5510.00
G1 X239.00 Y5778.00
G1 X286.00 Y5946.00
G1 X312.00 Y6010.00
G1 X337.00 Y5990.00
G1 X377.00 Y5970.00
G1 X8799.00 Y5772.00
G1 X8691.00 Y5735.00
G1 X8633.00 Y5713.00
G1 X8739.00 Y5786.00
G1 X8834.00 Y5791.00
G1 X10144.00 Y4255.00
G1 X9819.00 Y3627.00
G1 X9763.00 Y3580.00
G1 X9746.00 Y3612.00
G1 X9705.00 Y3716.00
G1 X9670.00 Y3794.00
G1 X9725.00 Y3872.00
G1 X9930.00 Y4290.00
G1 X9794.00 Y5132.00
G1 X9527.00 Y5388.00
G1 X8875.00 Y5486.00
G1 X8561.00 Y4890.00
G1 X8787.00 Y4827.00
G1 X8813.00 Y5001.00
G1 X8764.00 Y4995.00
G1 X8755.00 Y4934.00
G1 X8736.00 Y4910.00
G1 X8675.00 Y4992.00
G1 X8925.00 Y5012.00
G1 X8980.00 Y4865.00
G1 X8822.00 Y4633.00
G1 X8655.00 Y4605.00
G1 X8488.00 Y4632.00
G1 X8237.00 Y5045.00
G1 X8429.00 Y5460.00
G1 X8914.00 Y5705.00
G1 X9365.00 Y5690.00
G1 X2350.00 Y5335.00
G1 X2255.00 Y5260.00
G1 X2183.00 Y5293.00
G1 X2142.00 Y5615.00
G1 X2274.00 Y5626.00
G1 X1923.00 Y5248.00
G1 X1620.00 Y5453.00
G1 X1690.00 Y5587.00
G1 X1839.00 Y5580.00
G1 X7286.00 Y5307.00
G1 X7640.00 Y5187.00
G1 X7936.00 Y5166.00
G1 X8136.00 Y5165.00
G1 X8129.00 Y5120.00
G1 X8184.00 Y4764.00
G1 X8217.00 Y4702.00
G1 X8111.00 Y4679.00
G1 X7855.00 Y4657.00
G1 X7355.00 Y4833.00
G1 X7036.00 Y5438.00
G1 X7070.00 Y5455.00
G1 X2209.00 Y5185.00
G1 X2224.00 Y5162.00
G1 X2213.00 Y5123.00
G1 X2168.00 Y5126.00
G1 X2025.00 Y5200.00
G1 X2026.00 Y5256.00
G1 X2042.00 Y5355.00
G1 X2042.00 Y5415.00
G1 X2054.00 Y5375.00
G1 X2083.00 Y5304.00
G1 X9325.00 Y5230.00
G1 X9127.00 Y4981.00
G1 X9066.00 Y4951.00
G1 X9044.00 Y5000.00
G1 X8916.00 Y5142.00
G1 X8693.00 Y5137.00
G1 X8640.00 Y5102.00
G1 X8619.00 Y5070.00
G1 X8599.00 Y5045.00
G1 X8605.00 Y5084.00
G1 X8918.00 Y5389.00
G1 X9144.00 Y5384.00
G1 X9470.00 Y5250.00
G1 X9516.00 Y5210.00
G1 X9498.00 Y5257.00
G1 X9541.00 Y5248.00
G1 X9744.00 Y5001.00
G1 X9809.00 Y4325.00
G1 X9615.00 Y3929.00
G1 X9591.00 Y3900.00
G1 X9569.00 Y3932.00
G1 X9563.00 Y3992.00
G1 X9551.00 Y4016.00
G1 X9522.00 Y3988.00
G1 X9486.00 Y4027.00
G1 X9370.00 Y4125.00
G1 X9300.00 Y4215.00
G1 X9456.00 Y4470.00
G1 X9535.00 Y4835.00
G1 X9506.00 Y5053.00
G1 X9369.00 Y5301.00
G1 X9395.00 Y5320.00
G1 X9432.00 Y4860.00
G1 X9353.00 Y4643.00
G1 X8603.00 Y4458.00
G1 X8460.00 Y4470.00
G1 X8198.00 Y4419.00
G1 X8013.00 Y4446.00
G1 X8196.00 Y4482.00
G1 X8565.00 Y4514.00
G1 X8822.00 Y4539.00
G1 X9070.00 Y4855.00
G1 X9119.00 Y4929.00
G1 X9318.00 Y5100.00
G1 X9361.00 Y5160.00
G1 X9388.00 Y5113.00
G1 X2209.00 Y4936.00
G1 X2227.00 Y4874.00
G1 X2130.00 Y4931.00
G1 X2099.00 Y4975.00
G1 X1871.00 Y5016.00
G1 X1773.00 Y5026.00
G1 X1854.00 Y5111.00
G1 X2034.00 Y5118.00
G1 X1928.00 Y4993.00
G1 X1940.00 Y4998.00
G1 X1953.00 Y4993.00
G1 X2547.00 Y3974.00
G1 X2240.00 Y3195.00
G1 X1867.00 Y2608.00
G1 X1785.00 Y2425.00
G1 X1740.00 Y2154.00
G1 X1813.00 Y1881.00
G1 X2020.00 Y1678.00
G1 X2272.00 Y1620.00
G1 X2250.00 Y1600.00
G1 X1939.00 Y1638.00
G1 X1521.00 Y2032.00
G1 X1450.00 Y2373.00
G1 X1816.00 Y3277.00
G1 X2127.00 Y3970.00
G1 X1994.00 Y4357.00
G1 X1570.00 Y4476.00
G1 X1288.00 Y4252.00
G1 X1256.00 Y4105.00
G1 X1287.00 Y3965.00
G1 X1817.00 Y3724.00
G1 X1920.00 Y3719.00
G1 X1792.00 Y3478.00
G1 X1715.00 Y3350.00
G1 X1635.00 Y3350.00
G1 X1124.00 Y3532.00
G1 X1054.00 Y3573.00
G1 X1077.00 Y3528.00
G1 X1582.00 Y3303.00
G1 X1670.00 Y3286.00
G1 X1617.00 Y3200.00
G1 X1530.00 Y3128.00
G1 X1063.00 Y3324.00
G1 X841.00 Y3554.00
G1 X710.00 Y4010.00
G1 X805.00 Y4368.00
G1 X1342.00 Y4824.00
G1 X1656.00 Y4869.00
G1 X1881.00 Y4846.00
G1 X8381.00 Y4570.00
G1 X8390.00 Y4562.00
G1 X7969.00 Y4515.00
G1 X7813.00 Y4515.00
G1 X7727.00 Y4559.00
G1 X7628.00 Y4618.00
G1 X7625.00 Y4628.00
G1 X7755.00 Y4615.00
G1 X8155.00 Y4649.00
G1 X8235.00 Y4668.00
G1 X8309.00 Y4620.00
G1 X9209.00 Y4279.00
G1 X9170.00 Y4232.00
G1 X9134.00 Y4251.00
G1 X8962.00 Y4300.00
G1 X8835.00 Y4355.00
G1 X9240.00 Y4464.00
G1 X9348.00 Y4509.00
G1 X9344.00 Y4488.00
G1 X8609.00 Y4376.00
G1 X8470.00 Y4379.00
G1 X8360.00 Y4397.00
G1 X8577.00 Y4395.00
G1 X1905.00 Y4239.00
G1 X1926.00 Y4203.00
G1 X1494.00 Y4303.00
G1 X1569.00 Y4340.00
G1 X1675.00 Y4295.00
G1 X1858.00 Y4233.00
G1 X1795.00 Y4275.00
G1 X1670.00 Y4352.00
G1 X1772.00 Y4334.00
G1 X5509.00 Y3850.00
G1 X5426.00 Y3316.00
G1 X5340.00 Y3129.00
G1 X5448.00 Y2966.00
G1 X5613.00 Y2789.00
G1 X5875.00 Y2606.00
G1 X5953.00 Y2762.00
G1 X5760.00 Y2775.00
G1 X5813.00 Y2751.00
G1 X5838.00 Y2766.00
G1 X5780.00 Y2720.00
G1 X5720.00 Y2797.00
G1 X5796.00 Y2890.00
G1 X6030.00 Y2791.00
G1 X5998.00 Y2569.00
G1 X5921.00 Y2534.00
G1 X5606.00 Y2634.00
G1 X5443.00 Y2801.00
G1 X5442.00 Y2761.00
G1 X5561.00 Y2580.00
G1 X5679.00 Y2399.00
G1 X5719.00 Y2347.00
G1 X5627.00 Y2311.00
G1 X5539.00 Y2278.00
G1 X5470.00 Y2331.00
G1 X5269.00 Y2613.00
G1 X5180.00 Y2728.00
G1 X5331.00 Y2282.00
G1 X5370.00 Y2201.00
G1 X5259.00 Y2130.00
G1 X5206.00 Y2159.00
G1 X4964.00 Y2678.00
G1 X4936.00 Y2787.00
G1 X4918.00 Y2664.00
G1 X4725.00 Y2174.00
G1 X4268.00 Y1971.00
G1 X3986.00 Y1826.00
G1 X4010.00 Y1633.00
G1 X4056.00 Y1525.00
G1 X3991.00 Y1386.00
G1 X3830.00 Y1388.00
G1 X3814.00 Y1580.00
G1 X3859.00 Y1521.00
G1 X3905.00 Y1424.00
G1 X4004.00 Y1461.00
G1 X3926.00 Y1614.00
G1 X3846.00 Y1915.00
G1 X4245.00 Y2164.00
G1 X4463.00 Y2253.00
G1 X4620.00 Y2458.00
G1 X4684.00 Y2731.00
G1 X4631.00 Y2646.00
G1 X4197.00 Y2246.00
G1 X3884.00 Y2102.00
G1 X3548.00 Y2070.00
G1 X3390.00 Y2267.00
G1 X3512.00 Y2476.00
G1 X3700.00 Y2441.00
G1 X3599.00 Y2316.00
G1 X3608.00 Y2326.00
G1 X3643.00 Y2412.00
G1 X3500.00 Y2306.00
G1 X3673.00 Y2200.00
G1 X3951.00 Y2285.00
G1 X4363.00 Y2661.00
G1 X4402.00 Y2760.00
G1 X4317.00 Y2667.00
G1 X3995.00 Y2467.00
G1 X3723.00 Y2823.00
G1 X3869.00 Y2910.00
G1 X4000.00 Y2806.00
G1 X3935.00 Y2754.00
G1 X3943.00 Y2776.00
G1 X3978.00 Y2798.00
G1 X3845.00 Y2835.00
G1 X3894.00 Y2666.00
G1 X4069.00 Y2681.00
G1 X4185.00 Y2789.00
G1 X4295.00 Y2914.00
G1 X4366.00 Y3123.00
G1 X4285.00 Y3240.00
G1 X4199.00 Y3987.00
G1 X4730.00 Y4349.00
G1 X5017.00 Y4325.00
G1 X1774.00 Y4186.00
G1 X1896.00 Y4160.00
G1 X1871.00 Y4124.00
G1 X1823.00 Y4103.00
G1 X1765.00 Y4141.00
G1 X1498.00 Y4225.00
G1 X1430.00 Y4236.00
G1 X1475.00 Y4266.00
G1 X1585.00 Y4237.00
G1 X1680.00 Y4068.00
G1 X1663.00 Y4055.00
G1 X1462.00 Y4103.00
G1 X1382.00 Y4124.00
G1 X1410.00 Y4152.00
G1 X1591.00 Y4140.00
G1 X1914.00 Y3856.00
G1 X1600.00 Y3880.00
G1 X1740.00 Y3929.00
G1 X1920.00 Y3979.00
G1 X1984.00 Y3999.00
G1 X1986.00 Y3948.00
G1 X706.00 Y3544.00
G1 X740.00 Y3451.00
G1 X806.00 Y3230.00
G1 X927.00 Y3094.00
G1 X925.00 Y3114.00
G1 X787.00 Y3390.00
G1 X780.00 Y3425.00
G1 X801.00 Y3400.00
G1 X880.00 Y3314.00
G1 X964.00 Y3201.00
G1 X1206.00 Y2950.00
G1 X1351.00 Y2881.00
G1 X1437.00 Y2855.00
G1 X1433.00 Y2813.00
G1 X1414.00 Y2772.00
G1 X1134.00 Y2836.00
G1 X641.00 Y3320.00
G1 X576.00 Y3675.00
G1 X584.00 Y3865.00
G1 X593.00 Y3915.00
G1 X606.00 Y3840.00
G1 X646.00 Y3682.00
G1 X3422.00 Y3628.00
G1 X3327.00 Y3620.00
G1 X2935.00 Y3565.00
G1 X2565.00 Y3464.00
G1 X2553.00 Y3471.00
G1 X2650.00 Y3721.00
G1 X2673.00 Y3743.00
G1 X3270.00 Y3780.00
G1 X3568.00 Y3795.00
G1 X3580.00 Y3795.00
G1 X3506.00 Y3713.00
G1 X8923.00 Y3683.00
G1 X8897.00 Y3637.00
G1 X8865.00 Y3600.00
G1 X8795.00 Y3615.00
G1 X8473.00 Y3631.00
G1 X8071.00 Y3538.00
G1 X7991.00 Y3517.00
G1 X7913.00 Y3579.00
G1 X7840.00 Y3640.00
G1 X8380.00 Y3794.00
G1 X8714.00 Y3770.00
G1 X6196.00 Y3622.00
G1 X6205.00 Y3644.00
G1 X6230.00 Y3619.00
G1 X9113.00 Y3517.00
G1 X9125.00 Y3429.00
G1 X8825.00 Y3088.00
G1 X8530.00 Y2995.00
G1 X8484.00 Y2989.00
G1 X8441.00 Y3050.00
G1 X8334.00 Y3179.00
G1 X8270.00 Y3252.00
G1 X8378.00 Y3263.00
G1 X8977.00 Y3573.00
G1 X9019.00 Y3620.00
G1 X9057.00 Y3588.00
G1 X8416.00 Y3483.00
G1 X8378.00 Y3508.00
G1 X8344.00 Y3537.00
G1 X8503.00 Y3569.00
G1 X8464.00 Y3526.00
G1 X6560.00 Y3323.00
G1 X6560.00 Y3285.00
G1 X6544.00 Y3317.00
G1 X6295.00 Y3507.00
G1 X6278.00 Y3539.00
G1 X6419.00 Y3526.00
G1 X6728.00 Y3483.00
G1 X6733.00 Y3460.00
G1 X6635.00 Y3387.00
G1 X6615.00 Y3375.00
G1 X6536.00 Y3512.00
G1 X6513.00 Y3546.00
G1 X6618.00 Y3514.00
G1 X3024.00 Y3402.00
G1 X2985.00 Y3380.00
G1 X2883.00 Y3460.00
G1 X2847.00 Y3477.00
G1 X2936.00 Y3498.00
G1 X3126.00 Y3539.00
G1 X3090.00 Y3492.00
G1 X3075.00 Y3299.00
G1 X3079.00 Y3350.00
G1 X3252.00 Y3525.00
G1 X3308.00 Y3531.00
G1 X8759.00 Y3502.00
G1 X8661.00 Y3479.00
G1 X8555.00 Y3437.00
G1 X8510.00 Y3415.00
G1 X8544.00 Y3502.00
G1 X8779.00 Y3523.00
G1 X8310.00 Y3417.00
G1 X8279.00 Y3424.00
G1 X8160.00 Y3451.00
G1 X8102.00 Y3453.00
G1 X8296.00 Y3455.00
G1 X5884.00 Y2992.00
G1 X5850.00 Y2983.00
G1 X5787.00 Y2967.00
G1 X5741.00 Y2998.00
G1 X5639.00 Y3186.00
G1 X5560.00 Y3328.00
G1 X5585.00 Y3381.00
G1 X5610.00 Y3450.00
G1 X5669.00 Y3345.00
G1 X5802.00 Y3113.00
G1 X6508.00 Y3250.00
G1 X6342.00 Y3432.00
G1 X6417.00 Y3388.00
G1 X8230.00 Y3399.00
G1 X8206.00 Y3400.00
G1 X8171.00 Y3397.00
G1 X8160.00 Y3396.00
G1 X8214.00 Y3414.00
G1 X7031.00 Y3263.00
G1 X7040.00 Y3202.00
G1 X7039.00 Y3165.00
G1 X7018.00 Y3195.00
G1 X6750.00 Y3360.00
G1 X6685.00 Y3366.00
G1 X6720.00 Y3388.00
G1 X6897.00 Y3385.00
G1 X9100.00 Y3024.00
G1 X8707.00 Y2806.00
G1 X8617.00 Y2790.00
G1 X8511.00 Y2954.00
G1 X8590.00 Y2968.00
G1 X9150.00 Y3372.00
G1 X9171.00 Y3404.00
G1 X9190.00 Y3343.00
G1 X2934.00 Y3288.00
G1 X2861.00 Y3137.00
G1 X2593.00 Y3092.00
G1 X2570.00 Y3164.00
G1 X2815.00 Y3400.00
G1 X2900.00 Y3371.00
G1 X8411.00 Y3360.00
G1 X8390.00 Y3375.00
G1 X8399.00 Y3390.00
G1 X8420.00 Y3375.00
G1 X2502.00 Y3225.00
G1 X2435.00 Y3147.00
G1 X2437.00 Y3257.00
G1 X2528.00 Y3344.00
G1 X2557.00 Y3328.00
G1 X7182.00 Y3263.00
G1 X7145.00 Y3241.00
G1 X7100.00 Y3235.00
G1 X7080.00 Y3292.00
G1 X7075.00 Y3326.00
G1 X7135.00 Y3285.00
G1 X6984.00 Y3089.00
G1 X6727.00 Y3068.00
G1 X6671.00 Y3284.00
G1 X6738.00 Y3310.00
G1 X6823.00 Y3296.00
G1 X4178.00 Y3191.00
G1 X4137.00 Y3163.00
G1 X4009.00 Y3005.00
G1 X3989.00 Y2970.00
G1 X3935.00 Y2991.00
G1 X3859.00 Y3006.00
G1 X3830.00 Y3003.00
G1 X3920.00 Y3101.00
G1 X4052.00 Y3247.00
G1 X4100.00 Y3299.00
G1 X4142.00 Y3245.00
G1 X5657.00 Y2994.00
G1 X5634.00 Y3042.00
G1 X5558.00 Y3178.00
G1 X5550.00 Y3220.00
G1 X5605.00 Y3149.00
G1 X1485.00 Y2990.00
G1 X1484.00 Y2930.00
G1 X1436.00 Y2896.00
G1 X1228.00 Y2981.00
G1 X1030.00 Y3181.00
G1 X1063.00 Y3167.00
G1 X1185.00 Y3097.00
G1 X7450.00 Y3000.00
G1 X7438.00 Y3005.00
G1 X7315.00 Y3116.00
G1 X7128.00 Y3129.00
G1 X7151.00 Y3168.00
G1 X7247.00 Y3188.00
G1 X7347.00 Y3154.00
G1 X5589.00 Y3047.00
G1 X5550.00 Y3053.00
G1 X5508.00 Y3140.00
G1 X5547.00 Y3108.00
G1 X4208.00 Y3110.00
G1 X4075.00 Y2931.00
G1 X4059.00 Y2911.00
G1 X4050.00 Y2949.00
G1 X4215.00 Y3120.00
G1 X2462.00 Y3053.00
G1 X2468.00 Y3102.00
G1 X2499.00 Y3034.00
G1 X2390.00 Y3014.00
G1 X2265.00 Y2872.00
G1 X2150.00 Y2849.00
G1 X2168.00 Y2860.00
G1 X2229.00 Y2897.00
G1 X2267.00 Y2979.00
G1 X2293.00 Y3058.00
G1 X2331.00 Y3090.00
G1 X2364.00 Y3059.00
G1 X7419.00 Y2920.00
G1 X7425.00 Y2795.00
G1 X7252.00 Y2765.00
G1 X7136.00 Y2862.00
G1 X7219.00 Y3086.00
G1 X7306.00 Y3055.00
G1 X7533.00 Y2951.00
G1 X7510.00 Y2929.00
G1 X7510.00 Y2968.00
G1 X7496.00 Y3048.00
G1 X7481.00 Y3088.00
G1 X7545.00 Y3042.00
G1 X7609.00 Y2996.00
G1 X7582.00 Y2984.00
G1 X2863.00 Y2945.00
G1 X2559.00 Y2139.00
G1 X2465.00 Y1946.00
G1 X2335.00 Y1925.00
G1 X2179.00 Y1957.00
G1 X1948.00 Y2288.00
G1 X1952.00 Y2441.00
G1 X2053.00 Y2687.00
G1 X2152.00 Y2720.00
G1 X2519.00 Y2886.00
G1 X2633.00 Y2930.00
G1 X2865.00 Y3015.00
G1 X2927.00 Y3053.00
G1 X4204.00 Y2989.00
G1 X4140.00 Y2860.00
G1 X4130.00 Y2845.00
G1 X4134.00 Y2953.00
G1 X4211.00 Y3040.00
G1 X4224.00 Y3031.00
G1 X2200.00 Y2921.00
G1 X2218.00 Y2940.00
G1 X2211.00 Y2917.00
G1 X7864.00 Y2644.00
G1 X7838.00 Y2548.00
G1 X7713.00 Y2510.00
G1 X7529.00 Y2838.00
G1 X7694.00 Y2906.00
G1 X7135.00 Y2661.00
G1 X6981.00 Y2630.00
G1 X6833.00 Y2849.00
G1 X7001.00 Y2864.00
G1 X5878.00 Y2684.00
G1 X5864.00 Y2685.00
G1 X5877.00 Y2722.00
G1 X5900.00 Y2716.00
G1 X7556.00 Y2385.00
G1 X7328.00 Y2429.00
G1 X7259.00 Y2573.00
G1 X7401.00 Y2618.00
G1 X6288.00 Y2383.00
G1 X6235.00 Y2390.00
G1 X6146.00 Y2456.00
G1 X6087.00 Y2521.00
G1 X6110.00 Y2568.00
G1 X6133.00 Y2614.00
G1 X6185.00 Y2555.00
G1 X6274.00 Y2437.00
G1 X7135.00 Y2508.00
G1 X7175.00 Y2453.00
G1 X7341.00 Y2304.00
G1 X7528.00 Y2266.00
G1 X7613.00 Y2301.00
G1 X7730.00 Y2265.00
G1 X7997.00 Y2050.00
G1 X8026.00 Y1991.00
G1 X7741.00 Y1842.00
G1 X7149.00 Y2056.00
G1 X7067.00 Y2106.00
G1 X7044.00 Y2139.00
G1 X6959.00 Y2454.00
G1 X6983.00 Y2513.00
G1 X7080.00 Y2503.00
G1 X1914.00 Y2095.00
G1 X2243.00 Y1840.00
G1 X2493.00 Y1855.00
G1 X2530.00 Y1849.00
G1 X2415.00 Y1799.00
G1 X2350.00 Y1779.00
G1 X2470.00 Y1784.00
G1 X2540.00 Y1770.00
G1 X2337.00 Y1679.00
G1 X2079.00 Y1727.00
G1 X1825.00 Y2325.00
G1 X1875.00 Y2498.00
G1 X1868.00 Y2409.00
G1 X6067.00 Y2402.00
G1 X5996.00 Y2471.00
G1 X6051.00 Y2443.00
G1 X8063.00 Y2222.00
G1 X7982.00 Y2136.00
G1 X7822.00 Y2331.00
G1 X7848.00 Y2419.00
G1 X7910.00 Y2440.00
G1 X7975.00 Y2405.00
G1 X5895.00 Y2386.00
G1 X5826.00 Y2399.00
G1 X5806.00 Y2420.00
G1 X5856.00 Y2420.00
G1 X5925.00 Y2406.00
G1 X3885.00 Y2370.00
G1 X3856.00 Y2336.00
G1 X3794.00 Y2312.00
G1 X3807.00 Y2400.00
G1 X3833.00 Y2388.00
G1 X4890.00 Y1972.00
G1 X4655.00 Y1827.00
G1 X4453.00 Y1717.00
G1 X4395.00 Y1551.00
G1 X4625.00 Y1412.00
G1 X4648.00 Y1419.00
G1 X4533.00 Y1360.00
G1 X4345.00 Y1511.00
G1 X4366.00 Y1725.00
G1 X4575.00 Y1911.00
G1 X4903.00 Y2241.00
G1 X4954.00 Y2296.00
G1 X4957.00 Y2180.00
G1 X5164.00 Y2039.00
G1 X5059.00 Y2142.00
G1 X5084.00 Y2138.00
G1 X5149.00 Y2067.00
G1 X3329.00 Y2054.00
G1 X3240.00 Y1887.00
G1 X3200.00 Y1829.00
G1 X3277.00 Y2070.00
G1 X3339.00 Y2091.00
G1 X5093.00 Y1959.00
G1 X4930.00 Y1682.00
G1 X4892.00 Y1724.00
G1 X4940.00 Y1875.00
G1 X5027.00 Y2055.00
G1 X5033.00 Y2100.00
G1 X5071.00 Y2046.00
G1 X5110.00 Y1982.00
G1 X3474.00 Y1893.00
G1 X3318.00 Y1817.00
G1 X3309.00 Y1923.00
G1 X3389.00 Y2020.00
G1 X3434.00 Y1997.00
G1 X3740.00 Y1930.00
G1 X3733.00 Y1888.00
G1 X3743.00 Y1708.00
G1 X3758.00 Y1672.00
G1 X3721.00 Y1632.00
G1 X3989.00 Y1290.00
G1 X3943.00 Y1258.00
G1 X3581.00 Y1244.00
G1 X3256.00 Y1480.00
G1 X3256.00 Y1712.00
G1 X3402.00 Y1717.00
G1 X3484.00 Y1770.00
G1 X3580.00 Y1924.00
G1 X3596.00 Y1936.00
G1 X3676.00 Y1930.00
G1 X4337.00 Y1346.00
G1 X4510.00 Y1270.00
G1 X4711.00 Y1410.00
G1 X4706.00 Y1495.00
G1 X4667.00 Y1555.00
G1 X4566.00 Y1548.00
G1 X4574.00 Y1475.00
G1 X4559.00 Y1453.00
G1 X4525.00 Y1504.00
G1 X4548.00 Y1571.00
G1 X4757.00 Y1511.00
G1 X4562.00 Y1160.00
G1 X4185.00 Y1351.00
G1 X4144.00 Y1490.00
G1 X4144.00 Y1654.00
G1 X4193.00 Y1785.00
G1 X4280.00 Y1857.00
G1 X4347.00 Y1869.00
G1 X4322.00 Y1820.00
G1 X5995.00 Y1771.00
G1 X5887.00 Y1716.00
G1 X5899.00 Y1778.00
G1 X5933.00 Y1848.00
G1 X6040.00 Y1846.00
G1 X5722.00 Y1702.00
G1 X5710.00 Y1759.00
G1 X5709.00 Y1828.00
G1 X5788.00 Y1849.00
G1 X5820.00 Y1850.00
G1 X5805.00 Y1813.00
G1 X6388.00 Y1672.00
G1 X6190.00 Y1798.00
G1 X6306.00 Y1801.00
G1 X4050.00 Y1720.00
G1 X4086.00 Y1797.00
G1 X4079.00 Y1746.00
G1 X5584.00 Y1695.00
G1 X5596.00 Y1758.00
G1 X5628.00 Y1771.00
G1 X5625.00 Y1714.00
G1 X6382.00 Y1559.00
G1 X6429.00 Y1559.00
G1 X6435.00 Y1517.00
G1 X6349.00 Y1266.00
G1 X6142.00 Y1170.00
G1 X6095.00 Y1193.00
G1 X6034.00 Y1627.00
G1 X6008.00 Y1670.00
G1 X6061.00 Y1705.00
G1 X6111.00 Y1740.00
G1 X6149.00 Y1692.00
G1 X6556.00 Y1325.00
G1 X6256.00 Y1071.00
G1 X6042.00 Y1079.00
G1 X6120.00 Y1095.00
G1 X6500.00 Y1367.00
G1 X6495.00 Y1693.00
G1 X6488.00 Y1721.00
G1 X6534.00 Y1693.00
G1 X6589.00 Y1640.00
G1 X5549.00 Y1426.00
G1 X5484.00 Y1435.00
G1 X5491.00 Y1582.00
G1 X5556.00 Y1599.00
G1 X5375.00 Y1580.00
G1 X5390.00 Y1615.00
G1 X5400.00 Y1589.00
G1 X6897.00 Y1453.00
G1 X6880.00 Y1374.00
G1 X6410.00 Y904.00
G1 X6095.00 Y899.00
G1 X5950.00 Y960.00
G1 X5978.00 Y998.00
G1 X6040.00 Y1020.00
G1 X6473.00 Y1150.00
G1 X6650.00 Y1536.00
G1 X6656.00 Y1620.00
G1 X6777.00 Y1543.00
G1 X3920.00 Y1498.00
G1 X3937.00 Y1497.00
G1 X3948.00 Y1474.00
G1 X4623.00 Y1473.00
G1 X4610.00 Y1490.00
G1 X4623.00 Y1508.00
G1 X4635.00 Y1490.00
G1 X5403.00 Y1423.00
G1 X5504.00 Y1320.00
G1 X5535.00 Y1283.00
G1 X5577.00 Y1191.00
G1 X5612.00 Y1137.00
G1 X5554.00 Y1144.00
G1 X5375.00 Y1232.00
G1 X5310.00 Y1400.00
G1 X5378.00 Y1482.00
G1 X5635.00 Y1244.00
G1 X5620.00 Y1274.00
G1 X5635.00 Y1264.00
G1 X5649.00 Y1235.00
G0 X4640.00 Y9461.00
G1 X4510.00 Y9364.00
G1 X4644.00 Y9325.00
G1 X4830.00 Y9427.00
G1 X4795.00 Y9466.00
G1 X4640.00 Y9461.00
G1 X4635.00 Y9378.00
G1 X4585.00 Y9390.00
G1 X4630.00 Y9417.00
G1 X4780.00 Y9421.00
G0 X5066.00 Y9447.00
G1 X4995.00 Y9360.00
G1 X5303.00 Y9351.00
G1 X5175.00 Y9456.00
G1 X5066.00 Y9447.00
G1 X5257.00 Y9372.00
G1 X5046.00 Y9385.00
G1 X5249.00 Y9398.00
G0 X5543.00 Y9420.00
G1 X5545.00 Y9350.00
G1 X5646.00 Y9354.00
G1 X5619.00 Y9415.00
G1 X5543.00 Y9420.00
G1 X5585.00 Y9370.00
G1 X5570.00 Y9385.00
G1 X5585.00 Y9400.00
G1 X5600.00 Y9385.00
G0 X4205.00 Y9253.00
G1 X4028.00 Y9149.00
G1 X3974.00 Y9012.00
G1 X4072.00 Y8974.00
G1 X4330.00 Y9188.00
G1 X4205.00 Y9253.00
G1 X4054.00 Y9030.00
G1 X4205.00 Y9196.00
G1 X4273.00 Y9170.00
G0 X5335.00 Y9224.00
G1 X5280.00 Y9144.00
G1 X5392.00 Y9025.00
G1 X5730.00 Y9065.00
G1 X5676.00 Y9178.00
G1 X5335.00 Y9224.00
G1 X5680.00 Y9091.00
G1 X5500.00 Y9051.00
G1 X5333.00 Y9154.00
G1 X5575.00 Y9165.00
G0 X4630.00 Y9223.00
G1 X4372.00 Y9107.00
G1 X4300.00 Y8975.00
G1 X4595.00 Y8875.00
G1 X4873.00 Y9059.00
G1 X4630.00 Y9223.00
G1 X4749.00 Y9008.00
G1 X4491.00 Y8924.00
G1 X4357.00 Y8969.00
G1 X4437.00 Y9087.00
G1 X4800.00 Y9165.00
G0 X6087.00 Y9162.00
G1 X6111.00 Y9050.00
G1 X6441.00 Y8860.00
G1 X6516.00 Y8958.00
G1 X6364.00 Y9102.00
G1 X6087.00 Y9162.00
G1 X6455.00 Y8930.00
G1 X6138.00 Y9113.00
G1 X6175.00 Y9127.00
G1 X6273.00 Y9094.00
G0 X5563.00 Y8886.00
G1 X5505.00 Y8780.00
G1 X5635.00 Y8645.00
G1 X5897.00 Y8654.00
G1 X5807.00 Y8867.00
G1 X5563.00 Y8886.00
G1 X5793.00 Y8660.00
G1 X5565.00 Y8812.00
G1 X5770.00 Y8822.00
G0 X6109.00 Y8857.00
G1 X6053.00 Y8724.00
G1 X6293.00 Y8383.00
G1 X6658.00 Y8370.00
G1 X6542.00 Y8702.00
G1 X6367.00 Y8830.00
G1 X6206.00 Y8880.00
G1 X6109.00 Y8857.00
G1 X6491.00 Y8670.00
G1 X6445.00 Y8429.00
G1 X6146.00 Y8737.00
G1 X6161.00 Y8791.00
G1 X6368.00 Y8769.00
G0 X3567.00 Y8833.00
G1 X3511.00 Y8677.00
G1 X3619.00 Y8722.00
G1 X3675.00 Y8837.00
G1 X3567.00 Y8833.00
G1 X3548.00 Y8720.00
G1 X3575.00 Y8787.00
G1 X3614.00 Y8782.00
G0 X3853.00 Y8750.00
G1 X3689.00 Y8595.00
G1 X3700.00 Y8448.00
G1 X3778.00 Y8422.00
G1 X3951.00 Y8508.00
G1 X4044.00 Y8673.00
G1 X4012.00 Y8741.00
G1 X3853.00 Y8750.00
G1 X3835.00 Y8498.00
G1 X3763.00 Y8486.00
G1 X3778.00 Y8622.00
G1 X3978.00 Y8708.00
G0 X3391.00 Y8505.00
G1 X3136.00 Y8120.00
G1 X3190.00 Y7977.00
G1 X3578.00 Y8340.00
G1 X3463.00 Y8516.00
G1 X3391.00 Y8505.00
G1 X3479.00 Y8219.00
G1 X3204.00 Y8045.00
G1 X3388.00 Y8431.00
G1 X3489.00 Y8450.00
G0 X6780.00 Y8388.00
G1 X6788.00 Y8235.00
G1 X6996.00 Y8142.00
G1 X6936.00 Y8353.00
G1 X6780.00 Y8388.00
G1 X6933.00 Y8163.00
G1 X6814.00 Y8336.00
G1 X6887.00 Y8328.00
G0 X6117.00 Y8383.00
G1 X6110.00 Y8369.00
G1 X6236.00 Y8304.00
G1 X6192.00 Y8361.00
G1 X6117.00 Y8383.00
G0 X6078.00 Y8200.00
G1 X6093.00 Y7748.00
G1 X6375.00 Y7606.00
G1 X6533.00 Y7680.00
G1 X6555.00 Y7795.00
G1 X6522.00 Y7942.00
G1 X6078.00 Y8200.00
G1 X6480.00 Y7903.00
G1 X6467.00 Y7692.00
G1 X6380.00 Y7666.00
G1 X6049.00 Y7914.00
G1 X6278.00 Y8115.00
G0 X6678.00 Y8072.00
G1 X6620.00 Y7957.00
G1 X6759.00 Y7672.00
G1 X6956.00 Y7671.00
G1 X6985.00 Y7773.00
G1 X6885.00 Y8009.00
G1 X6678.00 Y8072.00
G1 X6928.00 Y7721.00
G1 X6790.00 Y7726.00
G1 X6710.00 Y8020.00
G1 X6783.00 Y8026.00
G0 X3472.00 Y7997.00
G1 X3400.00 Y7832.00
G1 X3420.00 Y7772.00
G1 X3630.00 Y7923.00
G1 X3472.00 Y7997.00
G1 X3508.00 Y7774.00
G1 X3459.00 Y7893.00
G1 X3538.00 Y7990.00
G1 X3562.00 Y7973.00
G0 X3090.00 Y7815.00
G1 X3109.00 Y7770.00
G1 X3135.00 Y7820.00
G1 X3090.00 Y7815.00
G0 X3236.00 Y7680.00
G1 X3122.00 Y7560.00
G1 X3096.00 Y7405.00
G1 X3236.00 Y7100.00
G1 X3468.00 Y7361.00
G1 X3236.00 Y7680.00
G1 X3376.00 Y7232.00
G1 X3216.00 Y7183.00
G1 X3201.00 Y7581.00
G1 X3319.00 Y7616.00
G0 X7162.00 Y7638.00
G1 X7190.00 Y7634.00
G1 X7174.00 Y7660.00
G1 X7162.00 Y7638.00
G0 X7177.00 Y7473.00
G1 X7170.00 Y7423.00
G1 X7190.00 Y7380.00
G1 X7204.00 Y7449.00
G1 X7177.00 Y7473.00
G0 X7176.00 Y7239.00
G1 X7180.00 Y7120.00
G1 X7205.00 Y7233.00
G1 X7197.00 Y7300.00
G1 X7176.00 Y7239.00
G0 X5775.00 Y7120.00
G1 X5735.00 Y7068.00
G1 X5827.00 Y7047.00
G1 X5994.00 Y7001.00
G1 X6090.00 Y6999.00
G1 X5951.00 Y7113.00
G1 X5775.00 Y7120.00
G0 X7155.00 Y7030.00
G1 X7141.00 Y6970.00
G1 X7145.00 Y6920.00
G1 X7180.00 Y7024.00
G1 X7155.00 Y7030.00
G0 X7116.00 Y6828.00
G1 X7115.00 Y6770.00
G1 X7140.00 Y6821.00
G1 X7116.00 Y6828.00
G0 X3656.00 Y6800.00
G1 X3554.00 Y6708.00
G1 X3550.00 Y6609.00
G1 X3570.00 Y6606.00
G1 X3609.00 Y6652.00
G1 X3704.00 Y6730.00
G1 X3770.00 Y6775.00
G1 X3739.00 Y6799.00
G1 X3656.00 Y6800.00
G0 X7080.00 Y6686.00
G1 X7054.00 Y6603.00
G1 X6901.00 Y6136.00
G1 X6869.00 Y5986.00
G1 X6985.00 Y6260.00
G1 X7110.00 Y6685.00
G1 X7080.00 Y6686.00
G0 X5883.00 Y6626.00
G1 X5645.00 Y6225.00
G1 X5835.00 Y5978.00
G1 X6120.00 Y5981.00
G1 X6282.00 Y6138.00
G1 X6315.00 Y6300.00
G1 X6292.00 Y6441.00
G1 X5997.00 Y6636.00
G1 X5883.00 Y6626.00
G1 X5820.00 Y6250.00
G1 X5717.00 Y6382.00
G1 X5858.00 Y6404.00
G0 X3766.00 Y6286.00
G1 X3651.00 Y6185.00
G1 X3760.00 Y5749.00
G1 X3873.00 Y5675.00
G1 X4150.00 Y5821.00
G1 X4145.00 Y5975.00
G1 X3766.00 Y6286.00
G1 X3830.00 Y6066.00
G1 X3755.00 Y5970.00
G1 X3670.00 Y6055.00
G1 X3757.00 Y6159.00
G1 X3799.00 Y6134.00
G0 X5527.00 Y5773.00
G1 X5522.00 Y5738.00
G1 X5247.00 Y5452.00
G1 X4895.00 Y5375.00
G1 X4590.00 Y5435.00
G1 X4429.00 Y5569.00
G1 X4391.00 Y5600.00
G1 X4320.00 Y5544.00
G1 X4371.00 Y5528.00
G1 X4404.00 Y5511.00
G1 X4613.00 Y5332.00
G1 X4915.00 Y5269.00
G1 X5415.00 Y5452.00
G1 X5577.00 Y5675.00
G1 X5615.00 Y5710.00
G1 X5647.00 Y5727.00
G1 X5527.00 Y5773.00
G0 X6152.00 Y5760.00
G1 X6142.00 Y5682.00
G1 X6220.00 Y5692.00
G1 X6222.00 Y5763.00
G1 X6152.00 Y5760.00
G1 X6180.00 Y5700.00
G1 X6170.00 Y5720.00
G1 X6180.00 Y5740.00
G1 X6190.00 Y5720.00
G0 X6299.00 Y5733.00
G1 X6282.00 Y5680.00
G1 X6340.00 Y5748.00
G1 X6299.00 Y5733.00
G0 X6010.00 Y5661.00
G1 X6066.00 Y5630.00
G1 X6060.00 Y5665.00
G1 X6010.00 Y5661.00
G0 X3942.00 Y5448.00
G1 X3950.00 Y5375.00
G1 X3998.00 Y5366.00
G1 X4010.00 Y5433.00
G1 X3942.00 Y5448.00
G1 X3980.00 Y5390.00
G1 X3970.00 Y5406.00
G1 X3980.00 Y5415.00
G1 X3990.00 Y5399.00
G0 X4090.00 Y5383.00
G1 X4084.00 Y5352.00
G1 X4138.00 Y5387.00
G1 X4090.00 Y5383.00
G0 X3840.00 Y5393.00
G1 X3907.00 Y5330.00
G1 X3885.00 Y5378.00
G1 X3840.00 Y5393.00
G0 X6850.00 Y4722.00
G1 X6892.00 Y4680.00
G1 X6899.00 Y4703.00
G1 X6850.00 Y4722.00
G0 X6070.00 Y4695.00
G1 X6085.00 Y4680.00
G1 X6100.00 Y4695.00
G1 X6085.00 Y4710.00
G1 X6070.00 Y4695.00
G0 X4300.00 Y4589.00
G1 X4328.00 Y4593.00
G1 X4316.00 Y4610.00
G1 X4300.00 Y4589.00
G0 X5750.00 Y4590.00
G1 X5760.00 Y4570.00
G1 X5770.00 Y4590.00
G1 X5760.00 Y4610.00
G1 X5750.00 Y4590.00
G0 X6100.00 Y4585.00
G1 X6120.00 Y4560.00
G1 X6124.00 Y4604.00
G1 X6100.00 Y4585.00
G0 X3877.00 Y4536.00
G1 X3897.00 Y4510.00
G1 X3910.00 Y4530.00
G1 X3877.00 Y4536.00
G0 X4252.00 Y4508.00
G1 X4254.00 Y4470.00
G1 X4272.00 Y4512.00
G1 X4252.00 Y4508.00
G0 X5750.00 Y4476.00
G1 X5781.00 Y4447.00
G1 X5764.00 Y4500.00
G1 X5750.00 Y4476.00
G0 X6162.00 Y4438.00
G1 X6215.00 Y4435.00
G1 X6187.00 Y4458.00
G1 X6162.00 Y4438.00
G0 X3777.00 Y4433.00
G1 X3784.00 Y4400.00
G1 X3810.00 Y4436.00
G1 X3777.00 Y4433.00
G0 X3644.00 Y4350.00
G1 X3025.00 Y4127.00
G1 X3050.00 Y4095.00
G1 X3484.00 Y4224.00
G1 X3710.00 Y4367.00
G1 X3644.00 Y4350.00
G0 X6222.00 Y4304.00
G1 X6271.00 Y4277.00
G1 X6245.00 Y4320.00
G1 X6222.00 Y4304.00
G0 X6357.00 Y4226.00
G1 X6390.00 Y4195.00
G1 X6400.00 Y4221.00
G1 X6357.00 Y4226.00
G0 X8377.00 Y4004.00
G1 X8416.00 Y3980.00
G1 X8458.00 Y3993.00
G1 X8377.00 Y4004.00
G0 X8515.00 Y4001.00
G1 X8574.00 Y3970.00
G1 X8599.00 Y4001.00
G1 X8515.00 Y4001.00
G0 X8190.00 Y3991.00
G1 X8192.00 Y3952.00
G1 X8297.00 Y3983.00
G1 X8190.00 Y3991.00
G0 X8671.00 Y3986.00
G1 X8713.00 Y3955.00
G1 X8750.00 Y3963.00
G1 X8709.00 Y3994.00
G1 X8671.00 Y3986.00
G0 X8013.00 Y3959.00
G1 X7977.00 Y3919.00
G1 X8098.00 Y3953.00
G1 X8013.00 Y3959.00
G0 X8824.00 Y3949.00
G1 X8863.00 Y3920.00
G1 X8864.00 Y3954.00
G1 X8824.00 Y3949.00
G0 X7855.00 Y3920.00
G1 X7812.00 Y3898.00
G1 X7891.00 Y3898.00
G1 X7855.00 Y3920.00
G0 X8961.00 Y3888.00
G1 X9011.00 Y3843.00
G1 X9058.00 Y3833.00
G1 X9015.00 Y3877.00
G1 X8961.00 Y3888.00
G0 X9112.00 Y3794.00
G1 X9128.00 Y3772.00
G1 X9138.00 Y3786.00
G1 X9122.00 Y3808.00
G1 X9112.00 Y3794.00
G0 X9190.00 Y3695.00
G1 X9200.00 Y3680.00
G1 X9210.00 Y3695.00
G1 X9200.00 Y3710.00
G1 X9190.00 Y3695.00
G0 X9240.00 Y3636.00
G1 X9282.00 Y3550.00
G1 X9276.00 Y3604.00
G1 X9240.00 Y3636.00
G0 X6172.00 Y2025.00
G1 X6378.00 Y1995.00
G1 X6297.00 Y2019.00
G1 X6172.00 Y2025.00
G0 X6436.00 Y1981.00
G1 X6727.00 Y1874.00
G1 X6629.00 Y1929.00
G1 X6436.00 Y1981.00
G0 X6802.00 Y1848.00
G1 X6871.00 Y1817.00
G1 X6852.00 Y1844.00
G1 X6802.00 Y1848.00
G0 X3988.00 Y1159.00
G1 X3691.00 Y1094.00
G1 X3603.00 Y1076.00
G1 X3878.00 Y1096.00
G1 X3909.00 Y1106.00
G1 X4025.00 Y1150.00
G1 X3988.00 Y1159.00
G0 X2035.00 Y7784.00
G1 X2050.00 Y7730.00
G1 X2051.00 Y7840.00
G1 X2035.00 Y7784.00
G0 X1984.00 Y7623.00
G1 X1802.00 Y7370.00
G1 X1538.00 Y7201.00
G1 X1504.00 Y7179.00
G1 X1769.00 Y7304.00
G1 X1877.00 Y7404.00
G1 X2010.00 Y7634.00
G1 X1984.00 Y7623.00
G0 X1334.00 Y7149.00
G1 X1192.00 Y7065.00
G1 X1242.00 Y7083.00
G1 X1355.00 Y7130.00
G1 X1433.00 Y7173.00
G1 X1334.00 Y7149.00
G0 X8184.00 Y8285.00
G1 X8184.00 Y8252.00
G1 X8210.00 Y8293.00
G1 X8184.00 Y8285.00
G0 X8160.00 Y8121.00
G1 X8170.00 Y8080.00
G1 X8180.00 Y8114.00
G1 X8170.00 Y8155.00
G1 X8160.00 Y8121.00
G0 X8167.00 Y8013.00
G1 X8191.00 Y7960.00
G1 X8196.00 Y7976.00
G1 X8190.00 Y8006.00
G1 X8167.00 Y8013.00
G0 X8495.00 Y7370.00
G1 X8522.00 Y7300.00
G1 X8526.00 Y7332.00
G1 X8495.00 Y7370.00
G0 X8546.00 Y7242.00
G1 X8562.00 Y7143.00
G1 X8584.00 Y6865.00
G1 X8558.00 Y6563.00
G1 X8325.00 Y6055.00
G1 X8115.00 Y5843.00
G1 X8092.00 Y5814.00
G1 X8402.00 Y6106.00
G1 X8605.00 Y6617.00
G1 X8583.00 Y7180.00
G1 X8546.00 Y7242.00
G0 X8980.00 Y7162.00
G1 X9045.00 Y7000.00
G1 X9041.00 Y7093.00
G1 X8980.00 Y7162.00
G0 X9021.00 Y6668.00
G1 X9025.00 Y6471.00
G1 X9051.00 Y6445.00
G1 X9082.00 Y6479.00
G1 X9108.00 Y6576.00
G1 X9080.00 Y6665.00
G1 X9021.00 Y6668.00
G1 X9049.00 Y6506.00
G1 X9047.00 Y6623.00
G1 X9070.00 Y6568.00
G0 X1278.00 Y6624.00
G1 X1302.00 Y6504.00
G1 X1472.00 Y6544.00
G1 X1464.00 Y6591.00
G1 X1278.00 Y6624.00
G1 X1309.00 Y6550.00
G1 X1290.00 Y6570.00
G1 X1406.00 Y6569.00
G0 X764.00 Y6524.00
G1 X772.00 Y6400.00
G1 X920.00 Y6491.00
G1 X764.00 Y6524.00
G1 X764.00 Y6440.00
G1 X783.00 Y6475.00
G1 X845.00 Y6480.00
G0 X1708.00 Y6389.00
G1 X1785.00 Y6255.00
G1 X1867.00 Y6242.00
G1 X1828.00 Y6386.00
G1 X1708.00 Y6389.00
G1 X1821.00 Y6280.00
G1 X1740.00 Y6341.00
G1 X1814.00 Y6329.00
G0 X475.00 Y6288.00
G1 X414.00 Y6206.00
G1 X429.00 Y6159.00
G1 X570.00 Y6280.00
G1 X475.00 Y6288.00
G1 X479.00 Y6196.00
G1 X505.00 Y6240.00
G1 X520.00 Y6231.00
G0 X8962.00 Y6163.00
G1 X8894.00 Y6037.00
G1 X8910.00 Y5967.00
G1 X9018.00 Y5994.00
G1 X8962.00 Y6163.00
G1 X8953.00 Y5973.00
G1 X8956.00 Y6060.00
G1 X9004.00 Y6066.00
G0 X1897.00 Y5993.00
G1 X1890.00 Y5949.00
G1 X1928.00 Y5870.00
G1 X2028.00 Y5846.00
G1 X2011.00 Y5961.00
G1 X1938.00 Y6000.00
G1 X1897.00 Y5993.00
G1 X1975.00 Y5880.00
G1 X1940.00 Y5925.00
G1 X1990.00 Y5888.00
G0 X425.00 Y5378.00
G1 X507.00 Y5240.00
G1 X478.00 Y5333.00
G1 X425.00 Y5378.00
G0 X550.00 Y5182.00
G1 X624.00 Y5091.00
G1 X615.00 Y5140.00
G1 X550.00 Y5182.00
G0 X2202.00 Y5545.00
G1 X2241.00 Y5359.00
G1 X2310.00 Y5471.00
G1 X2231.00 Y5570.00
G1 X2202.00 Y5545.00
G1 X2261.00 Y5400.00
G1 X2240.00 Y5466.00
G1 X2264.00 Y5478.00
G0 X1706.00 Y5469.00
G1 X1710.00 Y5373.00
G1 X1774.00 Y5309.00
G1 X1845.00 Y5304.00
G1 X1880.00 Y5401.00
G1 X1767.00 Y5487.00
G1 X1706.00 Y5469.00
G1 X1829.00 Y5355.00
G1 X1746.00 Y5388.00
G1 X1757.00 Y5402.00
G1 X1819.00 Y5365.00
G0 X9566.00 Y5151.00
G1 X9594.00 Y5086.00
G1 X9640.00 Y5000.00
G1 X9672.00 Y5001.00
G1 X9576.00 Y5160.00
G1 X9566.00 Y5151.00
G0 X9670.00 Y4916.00
G1 X9686.00 Y4900.00
G1 X9698.00 Y4912.00
G1 X9670.00 Y4916.00
G0 X9700.00 Y4832.00
G1 X9717.00 Y4753.00
G1 X9748.00 Y4680.00
G1 X9756.00 Y4718.00
G1 X9715.00 Y4834.00
G1 X9700.00 Y4832.00
G0 X9735.00 Y4578.00
G1 X9710.00 Y4428.00
G1 X9745.00 Y4438.00
G1 X9752.00 Y4600.00
G1 X9735.00 Y4578.00
G0 X9706.00 Y4361.00
G1 X9704.00 Y4343.00
G1 X9718.00 Y4361.00
G1 X9706.00 Y4361.00
G0 X9631.00 Y4184.00
G1 X9616.00 Y4091.00
G1 X9690.00 Y4247.00
G1 X9631.00 Y4184.00
G0 X1358.00 Y4744.00
G1 X1340.00 Y4658.00
G1 X1456.00 Y4707.00
G1 X1358.00 Y4744.00
G1 X1364.00 Y4682.00
G1 X1385.00 Y4718.00
G1 X1403.00 Y4706.00
G0 X1171.00 Y4644.00
G1 X1165.00 Y4584.00
G1 X1216.00 Y4659.00
G1 X1171.00 Y4644.00
G0 X1066.00 Y4544.00
G1 X1067.00 Y4493.00
G1 X1120.00 Y4546.00
G1 X1066.00 Y4544.00
G0 X1226.00 Y4553.00
G1 X1235.00 Y4516.00
G1 X1241.00 Y4554.00
G1 X1226.00 Y4553.00
G0 X941.00 Y4434.00
G1 X951.00 Y4362.00
G1 X989.00 Y4389.00
G1 X941.00 Y4434.00
G0 X1096.00 Y4444.00
G1 X1096.00 Y4419.00
G1 X1130.00 Y4446.00
G1 X1096.00 Y4444.00
G0 X1020.00 Y4359.00
G1 X999.00 Y4324.00
G1 X1000.00 Y4270.00
G1 X1048.00 Y4349.00
G1 X1020.00 Y4359.00
G0 X851.00 Y4244.00
G1 X849.00 Y4151.00
G1 X909.00 Y4198.00
G1 X905.00 Y4246.00
G1 X851.00 Y4244.00
G1 X860.00 Y4196.00
G1 X879.00 Y4215.00
G1 X872.00 Y4198.00
G0 X940.00 Y4148.00
G1 X934.00 Y4050.00
G1 X958.00 Y4103.00
G1 X975.00 Y4173.00
G1 X940.00 Y4148.00
G0 X806.00 Y4028.00
G1 X819.00 Y3957.00
G1 X864.00 Y4026.00
G1 X806.00 Y4028.00
G0 X917.00 Y3973.00
G1 X957.00 Y3750.00
G1 X955.00 Y3835.00
G1 X940.00 Y3943.00
G1 X917.00 Y3973.00
G0 X830.00 Y3829.00
G1 X870.00 Y3760.00
G1 X879.00 Y3829.00
G1 X830.00 Y3829.00
G0 X980.00 Y3682.00
G1 X1026.00 Y3620.00
G1 X1020.00 Y3660.00
G1 X980.00 Y3682.00
G0 X900.00 Y3668.00
G1 X945.00 Y3612.00
G1 X910.00 Y3680.00
G1 X900.00 Y3668.00
G0 X4732.00 Y4289.00
G1 X4744.00 Y4211.00
G1 X4837.00 Y4237.00
G1 X4829.00 Y4279.00
G1 X4732.00 Y4289.00
G1 X4773.00 Y4232.00
G1 X4780.00 Y4279.00
G1 X4799.00 Y4271.00
G0 X4898.00 Y4289.00
G1 X4870.00 Y4260.00
G1 X4988.00 Y4216.00
G1 X4980.00 Y4285.00
G1 X4898.00 Y4289.00
G1 X4930.00 Y4232.00
G1 X4902.00 Y4253.00
G1 X4934.00 Y4270.00
G1 X4976.00 Y4259.00
G0 X4554.00 Y4251.00
G1 X4510.00 Y4155.00
G1 X4660.00 Y4189.00
G1 X4554.00 Y4251.00
G1 X4564.00 Y4170.00
G1 X4540.00 Y4189.00
G1 X4636.00 Y4228.00
G0 X5183.00 Y4223.00
G1 X5170.00 Y4204.00
G1 X5208.00 Y4189.00
G1 X5220.00 Y4180.00
G1 X5210.00 Y4170.00
G1 X5200.00 Y4160.00
G1 X5265.00 Y4160.00
G1 X5223.00 Y4219.00
G1 X5197.00 Y4229.00
G1 X5183.00 Y4223.00
G0 X5087.00 Y4203.00
G1 X5110.00 Y4165.00
G1 X5170.00 Y4163.00
G1 X5087.00 Y4203.00
G0 X4983.00 Y4165.00
G1 X5047.00 Y4116.00
G1 X5088.00 Y4138.00
G1 X5072.00 Y4160.00
G1 X5046.00 Y4167.00
G1 X4983.00 Y4165.00
G0 X5158.00 Y4110.00
G1 X5135.00 Y4090.00
G1 X5159.00 Y4069.00
G1 X5214.00 Y4052.00
G1 X5245.00 Y4079.00
G1 X5213.00 Y4116.00
G1 X5158.00 Y4110.00
G1 X5191.00 Y4076.00
G1 X5181.00 Y4101.00
G1 X5219.00 Y4071.00
G0 X4390.00 Y4093.00
G1 X4354.00 Y4033.00
G1 X4373.00 Y3986.00
G1 X4490.00 Y4065.00
G1 X4390.00 Y4093.00
G1 X4403.00 Y4010.00
G1 X4412.00 Y4074.00
G1 X4460.00 Y4054.00
G0 X4567.00 Y4073.00
G1 X4571.00 Y4030.00
G1 X4614.00 Y4065.00
G1 X4567.00 Y4073.00
G0 X4257.00 Y4012.00
G1 X4255.00 Y3940.00
G1 X4307.00 Y4000.00
G1 X4257.00 Y4012.00
G1 X4281.00 Y3950.00
G1 X4266.00 Y3991.00
G1 X4290.00 Y3975.00
G0 X5165.00 Y3887.00
G1 X5110.00 Y3725.00
G1 X5160.00 Y3734.00
G1 X5332.00 Y3733.00
G1 X5396.00 Y3717.00
G1 X5414.00 Y3750.00
G1 X5413.00 Y3768.00
G1 X5411.00 Y3800.00
G1 X5390.00 Y3809.00
G1 X5386.00 Y3857.00
G1 X5358.00 Y3867.00
G1 X5165.00 Y3887.00
G0 X4414.00 Y3810.00
G1 X4335.00 Y3755.00
G1 X4306.00 Y3689.00
G1 X4300.00 Y3671.00
G1 X4272.00 Y3658.00
G1 X4294.00 Y3640.00
G1 X4308.00 Y3612.00
G1 X4307.00 Y3589.00
G1 X4403.00 Y3636.00
G1 X4488.00 Y3670.00
G1 X4564.00 Y3655.00
G1 X4601.00 Y3736.00
G1 X4414.00 Y3810.00
G0 X4985.00 Y3640.00
G1 X4883.00 Y3590.00
G1 X4817.00 Y3610.00
G1 X4760.00 Y3600.00
G1 X4936.00 Y3539.00
G1 X5038.00 Y3636.00
G1 X4985.00 Y3640.00
G0 X5390.00 Y3598.00
G1 X5404.00 Y3555.00
G1 X5425.00 Y3543.00
G1 X5400.00 Y3610.00
G1 X5390.00 Y3598.00
G0 X5340.00 Y3585.00
G1 X5380.00 Y3520.00
G1 X5352.00 Y3588.00
G1 X5340.00 Y3585.00
G0 X5310.00 Y3542.00
G1 X5330.00 Y3515.00
G1 X5340.00 Y3531.00
G1 X5310.00 Y3542.00
G0 X4329.00 Y3483.00
G1 X4341.00 Y3396.00
G1 X4350.00 Y3432.00
G1 X4340.00 Y3485.00
G1 X4329.00 Y3483.00
G0 X4376.00 Y3483.00
G1 X4376.00 Y3403.00
G1 X4400.00 Y3435.00
G1 X4376.00 Y3483.00
G0 X4420.00 Y3430.00
G1 X4430.00 Y3400.00
G1 X4440.00 Y3430.00
G1 X4430.00 Y3460.00
G1 X4420.00 Y3430.00
G0 X4280.00 Y3441.00
G1 X4300.00 Y3400.00
G1 X4302.00 Y3425.00
G1 X4280.00 Y3441.00
G0 X980.00 Y3022.00
G1 X1064.00 Y2941.00
G1 X1008.00 Y3021.00
G1 X980.00 Y3022.00
G0 X2740.00 Y3293.00
G1 X2660.00 Y3200.00
G1 X2739.00 Y3130.00
G1 X2850.00 Y3234.00
G1 X2740.00 Y3293.00
G1 X2733.00 Y3180.00
G1 X2732.00 Y3227.00
G1 X2795.00 Y3239.00
G0 X6741.00 Y3212.00
G1 X6730.00 Y3180.00
G1 X6801.00 Y3073.00
G1 X6865.00 Y3064.00
G1 X6853.00 Y3180.00
G1 X6741.00 Y3212.00
G1 X6830.00 Y3122.00
G1 X6787.00 Y3148.00
G1 X6784.00 Y3180.00
G1 X6814.00 Y3158.00
G0 X7197.00 Y2992.00
G1 X7240.00 Y2846.00
G1 X7323.00 Y2838.00
G1 X7306.00 Y2974.00
G1 X7197.00 Y2992.00
G1 X7276.00 Y2870.00
G1 X7220.00 Y2949.00
G1 X7268.00 Y2935.00
G0 X7593.00 Y2833.00
G1 X7604.00 Y2684.00
G1 X7761.00 Y2609.00
G1 X7593.00 Y2833.00
G1 X7725.00 Y2640.00
G1 X7620.00 Y2765.00
G1 X7677.00 Y2780.00
G0 X7653.00 Y2729.00
G1 X7724.00 Y2666.00
G1 X7671.00 Y2762.00
G1 X7653.00 Y2729.00
G0 X6890.00 Y2775.00
G1 X7020.00 Y2675.00
G1 X6915.00 Y2800.00
G1 X6890.00 Y2775.00
G0 X7350.00 Y2509.00
G1 X7354.00 Y2464.00
G1 X7435.00 Y2414.00
G1 X7454.00 Y2491.00
G1 X7350.00 Y2509.00
G1 X7425.00 Y2442.00
G1 X7390.00 Y2482.00
G1 X7420.00 Y2469.00
G0 X1980.00 Y1903.00
G1 X2161.00 Y1790.00
G1 X2117.00 Y1834.00
G1 X2028.00 Y1889.00
G1 X1980.00 Y1903.00
G0 X2210.00 Y1791.00
G1 X2260.00 Y1770.00
G1 X2305.00 Y1779.00
G1 X2237.00 Y1805.00
G1 X2210.00 Y1791.00
G0 X7895.00 Y2323.00
G1 X7890.00 Y2240.00
G1 X7980.00 Y2253.00
G1 X7895.00 Y2323.00
G1 X7919.00 Y2251.00
G1 X7924.00 Y2290.00
G1 X7943.00 Y2270.00
G0 X3400.00 Y1948.00
G1 X3400.00 Y1852.00
G1 X3460.00 Y1942.00
G1 X3424.00 Y1980.00
G1 X3400.00 Y1948.00
G0 X6220.00 Y1777.00
G1 X6286.00 Y1712.00
G1 X6286.00 Y1775.00
G1 X6220.00 Y1777.00
G0 X5506.00 Y1539.00
G1 X5515.00 Y1430.00
G1 X5550.00 Y1500.00
G1 X5521.00 Y1570.00
G1 X5506.00 Y1539.00
G0 X2358.00 Y5074.00
G1 X2402.00 Y4977.00
G1 X2476.00 Y5038.00
G1 X2358.00 Y5074.00
G1 X2426.00 Y5003.00
G1 X2390.00 Y5036.00
G1 X2420.00 Y5029.00
G0 X2750.00 Y4851.00
G1 X2886.00 Y4803.00
G1 X2867.00 Y4839.00
G1 X2750.00 Y4851.00
G0 X3030.00 Y4805.00
G1 X3054.00 Y4790.00
G1 X3084.00 Y4805.00
G1 X3060.00 Y4820.00
G1 X3030.00 Y4805.00
M2 ; End of program
