; G-code generated from SVG
G21 ; Set units to mm
G90 ; Absolute positioning
G0 X5077.00 Y9063.00
G1 X5054.00 Y9043.00
G1 X5049.00 Y9014.00
G1 X5049.00 Y8950.00
G1 X4999.00 Y8720.00
G1 X4874.00 Y8656.00
G1 X4827.00 Y8705.00
G1 X4645.00 Y8785.00
G1 X4545.00 Y8785.00
G1 X4542.00 Y8758.00
G1 X4685.00 Y8497.00
G1 X4759.00 Y8479.00
G1 X4823.00 Y8461.00
G1 X4816.00 Y8363.00
G1 X4793.00 Y8165.00
G1 X4809.00 Y7975.00
G1 X4965.00 Y7520.00
G1 X5116.00 Y7143.00
G1 X5061.00 Y7243.00
G1 X4921.00 Y7441.00
G1 X4805.00 Y7522.00
G1 X4744.00 Y7605.00
G1 X4720.00 Y7696.00
G1 X4629.00 Y7689.00
G1 X4640.00 Y7601.00
G1 X4655.00 Y7552.00
G1 X4650.00 Y7557.00
G1 X4609.00 Y7620.00
G1 X4542.00 Y7665.00
G1 X4492.00 Y7632.00
G1 X4469.00 Y7605.00
G1 X4519.00 Y7557.00
G1 X4570.00 Y7500.00
G1 X4503.00 Y7414.00
G1 X4400.00 Y7415.00
G1 X4165.00 Y7465.00
G1 X4112.00 Y7440.00
G1 X4221.00 Y7256.00
G1 X4278.00 Y7195.00
G1 X4354.00 Y7197.00
G1 X4410.00 Y7131.00
G1 X4384.00 Y7065.00
G1 X4364.00 Y7016.00
G1 X4355.00 Y6978.00
G1 X4338.00 Y6935.00
G1 X4318.00 Y6885.00
G1 X4300.00 Y6815.00
G1 X4294.00 Y6755.00
G1 X4285.00 Y6707.00
G1 X4280.00 Y6665.00
G1 X4275.00 Y6624.00
G1 X4260.00 Y6568.00
G1 X4235.00 Y6500.00
G1 X4216.00 Y6411.00
G1 X4191.00 Y6361.00
G1 X4165.00 Y6280.00
G1 X4150.00 Y6211.00
G1 X4126.00 Y6127.00
G1 X4045.00 Y5960.00
G1 X4025.00 Y5918.00
G1 X3981.00 Y5848.00
G1 X3913.00 Y5763.00
G1 X3852.00 Y5695.00
G1 X3820.00 Y5654.00
G1 X3797.00 Y5640.00
G1 X3754.00 Y5619.00
G1 X3706.00 Y5583.00
G1 X3653.00 Y5539.00
G1 X3619.00 Y5510.00
G1 X3566.00 Y5464.00
G1 X3527.00 Y5399.00
G1 X3517.00 Y5362.00
G1 X3499.00 Y5300.00
G1 X3401.00 Y5137.00
G1 X2915.00 Y4840.00
G1 X2727.00 Y4675.00
G1 X2635.00 Y4525.00
G1 X2466.00 Y4187.00
G1 X2444.00 Y3889.00
G1 X2490.00 Y3349.00
G1 X2480.00 Y3115.00
G1 X2431.00 Y3028.00
G1 X2412.00 Y2853.00
G1 X2432.00 Y2771.00
G1 X2400.00 Y2731.00
G1 X2382.00 Y2560.00
G1 X2404.00 Y2525.00
G1 X2410.00 Y2556.00
G1 X2454.00 Y2620.00
G1 X2493.00 Y2654.00
G1 X2485.00 Y2620.00
G1 X2419.00 Y2493.00
G1 X2384.00 Y2383.00
G1 X2400.00 Y2405.00
G1 X2446.00 Y2482.00
G1 X2515.00 Y2672.00
G1 X2586.00 Y2525.00
G1 X2615.00 Y1796.00
G1 X2608.00 Y1711.00
G1 X2562.00 Y1699.00
G1 X1385.00 Y1681.00
G1 X295.00 Y1663.00
G1 X1425.00 Y1654.00
G1 X2555.00 Y1664.00
G1 X2595.00 Y1672.00
G1 X2628.00 Y1568.00
G1 X2649.00 Y1354.00
G1 X2809.00 Y1204.00
G1 X2896.00 Y1274.00
G1 X2856.00 Y1399.00
G1 X2818.00 Y1573.00
G1 X2848.00 Y1624.00
G1 X2856.00 Y1543.00
G1 X2877.00 Y1481.00
G1 X2922.00 Y1460.00
G1 X2935.00 Y1441.00
G1 X3021.00 Y1416.00
G1 X3140.00 Y1452.00
G1 X3068.00 Y1577.00
G1 X2994.00 Y1695.00
G1 X2922.00 Y2525.00
G1 X2959.00 Y2834.00
G1 X3004.00 Y3009.00
G1 X3122.00 Y3300.00
G1 X3380.00 Y3769.00
G1 X3412.00 Y3803.00
G1 X3530.00 Y3808.00
G1 X3664.00 Y3788.00
G1 X3745.00 Y3060.00
G1 X3763.00 Y2675.00
G1 X3800.00 Y1980.00
G1 X3805.00 Y1598.00
G1 X3826.00 Y1456.00
G1 X3840.00 Y1342.00
G1 X4095.00 Y1250.00
G1 X4095.00 Y1343.00
G1 X4080.00 Y1388.00
G1 X4140.00 Y1386.00
G1 X4250.00 Y1420.00
G1 X4170.00 Y1579.00
G1 X4076.00 Y1845.00
G1 X4058.00 Y2440.00
G1 X4095.00 Y2765.00
G1 X4125.00 Y3045.00
G1 X4245.00 Y3759.00
G1 X4270.00 Y3902.00
G1 X4406.00 Y4353.00
G1 X4400.00 Y4696.00
G1 X4315.00 Y4895.00
G1 X4442.00 Y5233.00
G1 X4540.00 Y5443.00
G1 X4715.00 Y6605.00
G1 X4739.00 Y6893.00
G1 X4824.00 Y6891.00
G1 X4945.00 Y6880.00
G1 X5031.00 Y6844.00
G1 X5214.00 Y6801.00
G1 X5245.00 Y6818.00
G1 X5270.00 Y6694.00
G1 X5496.00 Y5828.00
G1 X5580.00 Y5394.00
G1 X5508.00 Y5276.00
G1 X5505.00 Y4775.00
G1 X5671.00 Y4271.00
G1 X5721.00 Y4081.00
G1 X5900.00 Y3300.00
G1 X5960.00 Y2901.00
G1 X5975.00 Y2095.00
G1 X5950.00 Y1870.00
G1 X5880.00 Y1635.00
G1 X5795.00 Y1469.00
G1 X5898.00 Y1413.00
G1 X6039.00 Y1463.00
G1 X6075.00 Y1504.00
G1 X6095.00 Y1604.00
G1 X6129.00 Y1771.00
G1 X6170.00 Y1858.00
G1 X6164.00 Y2141.00
G1 X6165.00 Y2615.00
G1 X6173.00 Y2805.00
G1 X6191.00 Y2722.00
G1 X6233.00 Y2260.00
G1 X6211.00 Y1965.00
G1 X6206.00 Y1672.00
G1 X6177.00 Y1567.00
G1 X6089.00 Y1373.00
G1 X6228.00 Y1295.00
G1 X6384.00 Y1372.00
G1 X6384.00 Y1510.00
G1 X6400.00 Y1728.00
G1 X6399.00 Y2105.00
G1 X6441.00 Y2873.00
G1 X6440.00 Y3250.00
G1 X6429.00 Y3810.00
G1 X6445.00 Y4011.00
G1 X6459.00 Y4118.00
G1 X6605.00 Y4140.00
G1 X6790.00 Y4156.00
G1 X6835.00 Y4161.00
G1 X6894.00 Y4068.00
G1 X7011.00 Y3915.00
G1 X7229.00 Y3602.00
G1 X7340.00 Y3247.00
G1 X7381.00 Y3055.00
G1 X7416.00 Y2775.00
G1 X7314.00 Y2157.00
G1 X7160.00 Y1705.00
G1 X7060.00 Y1516.00
G1 X7151.00 Y1499.00
G1 X7250.00 Y1525.00
G1 X7335.00 Y1609.00
G1 X7404.00 Y1778.00
G1 X7465.00 Y1842.00
G1 X7466.00 Y2003.00
G1 X7517.00 Y2405.00
G1 X7588.00 Y2350.00
G1 X7566.00 Y1875.00
G1 X7561.00 Y1732.00
G1 X7511.00 Y1505.00
G1 X7553.00 Y1333.00
G1 X7660.00 Y1357.00
G1 X7732.00 Y1410.00
G1 X7734.00 Y1515.00
G1 X7735.00 Y1679.00
G1 X7802.00 Y1672.00
G1 X8950.00 Y1656.00
G1 X10055.00 Y1665.00
G1 X8975.00 Y1680.00
G1 X7822.00 Y1701.00
G1 X7763.00 Y1724.00
G1 X7758.00 Y2765.00
G1 X7805.00 Y2950.00
G1 X7861.00 Y3225.00
G1 X7818.00 Y3325.00
G1 X7788.00 Y3464.00
G1 X7815.00 Y3840.00
G1 X7861.00 Y4305.00
G1 X7689.00 Y4980.00
G1 X7433.00 Y5369.00
G1 X7265.00 Y5451.00
G1 X6699.00 Y5784.00
G1 X6550.00 Y5995.00
G1 X6570.00 Y6000.00
G1 X6555.00 Y6053.00
G1 X6523.00 Y6104.00
G1 X6493.00 Y6138.00
G1 X6464.00 Y6175.00
G1 X6439.00 Y6199.00
G1 X6410.00 Y6227.00
G1 X6359.00 Y6270.00
G1 X6297.00 Y6317.00
G1 X6261.00 Y6346.00
G1 X6208.00 Y6382.00
G1 X6167.00 Y6426.00
G1 X6110.00 Y6477.00
G1 X6061.00 Y6518.00
G1 X6006.00 Y6610.00
G1 X5917.00 Y6759.00
G1 X5910.00 Y6800.00
G1 X5870.00 Y6873.00
G1 X5835.00 Y6940.00
G1 X5799.00 Y7036.00
G1 X5749.00 Y7126.00
G1 X5704.00 Y7208.00
G1 X5684.00 Y7265.00
G1 X5620.00 Y7375.00
G1 X5533.00 Y7507.00
G1 X5558.00 Y7501.00
G1 X5680.00 Y7535.00
G1 X5694.00 Y7685.00
G1 X5658.00 Y7845.00
G1 X5525.00 Y8213.00
G1 X5538.00 Y8259.00
G1 X5579.00 Y8270.00
G1 X5568.00 Y8306.00
G1 X5555.00 Y8333.00
G1 X5567.00 Y8390.00
G1 X5526.00 Y8465.00
G1 X5474.00 Y8555.00
G1 X5450.00 Y8645.00
G1 X5417.00 Y8921.00
G1 X5371.00 Y9025.00
G1 X5340.00 Y9035.00
G1 X5281.00 Y9015.00
G1 X5265.00 Y8880.00
G1 X5255.00 Y8754.00
G1 X5224.00 Y8741.00
G1 X5184.00 Y8882.00
G1 X5142.00 Y9051.00
G1 X5077.00 Y9063.00
G1 X5392.00 Y8693.00
G1 X5361.00 Y8687.00
G1 X5264.00 Y8701.00
G1 X5279.00 Y8736.00
G1 X5306.00 Y8799.00
G1 X5336.00 Y8863.00
G1 X5360.00 Y8903.00
G1 X5369.00 Y8900.00
G1 X5385.00 Y8789.00
G1 X5227.00 Y8620.00
G1 X5214.00 Y8665.00
G1 X5194.00 Y8717.00
G1 X5236.00 Y8689.00
G1 X5336.00 Y8655.00
G1 X5416.00 Y8636.00
G1 X5430.00 Y8603.00
G1 X5408.00 Y8604.00
G1 X5365.00 Y8620.00
G1 X5274.00 Y8544.00
G1 X5308.00 Y8543.00
G1 X5435.00 Y8485.00
G1 X5591.00 Y7889.00
G1 X5604.00 Y7847.00
G1 X5564.00 Y7862.00
G1 X5535.00 Y7848.00
G1 X5596.00 Y7742.00
G1 X5568.00 Y7782.00
G1 X5479.00 Y7844.00
G1 X5545.00 Y7730.00
G1 X5590.00 Y7653.00
G1 X5586.00 Y7620.00
G1 X5528.00 Y7673.00
G1 X5437.00 Y7745.00
G1 X5384.00 Y7818.00
G1 X5368.00 Y7871.00
G1 X5260.00 Y7925.00
G1 X5152.00 Y7979.00
G1 X5120.00 Y8057.00
G1 X5066.00 Y8160.00
G1 X4991.00 Y8288.00
G1 X5009.00 Y8302.00
G1 X5050.00 Y8255.00
G1 X5149.00 Y8288.00
G1 X5174.00 Y8291.00
G1 X5205.00 Y8290.00
G1 X5190.00 Y8320.00
G1 X5133.00 Y8376.00
G1 X5176.00 Y8361.00
G1 X5218.00 Y8351.00
G1 X5105.00 Y8474.00
G1 X5040.00 Y8471.00
G1 X5060.00 Y8455.00
G1 X5107.00 Y8383.00
G1 X5061.00 Y8373.00
G1 X4990.00 Y8416.00
G1 X4956.00 Y8418.00
G1 X4938.00 Y8414.00
G1 X4917.00 Y8558.00
G1 X4940.00 Y8570.00
G1 X4948.00 Y8530.00
G1 X4980.00 Y8580.00
G1 X4994.00 Y8635.00
G1 X5007.00 Y8665.00
G1 X5014.00 Y8628.00
G1 X5038.00 Y8621.00
G1 X5041.00 Y8685.00
G1 X5050.00 Y8665.00
G1 X5060.00 Y8605.00
G1 X5073.00 Y8610.00
G1 X5085.00 Y8720.00
G1 X5111.00 Y8893.00
G1 X5150.00 Y8777.00
G1 X4685.00 Y8699.00
G1 X4720.00 Y8620.00
G1 X4725.00 Y8590.00
G1 X4740.00 Y8567.00
G1 X4757.00 Y8538.00
G1 X4746.00 Y8520.00
G1 X4697.00 Y8544.00
G1 X4580.00 Y8749.00
G1 X4610.00 Y8760.00
G1 X4640.00 Y8746.00
G1 X4675.00 Y8740.00
G1 X4660.00 Y8750.00
G1 X4675.00 Y8754.00
G1 X4690.00 Y8744.00
G1 X4877.00 Y8543.00
G1 X4893.00 Y8497.00
G1 X4901.00 Y8472.00
G1 X4874.00 Y8489.00
G1 X4844.00 Y8510.00
G1 X4830.00 Y8520.00
G1 X4845.00 Y8530.00
G1 X4860.00 Y8560.00
G1 X4845.00 Y8596.00
G1 X4830.00 Y8616.00
G1 X4866.00 Y8599.00
G1 X4861.00 Y8140.00
G1 X4851.00 Y8328.00
G1 X4871.00 Y8429.00
G1 X4882.00 Y8407.00
G1 X4883.00 Y8247.00
G1 X4973.00 Y8091.00
G1 X4954.00 Y8102.00
G1 X4927.00 Y8265.00
G1 X4934.00 Y8335.00
G1 X4947.00 Y8290.00
G1 X4969.00 Y8170.00
G1 X5120.00 Y7967.00
G1 X5021.00 Y8085.00
G1 X5005.00 Y8153.00
G1 X5048.00 Y8137.00
G1 X4923.00 Y7977.00
G1 X4931.00 Y7910.00
G1 X4836.00 Y8027.00
G1 X4845.00 Y8075.00
G1 X4882.00 Y8010.00
G1 X5143.00 Y7829.00
G1 X5313.00 Y7623.00
G1 X5466.00 Y7347.00
G1 X5473.00 Y7318.00
G1 X5413.00 Y7349.00
G1 X5225.00 Y7602.00
G1 X5220.00 Y7680.00
G1 X5151.00 Y7785.00
G1 X5010.00 Y7940.00
G1 X5055.00 Y7919.00
G1 X5100.00 Y7882.00
G1 X5334.00 Y7820.00
G1 X5341.00 Y7775.00
G1 X5298.00 Y7816.00
G1 X5215.00 Y7885.00
G1 X5160.00 Y7942.00
G1 X5325.00 Y7868.00
G1 X5099.00 Y7575.00
G1 X4992.00 Y7573.00
G1 X4880.00 Y7878.00
G1 X4906.00 Y7880.00
G1 X4952.00 Y7903.00
G1 X4973.00 Y7927.00
G1 X5074.00 Y7822.00
G1 X5183.00 Y7704.00
G1 X5410.00 Y7604.00
G1 X5600.00 Y7288.00
G1 X5636.00 Y7189.00
G1 X5665.00 Y7092.00
G1 X5635.00 Y7115.00
G1 X5490.00 Y7366.00
G1 X5269.00 Y7733.00
G1 X5180.00 Y7856.00
G1 X5324.00 Y7718.00
G1 X5629.00 Y7750.00
G1 X5620.00 Y7780.00
G1 X5643.00 Y7788.00
G1 X5575.00 Y7579.00
G1 X5608.00 Y7634.00
G1 X5626.00 Y7707.00
G1 X5660.00 Y7623.00
G1 X5544.00 Y7558.00
G1 X5410.00 Y7707.00
G1 X5502.00 Y7653.00
G1 X5291.00 Y7411.00
G1 X5324.00 Y7369.00
G1 X5305.00 Y7332.00
G1 X5230.00 Y7263.00
G1 X5160.00 Y7221.00
G1 X5202.00 Y7220.00
G1 X5324.00 Y7324.00
G1 X5340.00 Y7358.00
G1 X5398.00 Y7329.00
G1 X5466.00 Y7300.00
G1 X5524.00 Y7220.00
G1 X5570.00 Y7095.00
G1 X5527.00 Y6891.00
G1 X5442.00 Y6844.00
G1 X5339.00 Y6789.00
G1 X5304.00 Y6773.00
G1 X5291.00 Y6855.00
G1 X5251.00 Y6974.00
G1 X5196.00 Y7081.00
G1 X5120.00 Y7260.00
G1 X5018.00 Y7536.00
G1 X5072.00 Y7541.00
G1 X5152.00 Y7589.00
G1 X5200.00 Y7602.00
G1 X4729.00 Y7469.00
G1 X4759.00 Y7432.00
G1 X4725.00 Y7369.00
G1 X4766.00 Y7390.00
G1 X4838.00 Y7404.00
G1 X4956.00 Y7312.00
G1 X5147.00 Y7014.00
G1 X5130.00 Y7025.00
G1 X5075.00 Y7030.00
G1 X5096.00 Y7003.00
G1 X5123.00 Y6986.00
G1 X5099.00 Y6980.00
G1 X5075.00 Y6974.00
G1 X5102.00 Y6956.00
G1 X5150.00 Y6950.00
G1 X5209.00 Y6906.00
G1 X5100.00 Y6889.00
G1 X4963.00 Y6973.00
G1 X4759.00 Y7044.00
G1 X4600.00 Y7154.00
G1 X4652.00 Y7140.00
G1 X4699.00 Y7110.00
G1 X4753.00 Y7140.00
G1 X4858.00 Y7155.00
G1 X4996.00 Y7047.00
G1 X5022.00 Y7028.00
G1 X4941.00 Y7154.00
G1 X4794.00 Y7257.00
G1 X4876.00 Y7183.00
G1 X4841.00 Y7190.00
G1 X4781.00 Y7218.00
G1 X4688.00 Y7270.00
G1 X4670.00 Y7255.00
G1 X4689.00 Y7240.00
G1 X4719.00 Y7226.00
G1 X4708.00 Y7206.00
G1 X4606.00 Y7215.00
G1 X4580.00 Y7230.00
G1 X4560.00 Y7187.00
G1 X4733.00 Y6960.00
G1 X4786.00 Y6945.00
G1 X4733.00 Y6945.00
G1 X4550.00 Y7165.00
G1 X4475.00 Y7234.00
G1 X4462.00 Y7271.00
G1 X4478.00 Y7312.00
G1 X4465.00 Y7350.00
G1 X4506.00 Y7377.00
G1 X4532.00 Y7352.00
G1 X4541.00 Y7300.00
G1 X4565.00 Y7398.00
G1 X4590.00 Y7395.00
G1 X4616.00 Y7376.00
G1 X4604.00 Y7548.00
G1 X4645.00 Y7531.00
G1 X4283.00 Y7415.00
G1 X4269.00 Y7370.00
G1 X4250.00 Y7366.00
G1 X4378.00 Y7254.00
G1 X4351.00 Y7232.00
G1 X4266.00 Y7261.00
G1 X4150.00 Y7427.00
G1 X4209.00 Y7430.00
G1 X4406.00 Y7340.00
G1 X4390.00 Y7360.00
G1 X4384.00 Y7380.00
G1 X4400.00 Y7360.00
G1 X4428.00 Y7309.00
G1 X4410.00 Y7326.00
G1 X4431.00 Y7313.00
G1 X4626.00 Y6956.00
G1 X4680.00 Y6910.00
G1 X4597.00 Y6920.00
G1 X4560.00 Y6927.00
G1 X4644.00 Y6868.00
G1 X4692.00 Y6855.00
G1 X4685.00 Y6815.00
G1 X4671.00 Y6767.00
G1 X4562.00 Y6834.00
G1 X4490.00 Y7064.00
G1 X4544.00 Y7058.00
G1 X5709.00 Y6948.00
G1 X5921.00 Y6499.00
G1 X6082.00 Y6297.00
G1 X6196.00 Y6122.00
G1 X6090.00 Y5952.00
G1 X6014.00 Y5909.00
G1 X5954.00 Y5982.00
G1 X5880.00 Y6162.00
G1 X5886.00 Y6266.00
G1 X5900.00 Y6344.00
G1 X5823.00 Y6475.00
G1 X5790.00 Y6541.00
G1 X5634.00 Y6843.00
G1 X5574.00 Y6885.00
G1 X5574.00 Y6965.00
G1 X5595.00 Y7074.00
G1 X5601.00 Y7113.00
G1 X5637.00 Y7079.00
G1 X5684.00 Y7020.00
G1 X5781.00 Y6975.00
G1 X5756.00 Y7005.00
G1 X5740.00 Y7045.00
G1 X5766.00 Y7007.00
G1 X4501.00 Y6755.00
G1 X4520.00 Y6595.00
G1 X4606.00 Y6358.00
G1 X4652.00 Y6325.00
G1 X4646.00 Y6240.00
G1 X4467.00 Y6020.00
G1 X4462.00 Y5996.00
G1 X4606.00 Y6054.00
G1 X4631.00 Y6085.00
G1 X4625.00 Y6035.00
G1 X4566.00 Y5683.00
G1 X4535.00 Y5708.00
G1 X4398.00 Y5749.00
G1 X4330.00 Y5791.00
G1 X4356.00 Y5943.00
G1 X4381.00 Y5990.00
G1 X4358.00 Y6060.00
G1 X4328.00 Y6130.00
G1 X4340.00 Y6041.00
G1 X4360.00 Y5997.00
G1 X4330.00 Y5937.00
G1 X4319.00 Y5764.00
G1 X4338.00 Y5732.00
G1 X4310.00 Y5705.00
G1 X4216.00 Y5518.00
G1 X4270.00 Y5385.00
G1 X4360.00 Y5243.00
G1 X4283.00 Y5119.00
G1 X4056.00 Y5072.00
G1 X3960.00 Y5221.00
G1 X4015.00 Y5398.00
G1 X4048.00 Y5389.00
G1 X4174.00 Y5421.00
G1 X4140.00 Y5427.00
G1 X3991.00 Y5524.00
G1 X4005.00 Y5623.00
G1 X4036.00 Y5710.00
G1 X4106.00 Y5865.00
G1 X4284.00 Y6320.00
G1 X4356.00 Y6645.00
G1 X4447.00 Y7030.00
G1 X4479.00 Y6870.00
G1 X4763.00 Y6990.00
G1 X4697.00 Y7023.00
G1 X4755.00 Y7010.00
G1 X4928.00 Y6925.00
G1 X4780.00 Y7011.00
G1 X4857.00 Y6999.00
G1 X5921.00 Y6643.00
G1 X5971.00 Y6555.00
G1 X6020.00 Y6485.00
G1 X6090.00 Y6418.00
G1 X6184.00 Y6305.00
G1 X6230.00 Y6245.00
G1 X6049.00 Y6376.00
G1 X5852.00 Y6700.00
G1 X5794.00 Y6828.00
G1 X5760.00 Y6910.00
G1 X5807.00 Y6869.00
G1 X5852.00 Y6784.00
G1 X5726.00 Y6685.00
G1 X5767.00 Y6507.00
G1 X5466.00 Y6404.00
G1 X5319.00 Y6664.00
G1 X5331.00 Y6753.00
G1 X5442.00 Y6816.00
G1 X5535.00 Y6870.00
G1 X5664.00 Y6780.00
G1 X4637.00 Y6750.00
G1 X4682.00 Y6727.00
G1 X4676.00 Y6662.00
G1 X4665.00 Y6591.00
G1 X4564.00 Y6665.00
G1 X4510.00 Y6832.00
G1 X4559.00 Y6807.00
G1 X4673.00 Y6556.00
G1 X4667.00 Y6462.00
G1 X4656.00 Y6363.00
G1 X4620.00 Y6375.00
G1 X4544.00 Y6565.00
G1 X4537.00 Y6655.00
G1 X4572.00 Y6619.00
G1 X4640.00 Y6570.00
G1 X5854.00 Y6243.00
G1 X5680.00 Y6067.00
G1 X5404.00 Y6278.00
G1 X5370.00 Y6421.00
G1 X5401.00 Y6406.00
G1 X5495.00 Y6380.00
G1 X5721.00 Y6444.00
G1 X5814.00 Y6449.00
G1 X6400.00 Y6033.00
G1 X6405.00 Y5943.00
G1 X6488.00 Y5685.00
G1 X6577.00 Y5546.00
G1 X6546.00 Y5429.00
G1 X6499.00 Y5293.00
G1 X6422.00 Y5254.00
G1 X6251.00 Y5492.00
G1 X6310.00 Y5611.00
G1 X6419.00 Y5719.00
G1 X6386.00 Y5696.00
G1 X6300.00 Y5632.00
G1 X6226.00 Y5557.00
G1 X6462.00 Y5205.00
G1 X6529.00 Y4892.00
G1 X6505.00 Y4779.00
G1 X6466.00 Y4822.00
G1 X6486.00 Y4736.00
G1 X6510.00 Y4649.00
G1 X6338.00 Y4769.00
G1 X6223.00 Y4984.00
G1 X6166.00 Y5109.00
G1 X6206.00 Y4962.00
G1 X6401.00 Y4685.00
G1 X6517.00 Y4511.00
G1 X6474.00 Y4450.00
G1 X6329.00 Y4497.00
G1 X6160.00 Y4426.00
G1 X6139.00 Y4403.00
G1 X6187.00 Y4363.00
G1 X6381.00 Y4238.00
G1 X6425.00 Y4181.00
G1 X6356.00 Y4113.00
G1 X6257.00 Y4139.00
G1 X6139.00 Y4160.00
G1 X6084.00 Y4252.00
G1 X6089.00 Y4316.00
G1 X6055.00 Y4227.00
G1 X6041.00 Y4180.00
G1 X5987.00 Y4318.00
G1 X5941.00 Y4510.00
G1 X5965.00 Y4626.00
G1 X6020.00 Y4554.00
G1 X6115.00 Y4442.00
G1 X6055.00 Y4545.00
G1 X5990.00 Y4651.00
G1 X6038.00 Y4685.00
G1 X6240.00 Y4823.00
G1 X6171.00 Y4796.00
G1 X6049.00 Y4717.00
G1 X5972.00 Y4672.00
G1 X5926.00 Y4766.00
G1 X5880.00 Y4864.00
G1 X5849.00 Y4919.00
G1 X5728.00 Y5007.00
G1 X5713.00 Y5053.00
G1 X5730.00 Y5132.00
G1 X5905.00 Y5191.00
G1 X6141.00 Y5357.00
G1 X6177.00 Y5537.00
G1 X6150.00 Y5496.00
G1 X6091.00 Y5319.00
G1 X5797.00 Y5197.00
G1 X5760.00 Y5191.00
G1 X5784.00 Y5223.00
G1 X5809.00 Y5430.00
G1 X5800.00 Y5373.00
G1 X5785.00 Y5285.00
G1 X5771.00 Y5338.00
G1 X5700.00 Y5538.00
G1 X5688.00 Y5584.00
G1 X5943.00 Y5727.00
G1 X5982.00 Y5780.00
G1 X6022.00 Y5749.00
G1 X6107.00 Y5664.00
G1 X6170.00 Y5618.00
G1 X6042.00 Y5762.00
G1 X6000.00 Y5831.00
G1 X6080.00 Y5918.00
G1 X6205.00 Y6021.00
G1 X6205.00 Y6185.00
G1 X6213.00 Y6213.00
G1 X6288.00 Y6164.00
G1 X5940.00 Y5959.00
G1 X5980.00 Y5881.00
G1 X5901.00 Y5717.00
G1 X5623.00 Y5657.00
G1 X5516.00 Y5897.00
G1 X5492.00 Y6012.00
G1 X5551.00 Y6000.00
G1 X5803.00 Y6123.00
G1 X5860.00 Y6122.00
G1 X6364.00 Y6161.00
G1 X6384.00 Y6155.00
G1 X6410.00 Y6133.00
G1 X6663.00 Y5763.00
G1 X7064.00 Y5491.00
G1 X7200.00 Y5334.00
G1 X7165.00 Y5300.00
G1 X7004.00 Y5446.00
G1 X6825.00 Y5606.00
G1 X6671.00 Y5730.00
G1 X6509.00 Y5900.00
G1 X6431.00 Y6018.00
G1 X6409.00 Y6076.00
G1 X6400.00 Y6093.00
G1 X6546.00 Y5922.00
G1 X6682.00 Y5668.00
G1 X6761.00 Y5545.00
G1 X6860.00 Y5382.00
G1 X7001.00 Y5360.00
G1 X7066.00 Y5324.00
G1 X7150.00 Y5274.00
G1 X7225.00 Y5215.00
G1 X7258.00 Y5116.00
G1 X7296.00 Y5105.00
G1 X7390.00 Y5166.00
G1 X7582.00 Y4836.00
G1 X7585.00 Y4777.00
G1 X7550.00 Y4768.00
G1 X7506.00 Y4750.00
G1 X7468.00 Y4763.00
G1 X7338.00 Y4772.00
G1 X7310.00 Y4818.00
G1 X7296.00 Y4900.00
G1 X7210.00 Y4980.00
G1 X7068.00 Y5192.00
G1 X7047.00 Y5288.00
G1 X7023.00 Y5286.00
G1 X7040.00 Y5188.00
G1 X7066.00 Y5083.00
G1 X7208.00 Y4947.00
G1 X7280.00 Y4812.00
G1 X7260.00 Y4757.00
G1 X7234.00 Y4724.00
G1 X7083.00 Y4446.00
G1 X6945.00 Y4390.00
G1 X6843.00 Y4379.00
G1 X6748.00 Y4313.00
G1 X6500.00 Y4190.00
G1 X6600.00 Y4250.00
G1 X6819.00 Y4514.00
G1 X6890.00 Y4725.00
G1 X6887.00 Y5035.00
G1 X6841.00 Y5232.00
G1 X6643.00 Y5475.00
G1 X6610.00 Y5518.00
G1 X6507.00 Y5704.00
G1 X6436.00 Y5798.00
G1 X6417.00 Y5928.00
G1 X6570.00 Y5795.00
G1 X3910.00 Y5675.00
G1 X3987.00 Y5776.00
G1 X3971.00 Y5737.00
G1 X4516.00 Y5514.00
G1 X4392.00 Y5250.00
G1 X4375.00 Y5278.00
G1 X4284.00 Y5407.00
G1 X4240.00 Y5467.00
G1 X4309.00 Y5668.00
G1 X4429.00 Y5729.00
G1 X4506.00 Y5696.00
G1 X3978.00 Y5465.00
G1 X3968.00 Y5345.00
G1 X4095.00 Y5015.00
G1 X4131.00 Y4905.00
G1 X4190.00 Y4722.00
G1 X4230.00 Y4638.00
G1 X4192.00 Y4644.00
G1 X4087.00 Y4656.00
G1 X3912.00 Y4858.00
G1 X3930.00 Y4991.00
G1 X3921.00 Y5029.00
G1 X3914.00 Y4733.00
G1 X4092.00 Y4629.00
G1 X4251.00 Y4568.00
G1 X4190.00 Y4237.00
G1 X4185.00 Y4255.00
G1 X4176.00 Y4458.00
G1 X4001.00 Y4237.00
G1 X3979.00 Y4216.00
G1 X3975.00 Y4354.00
G1 X3961.00 Y4544.00
G1 X3924.00 Y4607.00
G1 X3934.00 Y4553.00
G1 X3952.00 Y4309.00
G1 X3950.00 Y4213.00
G1 X3889.00 Y4206.00
G1 X3697.00 Y4122.00
G1 X3653.00 Y4042.00
G1 X3636.00 Y3988.00
G1 X3613.00 Y4056.00
G1 X3607.00 Y4254.00
G1 X3611.00 Y4584.00
G1 X3621.00 Y4641.00
G1 X3637.00 Y4666.00
G1 X3617.00 Y4656.00
G1 X3575.00 Y4677.00
G1 X3503.00 Y4730.00
G1 X3475.00 Y4844.00
G1 X3475.00 Y4981.00
G1 X3613.00 Y5220.00
G1 X3620.00 Y5190.00
G1 X3739.00 Y4989.00
G1 X3714.00 Y4881.00
G1 X3680.00 Y4719.00
G1 X3680.00 Y4661.00
G1 X3739.00 Y4620.00
G1 X3805.00 Y4570.00
G1 X3792.00 Y4522.00
G1 X3695.00 Y4321.00
G1 X3661.00 Y4233.00
G1 X3653.00 Y4180.00
G1 X3684.00 Y4233.00
G1 X3791.00 Y4471.00
G1 X3805.00 Y4598.00
G1 X3739.00 Y4652.00
G1 X3700.00 Y4721.00
G1 X3731.00 Y4867.00
G1 X3766.00 Y4978.00
G1 X3791.00 Y4990.00
G1 X3846.00 Y5024.00
G1 X3790.00 Y5276.00
G1 X3730.00 Y5376.00
G1 X3834.00 Y5512.00
G1 X3961.00 Y5646.00
G1 X3976.00 Y5635.00
G1 X6988.00 Y5427.00
G1 X7010.00 Y5384.00
G1 X6970.00 Y5380.00
G1 X6791.00 Y5538.00
G1 X6842.00 Y5571.00
G1 X5729.00 Y5370.00
G1 X5729.00 Y5325.00
G1 X5710.00 Y5373.00
G1 X5662.00 Y5468.00
G1 X5626.00 Y5545.00
G1 X5619.00 Y5575.00
G1 X5655.00 Y5535.00
G1 X5710.00 Y5455.00
G1 X3719.00 Y5469.00
G1 X3625.00 Y5392.00
G1 X3590.00 Y5373.00
G1 X3720.00 Y5494.00
G1 X3798.00 Y5528.00
G1 X6780.00 Y5340.00
G1 X6887.00 Y4875.00
G1 X6870.00 Y4735.00
G1 X6813.00 Y4570.00
G1 X6577.00 Y4268.00
G1 X6489.00 Y4232.00
G1 X6532.00 Y4380.00
G1 X6562.00 Y4455.00
G1 X6563.00 Y4785.00
G1 X6565.00 Y5115.00
G1 X6538.00 Y5173.00
G1 X6520.00 Y5278.00
G1 X6582.00 Y5447.00
G1 X6663.00 Y5445.00
G1 X5684.00 Y5169.00
G1 X5499.00 Y5177.00
G1 X5543.00 Y5260.00
G1 X5616.00 Y5386.00
G1 X5634.00 Y5440.00
G1 X5657.00 Y5403.00
G1 X5695.00 Y5315.00
G1 X7301.00 Y5369.00
G1 X7367.00 Y5258.00
G1 X7424.00 Y5202.00
G1 X7443.00 Y5181.00
G1 X7391.00 Y5187.00
G1 X7311.00 Y5172.00
G1 X7283.00 Y5152.00
G1 X7251.00 Y5223.00
G1 X7220.00 Y5335.00
G1 X7200.00 Y5408.00
G1 X7245.00 Y5421.00
G1 X3785.00 Y5242.00
G1 X3810.00 Y5023.00
G1 X3732.00 Y5020.00
G1 X3644.00 Y5195.00
G1 X3629.00 Y5262.00
G1 X3667.00 Y5401.00
G1 X3704.00 Y5405.00
G1 X7735.00 Y4761.00
G1 X7742.00 Y4737.00
G1 X7712.00 Y4759.00
G1 X7698.00 Y4737.00
G1 X7754.00 Y4624.00
G1 X7774.00 Y4478.00
G1 X7780.00 Y4400.00
G1 X7742.00 Y4385.00
G1 X7678.00 Y4343.00
G1 X7651.00 Y4318.00
G1 X7608.00 Y4342.00
G1 X7523.00 Y4455.00
G1 X7512.00 Y4442.00
G1 X7628.00 Y4310.00
G1 X7665.00 Y4167.00
G1 X7618.00 Y4096.00
G1 X7551.00 Y3978.00
G1 X7554.00 Y3935.00
G1 X7511.00 Y3937.00
G1 X7462.00 Y3945.00
G1 X7483.00 Y4003.00
G1 X7510.00 Y4072.00
G1 X7575.00 Y4120.00
G1 X7590.00 Y4135.00
G1 X7547.00 Y4134.00
G1 X7512.00 Y4131.00
G1 X7469.00 Y4182.00
G1 X7376.00 Y4230.00
G1 X7316.00 Y4273.00
G1 X7311.00 Y4526.00
G1 X7378.00 Y4566.00
G1 X7520.00 Y4632.00
G1 X7531.00 Y4700.00
G1 X7516.00 Y4716.00
G1 X7543.00 Y4745.00
G1 X7583.00 Y4751.00
G1 X7600.00 Y4652.00
G1 X7664.00 Y4465.00
G1 X7671.00 Y4495.00
G1 X7611.00 Y4805.00
G1 X7418.00 Y5243.00
G1 X7330.00 Y5359.00
G1 X7395.00 Y5346.00
G1 X3449.00 Y4856.00
G1 X3460.00 Y4764.00
G1 X3429.00 Y4726.00
G1 X3319.00 Y4749.00
G1 X3320.00 Y4908.00
G1 X3340.00 Y4980.00
G1 X3270.00 Y4812.00
G1 X3435.00 Y4705.00
G1 X3517.00 Y4712.00
G1 X3543.00 Y4680.00
G1 X3546.00 Y4611.00
G1 X3459.00 Y4397.00
G1 X3411.00 Y4221.00
G1 X3324.00 Y4338.00
G1 X3325.00 Y4546.00
G1 X3371.00 Y4621.00
G1 X3352.00 Y4628.00
G1 X3289.00 Y4433.00
G1 X3365.00 Y4232.00
G1 X3451.00 Y4098.00
G1 X3547.00 Y3943.00
G1 X3590.00 Y3885.00
G1 X3485.00 Y3901.00
G1 X3305.00 Y4165.00
G1 X3135.00 Y4341.00
G1 X3039.00 Y4386.00
G1 X2980.00 Y4572.00
G1 X2991.00 Y4650.00
G1 X3036.00 Y4695.00
G1 X3184.00 Y4875.00
G1 X3301.00 Y5000.00
G1 X3532.00 Y5244.00
G1 X3598.00 Y5298.00
G1 X3531.00 Y5135.00
G1 X5675.00 Y5115.00
G1 X5664.00 Y5000.00
G1 X5683.00 Y4825.00
G1 X5693.00 Y4742.00
G1 X5572.00 Y4805.00
G1 X5464.00 Y5114.00
G1 X5502.00 Y5143.00
G1 X5603.00 Y5135.00
G1 X4270.00 Y4953.00
G1 X4265.00 Y4940.00
G1 X4145.00 Y5004.00
G1 X4150.00 Y5020.00
G1 X4296.00 Y5099.00
G1 X4337.00 Y5137.00
G1 X4305.00 Y5050.00
G1 X5850.00 Y4867.00
G1 X5754.00 Y4931.00
G1 X5744.00 Y4990.00
G1 X5787.00 Y4958.00
G1 X4242.00 Y4917.00
G1 X4236.00 Y4852.00
G1 X4203.00 Y4815.00
G1 X4164.00 Y4895.00
G1 X4140.00 Y4948.00
G1 X4209.00 Y4936.00
G1 X5905.00 Y4752.00
G1 X5936.00 Y4625.00
G1 X5914.00 Y4547.00
G1 X5908.00 Y4509.00
G1 X5880.00 Y4562.00
G1 X5798.00 Y4695.00
G1 X5727.00 Y4841.00
G1 X5703.00 Y4926.00
G1 X5750.00 Y4897.00
G1 X5832.00 Y4843.00
G1 X3083.00 Y4740.00
G1 X3027.00 Y4720.00
G1 X3004.00 Y4750.00
G1 X3105.00 Y4876.00
G1 X3164.00 Y4888.00
G1 X3000.00 Y4799.00
G1 X2981.00 Y4733.00
G1 X2973.00 Y4675.00
G1 X2976.00 Y4445.00
G1 X2983.00 Y4415.00
G1 X2950.00 Y4445.00
G1 X2875.00 Y4680.00
G1 X2890.00 Y4755.00
G1 X2948.00 Y4813.00
G1 X3020.00 Y4834.00
G1 X4351.00 Y4702.00
G1 X4425.00 Y4519.00
G1 X4400.00 Y4487.00
G1 X4334.00 Y4580.00
G1 X4283.00 Y4640.00
G1 X4275.00 Y4830.00
G1 X4295.00 Y4793.00
G1 X2789.00 Y4600.00
G1 X2722.00 Y4517.00
G1 X2718.00 Y4262.00
G1 X2723.00 Y4287.00
G1 X2734.00 Y4490.00
G1 X2830.00 Y4577.00
G1 X2944.00 Y4421.00
G1 X3005.00 Y4341.00
G1 X3169.00 Y4101.00
G1 X3346.00 Y3863.00
G1 X3290.00 Y3876.00
G1 X3164.00 Y4004.00
G1 X3085.00 Y4118.00
G1 X3094.00 Y4082.00
G1 X3139.00 Y3950.00
G1 X3084.00 Y4048.00
G1 X2985.00 Y4229.00
G1 X3028.00 Y4061.00
G1 X3061.00 Y3896.00
G1 X3010.00 Y3903.00
G1 X2949.00 Y4065.00
G1 X2823.00 Y4017.00
G1 X2828.00 Y3970.00
G1 X2850.00 Y4037.00
G1 X2868.00 Y4069.00
G1 X2980.00 Y3929.00
G1 X2874.00 Y3804.00
G1 X2690.00 Y3811.00
G1 X2593.00 Y3920.00
G1 X2625.00 Y3976.00
G1 X2695.00 Y4024.00
G1 X2694.00 Y4146.00
G1 X2685.00 Y4112.00
G1 X2630.00 Y4000.00
G1 X2556.00 Y4018.00
G1 X2819.00 Y4733.00
G1 X2867.00 Y4773.00
G1 X2852.00 Y4695.00
G1 X5664.00 Y4715.00
G1 X5720.00 Y4657.00
G1 X5804.00 Y4466.00
G1 X5753.00 Y4497.00
G1 X5654.00 Y4619.00
G1 X5556.00 Y4770.00
G1 X5591.00 Y4746.00
G1 X7510.00 Y4671.00
G1 X7430.00 Y4596.00
G1 X7350.00 Y4584.00
G1 X7284.00 Y4383.00
G1 X7240.00 Y4270.00
G1 X7230.00 Y4255.00
G1 X7250.00 Y4193.00
G1 X7201.00 Y4197.00
G1 X7246.00 Y4543.00
G1 X7399.00 Y4760.00
G1 X7476.00 Y4724.00
G1 X5885.00 Y4426.00
G1 X5760.00 Y4659.00
G1 X5855.00 Y4523.00
G1 X7831.00 Y4405.00
G1 X7817.00 Y4455.00
G1 X7804.00 Y4595.00
G1 X7804.00 Y4639.00
G1 X7824.00 Y4539.00
G1 X6937.00 Y4245.00
G1 X6600.00 Y4175.00
G1 X6640.00 Y4215.00
G1 X6790.00 Y4309.00
G1 X6917.00 Y4364.00
G1 X7182.00 Y4547.00
G1 X7217.00 Y4606.00
G1 X7184.00 Y4516.00
G1 X3580.00 Y4255.00
G1 X3590.00 Y4010.00
G1 X3614.00 Y3921.00
G1 X3485.00 Y4088.00
G1 X3429.00 Y4191.00
G1 X3444.00 Y4238.00
G1 X3480.00 Y4385.00
G1 X3546.00 Y4578.00
G1 X3588.00 Y4561.00
G1 X5859.00 Y4356.00
G1 X5974.00 Y4225.00
G1 X5986.00 Y4163.00
G1 X5913.00 Y4196.00
G1 X5798.00 Y4258.00
G1 X5686.00 Y4411.00
G1 X5654.00 Y4519.00
G1 X5640.00 Y4563.00
G1 X5744.00 Y4453.00
G1 X4368.00 Y4393.00
G1 X4172.00 Y4105.00
G1 X4190.00 Y4150.00
G1 X4299.00 Y4392.00
G1 X4310.00 Y4501.00
G1 X4326.00 Y4549.00
G1 X4361.00 Y4499.00
G1 X6474.00 Y4412.00
G1 X6454.00 Y4329.00
G1 X6414.00 Y4248.00
G1 X6200.00 Y4380.00
G1 X6166.00 Y4408.00
G1 X6211.00 Y4430.00
G1 X6357.00 Y4469.00
G1 X6442.00 Y4441.00
G1 X4120.00 Y4205.00
G1 X4024.00 Y4215.00
G1 X4116.00 Y4390.00
G1 X4180.00 Y4387.00
G1 X7169.00 Y4147.00
G1 X7188.00 Y4042.00
G1 X7141.00 Y4012.00
G1 X7046.00 Y4035.00
G1 X6891.00 Y4149.00
G1 X6933.00 Y4193.00
G1 X7125.00 Y4344.00
G1 X7145.00 Y4380.00
G1 X7146.00 Y4302.00
G1 X7775.00 Y4283.00
G1 X7732.00 Y4178.00
G1 X7695.00 Y4137.00
G1 X7688.00 Y4176.00
G1 X7735.00 Y4358.00
G1 X7775.00 Y4359.00
G1 X3133.00 Y4316.00
G1 X3230.00 Y4265.00
G1 X3289.00 Y4138.00
G1 X3406.00 Y3929.00
G1 X3518.00 Y3863.00
G1 X3565.00 Y3850.00
G1 X3490.00 Y3855.00
G1 X3393.00 Y3875.00
G1 X3320.00 Y3965.00
G1 X3200.00 Y4106.00
G1 X3040.00 Y4334.00
G1 X3054.00 Y4351.00
G1 X2526.00 Y4178.00
G1 X2500.00 Y4161.00
G1 X2566.00 Y4327.00
G1 X2552.00 Y4269.00
G1 X5917.00 Y4029.00
G1 X5947.00 Y4004.00
G1 X5867.00 Y4011.00
G1 X5775.00 Y4056.00
G1 X5719.00 Y4260.00
G1 X5760.00 Y4202.00
G1 X5949.00 Y4145.00
G1 X6027.00 Y4047.00
G1 X6010.00 Y4010.00
G1 X5864.00 Y4102.00
G1 X5766.00 Y4250.00
G1 X5843.00 Y4204.00
G1 X7475.00 Y4129.00
G1 X7378.00 Y4096.00
G1 X7330.00 Y4202.00
G1 X7439.00 Y4172.00
G1 X7325.00 Y4100.00
G1 X7270.00 Y4181.00
G1 X7318.00 Y4155.00
G1 X3840.00 Y4020.00
G1 X3755.00 Y4036.00
G1 X3704.00 Y4046.00
G1 X3718.00 Y4105.00
G1 X3923.00 Y4189.00
G1 X3954.00 Y4163.00
G1 X4113.00 Y4132.00
G1 X4100.00 Y4065.00
G1 X4093.00 Y4035.00
G1 X4081.00 Y4078.00
G1 X4037.00 Y4157.00
G1 X4025.00 Y4187.00
G1 X4082.00 Y4176.00
G1 X4040.00 Y3873.00
G1 X4018.00 Y3790.00
G1 X3940.00 Y3790.00
G1 X3748.00 Y3733.00
G1 X3721.00 Y3757.00
G1 X3757.00 Y3863.00
G1 X3944.00 Y4062.00
G1 X3980.00 Y4161.00
G1 X4005.00 Y4155.00
G1 X4047.00 Y4095.00
G1 X4198.00 Y3925.00
G1 X4062.00 Y3738.00
G1 X4111.00 Y3951.00
G1 X4166.00 Y4021.00
G1 X4242.00 Y4128.00
G1 X4276.00 Y4177.00
G1 X4256.00 Y4081.00
G1 X7734.00 Y4040.00
G1 X7714.00 Y4049.00
G1 X7700.00 Y4098.00
G1 X7747.00 Y4160.00
G1 X7745.00 Y4113.00
G1 X6342.00 Y4090.00
G1 X6402.00 Y3992.00
G1 X6395.00 Y3902.00
G1 X6337.00 Y3939.00
G1 X6273.00 Y3980.00
G1 X6251.00 Y4020.00
G1 X6204.00 Y4087.00
G1 X6164.00 Y4144.00
G1 X6262.00 Y4114.00
G1 X6235.00 Y3999.00
G1 X6176.00 Y3834.00
G1 X6140.00 Y3817.00
G1 X6121.00 Y3885.00
G1 X6084.00 Y4026.00
G1 X6060.00 Y4119.00
G1 X6123.00 Y4114.00
G1 X7350.00 Y4037.00
G1 X7286.00 Y3923.00
G1 X7241.00 Y4063.00
G1 X7240.00 Y4101.00
G1 X7270.00 Y4085.00
G1 X7325.00 Y4070.00
G1 X2478.00 Y3940.00
G1 X2486.00 Y4080.00
G1 X2489.00 Y3983.00
G1 X7446.00 Y3987.00
G1 X7422.00 Y3948.00
G1 X7402.00 Y3977.00
G1 X7379.00 Y4035.00
G1 X7454.00 Y4079.00
G1 X7475.00 Y4053.00
G1 X7632.00 Y3931.00
G1 X7577.00 Y3973.00
G1 X7617.00 Y4064.00
G1 X7678.00 Y4055.00
G1 X7754.00 Y3612.00
G1 X7740.00 Y3465.00
G1 X7720.00 Y3631.00
G1 X7767.00 Y4030.00
G1 X7771.00 Y3890.00
G1 X7218.00 Y3979.00
G1 X7224.00 Y3948.00
G1 X7194.00 Y3890.00
G1 X7020.00 Y3965.00
G1 X6970.00 Y4029.00
G1 X7025.00 Y4009.00
G1 X7149.00 Y3979.00
G1 X3719.00 Y3901.00
G1 X3680.00 Y3962.00
G1 X3680.00 Y4029.00
G1 X3711.00 Y4020.00
G1 X3748.00 Y4006.00
G1 X3755.00 Y3892.00
G1 X3766.00 Y3948.00
G1 X3783.00 Y4000.00
G1 X3832.00 Y4000.00
G1 X3880.00 Y3991.00
G1 X7410.00 Y3913.00
G1 X7320.00 Y3870.00
G1 X7330.00 Y3932.00
G1 X7361.00 Y3979.00
G1 X7367.00 Y3984.00
G1 X7391.00 Y3944.00
G1 X6055.00 Y3965.00
G1 X6077.00 Y3876.00
G1 X6095.00 Y3782.00
G1 X6041.00 Y3796.00
G1 X5895.00 Y3784.00
G1 X5860.00 Y3837.00
G1 X5819.00 Y3943.00
G1 X5801.00 Y3991.00
G1 X5888.00 Y3984.00
G1 X6015.00 Y3971.00
G1 X6384.00 Y3863.00
G1 X6384.00 Y3584.00
G1 X6385.00 Y3305.00
G1 X6361.00 Y3350.00
G1 X6294.00 Y3428.00
G1 X6310.00 Y3391.00
G1 X6420.00 Y3066.00
G1 X6390.00 Y3099.00
G1 X6312.00 Y3173.00
G1 X6223.00 Y3245.00
G1 X6178.00 Y3363.00
G1 X6175.00 Y3442.00
G1 X6223.00 Y3465.00
G1 X6285.00 Y3506.00
G1 X6306.00 Y3678.00
G1 X6213.00 Y3796.00
G1 X6180.00 Y3802.00
G1 X6203.00 Y3824.00
G1 X6244.00 Y3898.00
G1 X6276.00 Y3950.00
G1 X6337.00 Y3906.00
G1 X7681.00 Y3729.00
G1 X7673.00 Y3695.00
G1 X7666.00 Y3730.00
G1 X7629.00 Y3834.00
G1 X7600.00 Y3905.00
G1 X7640.00 Y3915.00
G1 X7686.00 Y3931.00
G1 X7695.00 Y3852.00
G1 X7593.00 Y3858.00
G1 X7639.00 Y3721.00
G1 X7651.00 Y3581.00
G1 X7634.00 Y3475.00
G1 X7567.00 Y3390.00
G1 X7443.00 Y3413.00
G1 X7380.00 Y3636.00
G1 X7459.00 Y3642.00
G1 X7618.00 Y3715.00
G1 X7587.00 Y3710.00
G1 X7431.00 Y3666.00
G1 X7333.00 Y3760.00
G1 X7353.00 Y3853.00
G1 X7420.00 Y3889.00
G1 X7465.00 Y3915.00
G1 X7527.00 Y3910.00
G1 X2627.00 Y3355.00
G1 X2606.00 Y3172.00
G1 X2572.00 Y3090.00
G1 X2528.00 Y3375.00
G1 X2525.00 Y3885.00
G1 X2538.00 Y3870.00
G1 X2581.00 Y3641.00
G1 X2655.00 Y3769.00
G1 X2641.00 Y3723.00
G1 X2652.00 Y3727.00
G1 X2760.00 Y3755.00
G1 X2818.00 Y3748.00
G1 X2829.00 Y3705.00
G1 X2826.00 Y3649.00
G1 X2774.00 Y3622.00
G1 X2735.00 Y3584.00
G1 X2690.00 Y3636.00
G1 X2641.00 Y3679.00
G1 X2678.00 Y3622.00
G1 X2717.00 Y3575.00
G1 X2695.00 Y3487.00
G1 X2660.00 Y3444.00
G1 X2623.00 Y3630.00
G1 X2583.00 Y3843.00
G1 X2598.00 Y3900.00
G1 X2634.00 Y3881.00
G1 X3321.00 Y3768.00
G1 X3124.00 Y3620.00
G1 X3120.00 Y3742.00
G1 X3140.00 Y3859.00
G1 X3158.00 Y3885.00
G1 X3244.00 Y3851.00
G1 X3071.00 Y3845.00
G1 X3081.00 Y3862.00
G1 X3080.00 Y3822.00
G1 X4044.00 Y3523.00
G1 X4049.00 Y3599.00
G1 X4084.00 Y3703.00
G1 X4163.00 Y3806.00
G1 X4183.00 Y3771.00
G1 X7305.00 Y3708.00
G1 X7278.00 Y3680.00
G1 X7172.00 Y3775.00
G1 X7100.00 Y3874.00
G1 X7241.00 Y3861.00
G1 X3028.00 Y3745.00
G1 X2999.00 Y3736.00
G1 X3006.00 Y3844.00
G1 X3050.00 Y3816.00
G1 X2959.00 Y3739.00
G1 X2930.00 Y3776.00
G1 X2965.00 Y3779.00
G1 X2864.00 Y3690.00
G1 X2845.00 Y3722.00
G1 X2864.00 Y3777.00
G1 X2910.00 Y3763.00
G1 X6110.00 Y3706.00
G1 X6135.00 Y3193.00
G1 X6103.00 Y3270.00
G1 X5984.00 Y3453.00
G1 X5926.00 Y3571.00
G1 X5925.00 Y3622.00
G1 X5970.00 Y3639.00
G1 X6018.00 Y3672.00
G1 X5981.00 Y3669.00
G1 X5902.00 Y3689.00
G1 X5918.00 Y3764.00
G1 X6054.00 Y3768.00
G1 X6269.00 Y3719.00
G1 X6259.00 Y3668.00
G1 X6204.00 Y3650.00
G1 X6161.00 Y3688.00
G1 X6150.00 Y3753.00
G1 X6224.00 Y3766.00
G1 X4010.00 Y3725.00
G1 X3951.00 Y3660.00
G1 X3795.00 Y3609.00
G1 X3761.00 Y3579.00
G1 X3755.00 Y3613.00
G1 X3846.00 Y3755.00
G1 X3973.00 Y3764.00
G1 X3018.00 Y3560.00
G1 X3008.00 Y3535.00
G1 X2995.00 Y3560.00
G1 X3022.00 Y3718.00
G1 X3065.00 Y3703.00
G1 X2930.00 Y3672.00
G1 X2948.00 Y3706.00
G1 X2968.00 Y3693.00
G1 X2966.00 Y3654.00
G1 X2861.00 Y3634.00
G1 X2878.00 Y3674.00
G1 X2892.00 Y3648.00
G1 X4125.00 Y3477.00
G1 X4101.00 Y3396.00
G1 X4067.00 Y3413.00
G1 X4041.00 Y3435.00
G1 X4103.00 Y3561.00
G1 X4169.00 Y3684.00
G1 X4157.00 Y3618.00
G1 X7415.00 Y3242.00
G1 X7357.00 Y3376.00
G1 X7295.00 Y3561.00
G1 X7289.00 Y3660.00
G1 X7331.00 Y3633.00
G1 X6206.00 Y3480.00
G1 X6175.00 Y3518.00
G1 X6165.00 Y3583.00
G1 X6173.00 Y3615.00
G1 X6230.00 Y3633.00
G1 X6290.00 Y3621.00
G1 X3160.00 Y3490.00
G1 X3101.00 Y3480.00
G1 X3060.00 Y3505.00
G1 X3130.00 Y3590.00
G1 X3197.00 Y3615.00
G1 X3235.00 Y3608.00
G1 X3940.00 Y3450.00
G1 X3901.00 Y3421.00
G1 X3894.00 Y3321.00
G1 X3882.00 Y3319.00
G1 X3840.00 Y3321.00
G1 X3932.00 Y3299.00
G1 X3980.00 Y3261.00
G1 X3925.00 Y3183.00
G1 X3888.00 Y3106.00
G1 X3891.00 Y3051.00
G1 X3843.00 Y3016.00
G1 X3786.00 Y3070.00
G1 X3781.00 Y3333.00
G1 X3787.00 Y3567.00
G1 X3928.00 Y3630.00
G1 X3990.00 Y3630.00
G1 X3990.00 Y3571.00
G1 X2853.00 Y3567.00
G1 X2805.00 Y3490.00
G1 X2750.00 Y3563.00
G1 X2812.00 Y3620.00
G1 X2840.00 Y3610.00
G1 X2983.00 Y3434.00
G1 X2867.00 Y3445.00
G1 X2879.00 Y3480.00
G1 X2940.00 Y3490.00
G1 X2908.00 Y3500.00
G1 X2874.00 Y3558.00
G1 X2900.00 Y3610.00
G1 X2969.00 Y3560.00
G1 X2901.00 Y3407.00
G1 X2958.00 Y3378.00
G1 X2940.00 Y3307.00
G1 X2919.00 Y3250.00
G1 X2845.00 Y3250.00
G1 X2758.00 Y3322.00
G1 X2767.00 Y3355.00
G1 X2841.00 Y3352.00
G1 X2933.00 Y3362.00
G1 X2893.00 Y3377.00
G1 X2733.00 Y3407.00
G1 X2734.00 Y3388.00
G1 X2734.00 Y3321.00
G1 X2739.00 Y3256.00
G1 X2761.00 Y3232.00
G1 X2740.00 Y3189.00
G1 X2723.00 Y3077.00
G1 X2717.00 Y2973.00
G1 X2729.00 Y2919.00
G1 X2825.00 Y2910.00
G1 X2840.00 Y2920.00
G1 X2821.00 Y2771.00
G1 X2714.00 Y2680.00
G1 X2660.00 Y2732.00
G1 X2698.00 Y2745.00
G1 X2749.00 Y2754.00
G1 X2728.00 Y2775.00
G1 X2661.00 Y2801.00
G1 X2630.00 Y2795.00
G1 X2644.00 Y2678.00
G1 X2685.00 Y2392.00
G1 X2719.00 Y2405.00
G1 X2750.00 Y2413.00
G1 X2767.00 Y1605.00
G1 X2793.00 Y1430.00
G1 X2797.00 Y1380.00
G1 X2736.00 Y1349.00
G1 X2683.00 Y1323.00
G1 X2689.00 Y1361.00
G1 X2674.00 Y1547.00
G1 X2655.00 Y1795.00
G1 X2651.00 Y2220.00
G1 X2599.00 Y2676.00
G1 X2600.00 Y2814.00
G1 X2621.00 Y2890.00
G1 X2640.00 Y2875.00
G1 X2769.00 Y2810.00
G1 X2764.00 Y2843.00
G1 X2636.00 Y2916.00
G1 X2656.00 Y3006.00
G1 X2679.00 Y3225.00
G1 X2694.00 Y3413.00
G1 X2710.00 Y3476.00
G1 X2721.00 Y3513.00
G1 X2756.00 Y3504.00
G1 X2780.00 Y3468.00
G1 X7722.00 Y3138.00
G1 X7673.00 Y3120.00
G1 X7580.00 Y3155.00
G1 X7461.00 Y3314.00
G1 X7452.00 Y3375.00
G1 X7517.00 Y3368.00
G1 X7605.00 Y3364.00
G1 X7663.00 Y3487.00
G1 X7692.00 Y3452.00
G1 X3100.00 Y3360.00
G1 X3020.00 Y3404.00
G1 X3075.00 Y3453.00
G1 X3144.00 Y3438.00
G1 X3933.00 Y3325.00
G1 X3910.00 Y3347.00
G1 X3943.00 Y3428.00
G1 X3980.00 Y3396.00
G1 X6086.00 Y3188.00
G1 X6060.00 Y2985.00
G1 X5977.00 Y3012.00
G1 X5944.00 Y3226.00
G1 X5985.00 Y3211.00
G1 X6030.00 Y3180.00
G1 X5995.00 Y3252.00
G1 X5940.00 Y3307.00
G1 X5940.00 Y3374.00
G1 X5948.00 Y3440.00
G1 X5988.00 Y3420.00
G1 X4093.00 Y3297.00
G1 X4071.00 Y3160.00
G1 X4043.00 Y3178.00
G1 X4028.00 Y3298.00
G1 X4038.00 Y3398.00
G1 X4071.00 Y3381.00
G1 X3084.00 Y3316.00
G1 X3025.00 Y3270.00
G1 X2994.00 Y3320.00
G1 X3065.00 Y3348.00
G1 X7770.00 Y3130.00
G1 X7761.00 Y3203.00
G1 X7779.00 Y3183.00
G1 X3009.00 Y3174.00
G1 X2930.00 Y3092.00
G1 X2972.00 Y3247.00
G1 X3050.00 Y3254.00
G1 X2855.00 Y3140.00
G1 X2822.00 Y3221.00
G1 X2907.00 Y3185.00
G1 X6410.00 Y2960.00
G1 X6395.00 Y2863.00
G1 X6359.00 Y2090.00
G1 X6367.00 Y1764.00
G1 X6332.00 Y1720.00
G1 X6255.00 Y1765.00
G1 X6252.00 Y1953.00
G1 X6274.00 Y2250.00
G1 X6230.00 Y2749.00
G1 X6260.00 Y2780.00
G1 X6336.00 Y2985.00
G1 X6185.00 Y2950.00
G1 X6160.00 Y2991.00
G1 X6186.00 Y3208.00
G1 X6236.00 Y3198.00
G1 X6322.00 Y3131.00
G1 X7507.00 Y2930.00
G1 X7491.00 Y2460.00
G1 X7426.00 Y1952.00
G1 X7433.00 Y1868.00
G1 X7377.00 Y1812.00
G1 X7294.00 Y1646.00
G1 X7273.00 Y1580.00
G1 X7160.00 Y1626.00
G1 X7194.00 Y1677.00
G1 X7364.00 Y2189.00
G1 X7457.00 Y2780.00
G1 X7426.00 Y3051.00
G1 X7390.00 Y3202.00
G1 X7410.00 Y3203.00
G1 X7446.00 Y3141.00
G1 X3979.00 Y2997.00
G1 X3913.00 Y2965.00
G1 X3792.00 Y2865.00
G1 X3780.00 Y2877.00
G1 X3855.00 Y2994.00
G1 X3916.00 Y3044.00
G1 X3911.00 Y3097.00
G1 X3925.00 Y3158.00
G1 X3959.00 Y3180.00
G1 X3973.00 Y3158.00
G1 X7649.00 Y3100.00
G1 X7643.00 Y3045.00
G1 X7578.00 Y3018.00
G1 X7663.00 Y2960.00
G1 X7720.00 Y2900.00
G1 X7645.00 Y2876.00
G1 X7597.00 Y2887.00
G1 X7688.00 Y2834.00
G1 X7720.00 Y2795.00
G1 X7637.00 Y2745.00
G1 X7586.00 Y2817.00
G1 X7545.00 Y2950.00
G1 X7489.00 Y3180.00
G1 X7545.00 Y3143.00
G1 X2859.00 Y3043.00
G1 X2740.00 Y3119.00
G1 X2779.00 Y3135.00
G1 X2843.00 Y3115.00
G1 X4071.00 Y3002.00
G1 X4054.00 Y2965.00
G1 X4040.00 Y2980.00
G1 X4027.00 Y3083.00
G1 X4021.00 Y3150.00
G1 X4050.00 Y3150.00
G1 X4080.00 Y3150.00
G1 X4080.00 Y3085.00
G1 X7812.00 Y3110.00
G1 X7817.00 Y3128.00
G1 X7817.00 Y3093.00
G1 X2569.00 Y2835.00
G1 X2549.00 Y2785.00
G1 X2588.00 Y3012.00
G1 X2638.00 Y3098.00
G1 X2612.00 Y2998.00
G1 X7751.00 Y3011.00
G1 X7769.00 Y3120.00
G1 X7772.00 Y3048.00
G1 X2510.00 Y3030.00
G1 X2510.00 Y3085.00
G1 X2520.00 Y3047.00
G1 X2940.00 Y3020.00
G1 X2926.00 Y3032.00
G1 X2968.00 Y3069.00
G1 X2967.00 Y3045.00
G1 X7643.00 Y2986.00
G1 X7658.00 Y3023.00
G1 X7712.00 Y3010.00
G1 X2778.00 Y2924.00
G1 X2734.00 Y2974.00
G1 X2795.00 Y3000.00
G1 X2850.00 Y2975.00
G1 X2925.00 Y2855.00
G1 X2879.00 Y2450.00
G1 X2916.00 Y1845.00
G1 X3000.00 Y1600.00
G1 X3030.00 Y1547.00
G1 X2923.00 Y1500.00
G1 X2900.00 Y1548.00
G1 X2842.00 Y1708.00
G1 X2802.00 Y1745.00
G1 X2795.00 Y1850.00
G1 X2792.00 Y2230.00
G1 X2796.00 Y2505.00
G1 X2837.00 Y2665.00
G1 X2894.00 Y2899.00
G1 X2947.00 Y2990.00
G1 X2953.00 Y2953.00
G1 X6251.00 Y2810.00
G1 X6260.00 Y2958.00
G1 X6328.00 Y2942.00
G1 X4005.00 Y2769.00
G1 X3973.00 Y2780.00
G1 X3904.00 Y2800.00
G1 X3844.00 Y2774.00
G1 X3840.00 Y2660.00
G1 X3931.00 Y2610.00
G1 X3947.00 Y2573.00
G1 X3923.00 Y2017.00
G1 X3934.00 Y1710.00
G1 X3898.00 Y1653.00
G1 X3855.00 Y1620.00
G1 X3836.00 Y1643.00
G1 X3824.00 Y1745.00
G1 X3810.00 Y2648.00
G1 X3790.00 Y2776.00
G1 X3859.00 Y2909.00
G1 X3976.00 Y2959.00
G1 X3998.00 Y2869.00
G1 X6080.00 Y2920.00
G1 X6073.00 Y2950.00
G1 X6110.00 Y2940.00
G1 X4075.00 Y2853.00
G1 X4058.00 Y2810.00
G1 X4053.00 Y2853.00
G1 X4086.00 Y2950.00
G1 X4086.00 Y2923.00
G1 X6084.00 Y2877.00
G1 X6121.00 Y2867.00
G1 X6124.00 Y2355.00
G1 X6126.00 Y1865.00
G1 X6102.00 Y1808.00
G1 X6064.00 Y1750.00
G1 X6065.00 Y1806.00
G1 X6067.00 Y1850.00
G1 X6020.00 Y1755.00
G1 X6038.00 Y1726.00
G1 X6052.00 Y1685.00
G1 X6059.00 Y1603.00
G1 X6062.00 Y1548.00
G1 X5917.00 Y1547.00
G1 X5870.00 Y1555.00
G1 X5900.00 Y1592.00
G1 X5991.00 Y1850.00
G1 X6014.00 Y2075.00
G1 X6036.00 Y2350.00
G1 X6010.00 Y2884.00
G1 X6030.00 Y2888.00
G1 X3934.00 Y2650.00
G1 X3872.00 Y2758.00
G1 X3960.00 Y2750.00
G1 X2440.00 Y2635.00
G1 X2417.00 Y2615.00
G1 X2425.00 Y2640.00
G1 X2490.00 Y2730.00
G1 X7711.00 Y2323.00
G1 X7719.00 Y1887.00
G1 X7706.00 Y1763.00
G1 X7684.00 Y1780.00
G1 X7640.00 Y1695.00
G1 X7665.00 Y1710.00
G1 X7688.00 Y1637.00
G1 X7694.00 Y1493.00
G1 X7695.00 Y1440.00
G1 X7657.00 Y1462.00
G1 X7583.00 Y1485.00
G1 X7540.00 Y1488.00
G1 X7569.00 Y1546.00
G1 X7601.00 Y1743.00
G1 X7611.00 Y1902.00
G1 X7625.00 Y2295.00
G1 X7611.00 Y2645.00
G1 X7606.00 Y2711.00
G1 X7652.00 Y2709.00
G1 X7703.00 Y2700.00
G1 X2717.00 Y2572.00
G1 X2672.00 Y2617.00
G1 X2710.00 Y2651.00
G1 X2784.00 Y2633.00
G1 X4032.00 Y1861.00
G1 X4044.00 Y1758.00
G1 X4006.00 Y1750.00
G1 X3973.00 Y1750.00
G1 X3966.00 Y1811.00
G1 X3970.00 Y2415.00
G1 X4010.00 Y2620.00
G1 X4016.00 Y2288.00
G1 X2722.00 Y2431.00
G1 X2696.00 Y2443.00
G1 X2690.00 Y2502.00
G1 X2747.00 Y2549.00
G1 X2763.00 Y2518.00
G1 X4118.00 Y1587.00
G1 X4148.00 Y1536.00
G1 X4043.00 Y1500.00
G1 X4001.00 Y1627.00
G1 X3985.00 Y1709.00
G1 X4013.00 Y1720.00
G1 X4066.00 Y1678.00
G1 X6328.00 Y1682.00
G1 X6333.00 Y1626.00
G1 X6345.00 Y1500.00
G1 X6358.00 Y1434.00
G1 X6297.00 Y1454.00
G1 X6188.00 Y1469.00
G1 X6214.00 Y1554.00
G1 X6244.00 Y1656.00
G1 X6243.00 Y1720.00
G1 X6268.00 Y1695.00
G1 X6304.00 Y1670.00
G1 X4020.00 Y1424.00
G1 X3916.00 Y1380.00
G1 X3870.00 Y1453.00
G1 X3874.00 Y1543.00
G1 X3906.00 Y1619.00
G1 X3945.00 Y1650.00
G1 X3957.00 Y1590.00
G1 X3995.00 Y1483.00
G1 X7125.00 Y1559.00
G1 X7148.00 Y1570.00
G1 X7146.00 Y1555.00
G1 X3025.00 Y1480.00
G1 X3032.00 Y1489.00
G1 X3065.00 Y1480.00
G1 X4166.00 Y1451.00
G1 X4142.00 Y1468.00
G1 X4171.00 Y1464.00
G1 X6328.00 Y1400.00
G1 X6340.00 Y1380.00
G1 X6204.00 Y1331.00
G1 X6167.00 Y1345.00
G1 X6204.00 Y1400.00
G1 X6275.00 Y1420.00
G0 X5320.00 Y8340.00
G1 X5359.00 Y8243.00
G1 X5420.00 Y8088.00
G1 X5451.00 Y8020.00
G1 X5436.00 Y8124.00
G1 X5320.00 Y8340.00
G0 X5292.00 Y8259.00
G1 X5320.00 Y8107.00
G1 X5359.00 Y7940.00
G1 X5354.00 Y7987.00
G1 X5340.00 Y8126.00
G1 X5288.00 Y8290.00
G1 X5292.00 Y8259.00
G0 X4387.00 Y6333.00
G1 X4341.00 Y6185.00
G1 X4356.00 Y6207.00
G1 X4441.00 Y6380.00
G1 X4450.00 Y6390.00
G1 X4436.00 Y6400.00
G1 X4387.00 Y6333.00
G0 X7165.00 Y4898.00
G1 X7006.00 Y4666.00
G1 X6949.00 Y4540.00
G1 X7041.00 Y4682.00
G1 X7173.00 Y4870.00
G1 X7220.00 Y4923.00
G1 X7165.00 Y4898.00
G0 X7380.00 Y4404.00
G1 X7375.00 Y4370.00
G1 X7422.00 Y4440.00
G1 X7380.00 Y4404.00
G0 X3195.00 Y4772.00
G1 X3143.00 Y4709.00
G1 X3100.00 Y4653.00
G1 X3112.00 Y4577.00
G1 X3133.00 Y4500.00
G1 X3135.00 Y4583.00
G1 X3128.00 Y4665.00
G1 X3170.00 Y4712.00
G1 X3208.00 Y4770.00
G1 X3195.00 Y4772.00
G0 X2746.00 Y4241.00
G1 X2768.00 Y4230.00
G1 X2867.00 Y4155.00
G1 X2885.00 Y4142.00
G1 X2842.00 Y4223.00
G1 X2746.00 Y4241.00
G0 X3881.00 Y3869.00
G1 X3891.00 Y3827.00
G1 X3903.00 Y3910.00
G1 X3881.00 Y3869.00
G0 X7556.00 Y3811.00
G1 X7399.00 Y3789.00
G1 X7360.00 Y3780.00
G1 X7499.00 Y3768.00
G1 X7572.00 Y3814.00
G1 X7556.00 Y3811.00
G0 X7555.00 Y3549.00
G1 X7490.00 Y3529.00
G1 X7455.00 Y3528.00
G1 X7486.00 Y3518.00
G1 X7558.00 Y3529.00
G1 X7600.00 Y3560.00
G1 X7555.00 Y3549.00
G0 X2660.00 Y1621.00
G1 X2731.00 Y1560.00
G1 X2709.00 Y1604.00
G1 X2660.00 Y1621.00
G0 X7610.00 Y3290.00
G1 X7553.00 Y3280.00
G1 X7510.00 Y3270.00
G1 X7556.00 Y3260.00
G1 X7640.00 Y3290.00
G1 X7610.00 Y3290.00
M2 ; End of program
