; G-code generated from SVG
G21 ; Set units to mm
G90 ; Absolute positioning
G0 X6000.00 Y8873.00
G1 X5195.00 Y8658.00
G1 X4325.00 Y7795.00
G1 X4183.00 Y7244.00
G1 X4244.00 Y7061.00
G1 X4250.00 Y7009.00
G1 X4210.00 Y6575.00
G1 X4113.00 Y5930.00
G1 X3418.00 Y4719.00
G1 X2750.00 Y4200.00
G1 X2165.00 Y3733.00
G1 X2118.00 Y3690.00
G1 X2040.00 Y3612.00
G1 X2061.00 Y3566.00
G1 X2160.00 Y3565.00
G1 X2177.00 Y3637.00
G1 X2205.00 Y3730.00
G1 X2455.00 Y3967.00
G1 X2850.00 Y4223.00
G1 X4079.00 Y5710.00
G1 X4250.00 Y6680.00
G1 X4279.00 Y6989.00
G1 X4318.00 Y6944.00
G1 X4350.00 Y6820.00
G1 X4401.00 Y6600.00
G1 X4502.00 Y6518.00
G1 X4424.00 Y5878.00
G1 X4359.00 Y5698.00
G1 X4237.00 Y5470.00
G1 X4147.00 Y5303.00
G1 X4161.00 Y5242.00
G1 X4200.00 Y5285.00
G1 X4271.00 Y5466.00
G1 X4358.00 Y5622.00
G1 X4271.00 Y5283.00
G1 X3774.00 Y4430.00
G1 X3490.00 Y4113.00
G1 X3245.00 Y4004.00
G1 X2518.00 Y3589.00
G1 X2359.00 Y3355.00
G1 X2181.00 Y3105.00
G1 X2110.00 Y3088.00
G1 X2005.00 Y3010.00
G1 X2144.00 Y3014.00
G1 X2152.00 Y3045.00
G1 X2212.00 Y3088.00
G1 X2383.00 Y3330.00
G1 X3215.00 Y3955.00
G1 X3410.00 Y4037.00
G1 X3085.00 Y3715.00
G1 X2246.00 Y2750.00
G1 X2152.00 Y2583.00
G1 X2070.00 Y2490.00
G1 X2026.00 Y2371.00
G1 X2120.00 Y2375.00
G1 X2137.00 Y2443.00
G1 X2167.00 Y2546.00
G1 X2272.00 Y2728.00
G1 X2513.00 Y3090.00
G1 X3127.00 Y3707.00
G1 X3422.00 Y3991.00
G1 X3565.00 Y4117.00
G1 X4362.00 Y4850.00
G1 X4704.00 Y5464.00
G1 X4790.00 Y5591.00
G1 X4881.00 Y5704.00
G1 X4911.00 Y5755.00
G1 X4904.00 Y5700.00
G1 X4669.00 Y4927.00
G1 X3382.00 Y3702.00
G1 X3131.00 Y3557.00
G1 X3060.00 Y3505.00
G1 X3137.00 Y3519.00
G1 X3375.00 Y3660.00
G1 X3920.00 Y4022.00
G1 X4665.00 Y4850.00
G1 X4785.00 Y5045.00
G1 X4900.00 Y5223.00
G1 X4957.00 Y5306.00
G1 X4894.00 Y4995.00
G1 X4683.00 Y4460.00
G1 X4423.00 Y4069.00
G1 X4269.00 Y3972.00
G1 X3740.00 Y3732.00
G1 X3265.00 Y3507.00
G1 X3095.00 Y3415.00
G1 X2482.00 Y2987.00
G1 X2581.00 Y3038.00
G1 X3795.00 Y3720.00
G1 X4029.00 Y3816.00
G1 X3950.00 Y3756.00
G1 X3541.00 Y3353.00
G1 X3347.00 Y3170.00
G1 X3105.00 Y3000.00
G1 X2621.00 Y2681.00
G1 X2473.00 Y2619.00
G1 X2382.00 Y2607.00
G1 X2465.00 Y2496.00
G1 X2506.00 Y2568.00
G1 X2591.00 Y2623.00
G1 X3237.00 Y3053.00
G1 X3405.00 Y3170.00
G1 X3370.00 Y3118.00
G1 X3174.00 Y2712.00
G1 X3140.00 Y2615.00
G1 X2991.00 Y2368.00
G1 X2958.00 Y2301.00
G1 X2852.00 Y2255.00
G1 X2723.00 Y2214.00
G1 X2677.00 Y2226.00
G1 X2600.00 Y2156.00
G1 X2682.00 Y2089.00
G1 X2740.00 Y2156.00
G1 X2778.00 Y2191.00
G1 X2883.00 Y2237.00
G1 X2946.00 Y2253.00
G1 X2895.00 Y2037.00
G1 X2874.00 Y1990.00
G1 X2820.00 Y1920.00
G1 X2938.00 Y1873.00
G1 X2939.00 Y1974.00
G1 X2930.00 Y2057.00
G1 X2992.00 Y2277.00
G1 X3135.00 Y2348.00
G1 X3165.00 Y2208.00
G1 X3206.00 Y2059.00
G1 X3217.00 Y2132.00
G1 X3170.00 Y2361.00
G1 X3223.00 Y2396.00
G1 X3537.00 Y2608.00
G1 X3644.00 Y2690.00
G1 X3519.00 Y2269.00
G1 X3441.00 Y2018.00
G1 X3374.00 Y1889.00
G1 X3091.00 Y1618.00
G1 X3100.00 Y1600.00
G1 X3213.00 Y1694.00
G1 X3359.00 Y1830.00
G1 X3403.00 Y1864.00
G1 X3397.00 Y1825.00
G1 X3390.00 Y1713.00
G1 X3376.00 Y1640.00
G1 X3349.00 Y1557.00
G1 X3426.00 Y1506.00
G1 X3455.00 Y1636.00
G1 X3430.00 Y1734.00
G1 X3589.00 Y2027.00
G1 X3941.00 Y2328.00
G1 X3911.00 Y2258.00
G1 X3728.00 Y1280.00
G1 X3713.00 Y1157.00
G1 X3708.00 Y1047.00
G1 X3809.00 Y1056.00
G1 X3798.00 Y1156.00
G1 X3765.00 Y1193.00
G1 X3762.00 Y1384.00
G1 X3815.00 Y1895.00
G1 X3967.00 Y2301.00
G1 X4086.00 Y2449.00
G1 X4800.00 Y3119.00
G1 X5308.00 Y3727.00
G1 X5356.00 Y3805.00
G1 X5271.00 Y3536.00
G1 X5079.00 Y3223.00
G1 X4702.00 Y2866.00
G1 X4324.00 Y2464.00
G1 X4080.00 Y1943.00
G1 X4054.00 Y1870.00
G1 X4000.00 Y1798.00
G1 X4060.00 Y1730.00
G1 X4110.00 Y1745.00
G1 X4140.00 Y1794.00
G1 X4119.00 Y1854.00
G1 X4114.00 Y1948.00
G1 X4577.00 Y2703.00
G1 X4665.00 Y2790.00
G1 X4633.00 Y2693.00
G1 X4545.00 Y2409.00
G1 X4458.00 Y2134.00
G1 X4383.00 Y2022.00
G1 X4340.00 Y1961.00
G1 X4406.00 Y1890.00
G1 X4480.00 Y1951.00
G1 X4465.00 Y1999.00
G1 X4485.00 Y2115.00
G1 X4580.00 Y2412.00
G1 X4681.00 Y2726.00
G1 X4724.00 Y2832.00
G1 X4879.00 Y2975.00
G1 X5100.00 Y3195.00
G1 X5368.00 Y3445.00
G1 X5350.00 Y3358.00
G1 X4999.00 Y2513.00
G1 X4875.00 Y2381.00
G1 X4830.00 Y2281.00
G1 X4957.00 Y2285.00
G1 X4959.00 Y2348.00
G1 X5027.00 Y2490.00
G1 X5355.00 Y3255.00
G1 X5463.00 Y3549.00
G1 X5620.00 Y3688.00
G1 X5854.00 Y3894.00
G1 X5945.00 Y3960.00
G1 X5820.00 Y3610.00
G1 X5417.00 Y2870.00
G1 X4926.00 Y1979.00
G1 X4807.00 Y1431.00
G1 X4778.00 Y1279.00
G1 X4775.00 Y1185.00
G1 X4877.00 Y1186.00
G1 X4896.00 Y1243.00
G1 X4847.00 Y1303.00
G1 X4854.00 Y1625.00
G1 X4940.00 Y1926.00
G1 X5341.00 Y2686.00
G1 X5753.00 Y3380.00
G1 X5855.00 Y3565.00
G1 X6245.00 Y4305.00
G1 X6279.00 Y4376.00
G1 X6338.00 Y4453.00
G1 X6380.00 Y4518.00
G1 X6393.00 Y4538.00
G1 X6284.00 Y3970.00
G1 X5763.00 Y2848.00
G1 X5589.00 Y2633.00
G1 X5320.00 Y2241.00
G1 X5201.00 Y1895.00
G1 X5166.00 Y1790.00
G1 X5120.00 Y1722.00
G1 X5200.00 Y1655.00
G1 X5236.00 Y1777.00
G1 X5212.00 Y1806.00
G1 X5246.00 Y1938.00
G1 X5499.00 Y2465.00
G1 X5690.00 Y2705.00
G1 X6044.00 Y3205.00
G1 X6350.00 Y4128.00
G1 X6461.00 Y4618.00
G1 X6575.00 Y4800.00
G1 X6843.00 Y5290.00
G1 X7192.00 Y5865.00
G1 X7288.00 Y6012.00
G1 X7327.00 Y6053.00
G1 X7253.00 Y5610.00
G1 X6927.00 Y4755.00
G1 X6830.00 Y4555.00
G1 X6717.00 Y4335.00
G1 X6445.00 Y3715.00
G1 X5899.00 Y2620.00
G1 X5579.00 Y1999.00
G1 X5599.00 Y1526.00
G1 X5630.00 Y1378.00
G1 X5610.00 Y1353.00
G1 X5616.00 Y1251.00
G1 X5704.00 Y1251.00
G1 X5700.00 Y1360.00
G1 X5631.00 Y1535.00
G1 X5646.00 Y2119.00
G1 X5870.00 Y2521.00
G1 X6389.00 Y3480.00
G1 X6854.00 Y4533.00
G1 X7118.00 Y5023.00
G1 X7500.00 Y5814.00
G1 X7541.00 Y5930.00
G1 X7615.00 Y5966.00
G1 X7760.00 Y6159.00
G1 X7824.00 Y6253.00
G1 X7874.00 Y6280.00
G1 X7783.00 Y5832.00
G1 X7191.00 Y4740.00
G1 X6829.00 Y4164.00
G1 X6349.00 Y2915.00
G1 X6349.00 Y2384.00
G1 X6346.00 Y2297.00
G1 X6460.00 Y2217.00
G1 X6416.00 Y2332.00
G1 X6366.00 Y2625.00
G1 X6447.00 Y3180.00
G1 X7257.00 Y4780.00
G1 X7646.00 Y5415.00
G1 X7904.00 Y6181.00
G1 X7926.00 Y6308.00
G1 X7970.00 Y6342.00
G1 X8147.00 Y7050.00
G1 X8063.00 Y7515.00
G1 X6965.00 Y8701.00
G1 X6000.00 Y8873.00
G1 X7479.00 Y8327.00
G1 X7953.00 Y7700.00
G1 X8110.00 Y6832.00
G1 X8031.00 Y6475.00
G1 X7926.00 Y6351.00
G1 X7961.00 Y6415.00
G1 X8011.00 Y6510.00
G1 X8031.00 Y6555.00
G1 X8060.00 Y6723.00
G1 X8050.00 Y6750.00
G1 X8040.00 Y6686.00
G1 X8021.00 Y6560.00
G1 X8014.00 Y6783.00
G1 X7992.00 Y7075.00
G1 X7856.00 Y7438.00
G1 X7854.00 Y7413.00
G1 X7945.00 Y7159.00
G1 X7978.00 Y7045.00
G1 X7979.00 Y6574.00
G1 X7947.00 Y6509.00
G1 X7880.00 Y6407.00
G1 X7894.00 Y6430.00
G1 X7926.00 Y6493.00
G1 X7956.00 Y6561.00
G1 X7965.00 Y6790.00
G1 X7930.00 Y7050.00
G1 X7900.00 Y7113.00
G1 X7876.00 Y7230.00
G1 X7865.00 Y7285.00
G1 X7819.00 Y7288.00
G1 X7774.00 Y7291.00
G1 X7760.00 Y7342.00
G1 X7714.00 Y7424.00
G1 X7660.00 Y7561.00
G1 X7640.00 Y7615.00
G1 X7588.00 Y7702.00
G1 X7506.00 Y7804.00
G1 X7250.00 Y8060.00
G1 X7236.00 Y8070.00
G1 X7174.00 Y8117.00
G1 X7375.00 Y7970.00
G1 X7485.00 Y7870.00
G1 X7620.00 Y7695.00
G1 X7746.00 Y7556.00
G1 X7777.00 Y7553.00
G1 X7683.00 Y7638.00
G1 X7664.00 Y7665.00
G1 X7660.00 Y7682.00
G1 X7613.00 Y7760.00
G1 X7540.00 Y7858.00
G1 X7460.00 Y7924.00
G1 X7232.00 Y8120.00
G1 X7210.00 Y8135.00
G1 X7316.00 Y8091.00
G1 X7441.00 Y8015.00
G1 X7540.00 Y7935.00
G1 X7685.00 Y7844.00
G1 X7822.00 Y7737.00
G1 X7960.00 Y7556.00
G1 X7996.00 Y7479.00
G1 X7971.00 Y7562.00
G1 X7855.00 Y7740.00
G1 X7732.00 Y7883.00
G1 X7675.00 Y7940.00
G1 X7600.00 Y8004.00
G1 X7548.00 Y8047.00
G1 X7390.00 Y8139.00
G1 X7248.00 Y8212.00
G1 X7210.00 Y8232.00
G1 X7348.00 Y8203.00
G1 X7426.00 Y8183.00
G1 X7361.00 Y8220.00
G1 X7176.00 Y8309.00
G1 X7419.00 Y8208.00
G1 X7460.00 Y8195.00
G1 X7483.00 Y8186.00
G1 X7544.00 Y8155.00
G1 X7675.00 Y8063.00
G1 X7750.00 Y7994.00
G1 X7683.00 Y8077.00
G1 X7552.00 Y8182.00
G1 X7452.00 Y8246.00
G1 X7407.00 Y8280.00
G1 X7373.00 Y8300.00
G1 X7221.00 Y8361.00
G1 X7095.00 Y8415.00
G1 X7179.00 Y8399.00
G1 X7250.00 Y8375.00
G1 X7325.00 Y8339.00
G1 X7488.00 Y8252.00
G1 X7546.00 Y8222.00
G1 X7494.00 Y8265.00
G1 X7423.00 Y8315.00
G1 X7335.00 Y8351.00
G1 X7254.00 Y8381.00
G1 X7332.00 Y8369.00
G1 X7372.00 Y8361.00
G1 X7346.00 Y8385.00
G1 X7116.00 Y8445.00
G1 X7084.00 Y8457.00
G1 X7179.00 Y8450.00
G1 X7265.00 Y8454.00
G1 X7192.00 Y8470.00
G1 X7107.00 Y8480.00
G1 X7025.00 Y8500.00
G1 X7005.00 Y8513.00
G1 X7160.00 Y8509.00
G1 X7123.00 Y8521.00
G1 X7055.00 Y8530.00
G1 X7080.00 Y8539.00
G1 X7105.00 Y8554.00
G1 X7058.00 Y8559.00
G1 X7008.00 Y8551.00
G1 X7018.00 Y8563.00
G1 X7060.00 Y8583.00
G1 X7043.00 Y8587.00
G1 X6993.00 Y8572.00
G1 X6960.00 Y8566.00
G1 X6993.00 Y8585.00
G1 X7002.00 Y8600.00
G1 X6959.00 Y8589.00
G1 X6927.00 Y8583.00
G1 X6945.00 Y8600.00
G1 X6956.00 Y8618.00
G1 X6914.00 Y8609.00
G1 X6884.00 Y8603.00
G1 X6899.00 Y8620.00
G1 X6920.00 Y8639.00
G1 X6845.00 Y8636.00
G1 X6815.00 Y8629.00
G1 X6838.00 Y8648.00
G1 X6840.00 Y8675.00
G1 X6820.00 Y8679.00
G1 X6788.00 Y8695.00
G1 X6735.00 Y8716.00
G1 X6675.00 Y8704.00
G1 X6655.00 Y8710.00
G1 X6668.00 Y8735.00
G1 X6645.00 Y8720.00
G1 X6575.00 Y8718.00
G1 X6576.00 Y8770.00
G1 X6554.00 Y8740.00
G1 X6533.00 Y8710.00
G1 X6524.00 Y8745.00
G1 X6515.00 Y8780.00
G1 X6500.00 Y8750.00
G1 X6480.00 Y8720.00
G1 X6460.00 Y8755.00
G1 X6450.00 Y8790.00
G1 X6440.00 Y8755.00
G1 X6424.00 Y8720.00
G1 X6413.00 Y8734.00
G1 X6407.00 Y8759.00
G1 X6408.00 Y8770.00
G1 X6414.00 Y8785.00
G1 X6393.00 Y8800.00
G1 X6384.00 Y8759.00
G1 X6378.00 Y8722.00
G1 X6362.00 Y8746.00
G1 X6340.00 Y8790.00
G1 X6320.00 Y8815.00
G1 X6320.00 Y8788.00
G1 X6330.00 Y8755.00
G1 X6340.00 Y8734.00
G1 X6320.00 Y8730.00
G1 X6300.00 Y8765.00
G1 X6280.00 Y8800.00
G1 X6274.00 Y8765.00
G1 X6274.00 Y8720.00
G1 X6259.00 Y8728.00
G1 X6256.00 Y8759.00
G1 X6208.00 Y8810.00
G1 X6217.00 Y8781.00
G1 X6229.00 Y8765.00
G1 X6191.00 Y8786.00
G1 X6153.00 Y8807.00
G1 X6194.00 Y8769.00
G1 X6240.00 Y8730.00
G1 X6197.00 Y8724.00
G1 X6107.00 Y8763.00
G1 X6085.00 Y8755.00
G1 X6061.00 Y8755.00
G1 X5987.00 Y8800.00
G1 X5991.00 Y8782.00
G1 X6077.00 Y8704.00
G1 X6059.00 Y8712.00
G1 X5934.00 Y8790.00
G1 X5956.00 Y8764.00
G1 X6036.00 Y8690.00
G1 X6020.00 Y8700.00
G1 X6011.00 Y8710.00
G1 X5902.00 Y8782.00
G1 X5884.00 Y8790.00
G1 X5930.00 Y8728.00
G1 X5995.00 Y8677.00
G1 X6000.00 Y8662.00
G1 X5890.00 Y8739.00
G1 X5855.00 Y8763.00
G1 X5798.00 Y8770.00
G1 X5775.00 Y8761.00
G1 X5798.00 Y8761.00
G1 X5889.00 Y8716.00
G1 X5852.00 Y8718.00
G1 X5767.00 Y8750.00
G1 X5823.00 Y8705.00
G1 X5862.00 Y8678.00
G1 X5820.00 Y8684.00
G1 X5552.00 Y8702.00
G1 X5616.00 Y8694.00
G1 X5760.00 Y8667.00
G1 X5738.00 Y8665.00
G1 X5461.00 Y8683.00
G1 X5583.00 Y8663.00
G1 X5717.00 Y8655.00
G1 X5708.00 Y8635.00
G1 X5373.00 Y8635.00
G1 X5416.00 Y8629.00
G1 X5734.00 Y8599.00
G1 X5544.00 Y8593.00
G1 X5220.00 Y8564.00
G1 X5283.00 Y8562.00
G1 X5290.00 Y8554.00
G1 X5222.00 Y8520.00
G1 X5085.00 Y8489.00
G1 X5187.00 Y8491.00
G1 X5296.00 Y8538.00
G1 X5406.00 Y8577.00
G1 X5717.00 Y8556.00
G1 X5714.00 Y8532.00
G1 X5509.00 Y8510.00
G1 X5240.00 Y8487.00
G1 X5069.00 Y8461.00
G1 X4996.00 Y8445.00
G1 X4967.00 Y8436.00
G1 X4949.00 Y8407.00
G1 X5115.00 Y8440.00
G1 X5674.00 Y8493.00
G1 X5533.00 Y8471.00
G1 X4975.00 Y8382.00
G1 X4833.00 Y8313.00
G1 X4770.00 Y8265.00
G1 X4750.00 Y8249.00
G1 X4865.00 Y8272.00
G1 X5488.00 Y8394.00
G1 X5674.00 Y8397.00
G1 X5340.00 Y8335.00
G1 X5153.00 Y8307.00
G1 X5092.00 Y8264.00
G1 X4996.00 Y8196.00
G1 X4937.00 Y8157.00
G1 X4918.00 Y8163.00
G1 X4878.00 Y8175.00
G1 X4834.00 Y8115.00
G1 X4924.00 Y8123.00
G1 X5024.00 Y8190.00
G1 X5109.00 Y8253.00
G1 X5246.00 Y8295.00
G1 X5445.00 Y8325.00
G1 X5608.00 Y8346.00
G1 X5680.00 Y8337.00
G1 X5591.00 Y8305.00
G1 X5444.00 Y8275.00
G1 X5250.00 Y8240.00
G1 X5116.00 Y8202.00
G1 X5020.00 Y8145.00
G1 X4768.00 Y7976.00
G1 X4719.00 Y7918.00
G1 X4780.00 Y7951.00
G1 X5039.00 Y8130.00
G1 X5145.00 Y8198.00
G1 X5212.00 Y8220.00
G1 X5252.00 Y8220.00
G1 X5203.00 Y8169.00
G1 X5034.00 Y8060.00
G1 X4970.00 Y8025.00
G1 X5063.00 Y8024.00
G1 X5126.00 Y8074.00
G1 X5201.00 Y8138.00
G1 X5259.00 Y8194.00
G1 X5654.00 Y8288.00
G1 X5633.00 Y8257.00
G1 X5240.00 Y8064.00
G1 X5180.00 Y8025.00
G1 X5122.00 Y8008.00
G1 X5099.00 Y7975.00
G1 X5037.00 Y7923.00
G1 X4996.00 Y7878.00
G1 X4974.00 Y7903.00
G1 X4931.00 Y7940.00
G1 X4867.00 Y7913.00
G1 X4689.00 Y7803.00
G1 X4572.00 Y7682.00
G1 X4543.00 Y7634.00
G1 X4550.00 Y7660.00
G1 X4558.00 Y7686.00
G1 X4485.00 Y7565.00
G1 X4499.00 Y7582.00
G1 X4540.00 Y7627.00
G1 X4510.00 Y7557.00
G1 X4539.00 Y7583.00
G1 X4709.00 Y7786.00
G1 X4851.00 Y7872.00
G1 X4909.00 Y7910.00
G1 X4952.00 Y7885.00
G1 X4995.00 Y7860.00
G1 X5072.00 Y7916.00
G1 X5179.00 Y7992.00
G1 X5279.00 Y8069.00
G1 X5513.00 Y8205.00
G1 X5719.00 Y8230.00
G1 X5721.00 Y8200.00
G1 X5377.00 Y7988.00
G1 X4767.00 Y7225.00
G1 X4711.00 Y7005.00
G1 X4712.00 Y6945.00
G1 X4726.00 Y7027.00
G1 X4766.00 Y7167.00
G1 X4806.00 Y7263.00
G1 X4952.00 Y7510.00
G1 X5041.00 Y7628.00
G1 X5678.00 Y8152.00
G1 X5761.00 Y8192.00
G1 X5781.00 Y8172.00
G1 X5759.00 Y8110.00
G1 X5510.00 Y7932.00
G1 X5457.00 Y7818.00
G1 X5550.00 Y7825.00
G1 X5560.00 Y7865.00
G1 X5501.00 Y7848.00
G1 X5483.00 Y7838.00
G1 X5491.00 Y7876.00
G1 X5735.00 Y8063.00
G1 X5808.00 Y8112.00
G1 X5830.00 Y8120.00
G1 X5842.00 Y8083.00
G1 X5570.00 Y7873.00
G1 X5641.00 Y7914.00
G1 X5893.00 Y8082.00
G1 X5888.00 Y8039.00
G1 X5751.00 Y7946.00
G1 X5568.00 Y7783.00
G1 X5492.00 Y7700.00
G1 X5454.00 Y7731.00
G1 X5383.00 Y7767.00
G1 X5253.00 Y7677.00
G1 X4916.00 Y7152.00
G1 X4890.00 Y7050.00
G1 X4868.00 Y7028.00
G1 X4842.00 Y6912.00
G1 X4886.00 Y6690.00
G1 X4854.00 Y6685.00
G1 X4792.00 Y6917.00
G1 X4891.00 Y7265.00
G1 X5425.00 Y7921.00
G1 X5751.00 Y8140.00
G1 X5770.00 Y8150.00
G1 X5663.00 Y8112.00
G1 X5249.00 Y7800.00
G1 X4817.00 Y7145.00
G1 X4775.00 Y6763.00
G1 X4771.00 Y6744.00
G1 X4744.00 Y6793.00
G1 X4719.00 Y6854.00
G1 X4699.00 Y6940.00
G1 X4698.00 Y6995.00
G1 X4686.00 Y6949.00
G1 X4662.00 Y6916.00
G1 X4640.00 Y6930.00
G1 X4673.00 Y6867.00
G1 X4725.00 Y6767.00
G1 X4705.00 Y6790.00
G1 X4659.00 Y6851.00
G1 X4609.00 Y6918.00
G1 X4609.00 Y7078.00
G1 X4591.00 Y7101.00
G1 X4581.00 Y7004.00
G1 X4631.00 Y6855.00
G1 X4689.00 Y6773.00
G1 X4669.00 Y6750.00
G1 X4554.00 Y7131.00
G1 X4620.00 Y7312.00
G1 X4699.00 Y7450.00
G1 X4787.00 Y7578.00
G1 X4826.00 Y7648.00
G1 X4765.00 Y7669.00
G1 X4778.00 Y7654.00
G1 X4800.00 Y7636.00
G1 X4773.00 Y7630.00
G1 X4738.00 Y7650.00
G1 X4733.00 Y7632.00
G1 X4750.00 Y7603.00
G1 X4570.00 Y7265.00
G1 X4520.00 Y7043.00
G1 X4571.00 Y6805.00
G1 X4602.00 Y6755.00
G1 X4571.00 Y6785.00
G1 X4503.00 Y7018.00
G1 X4474.00 Y7120.00
G1 X4446.00 Y7078.00
G1 X4431.00 Y7050.00
G1 X4700.00 Y7708.00
G1 X4726.00 Y7765.00
G1 X4680.00 Y7746.00
G1 X4420.00 Y7124.00
G1 X4454.00 Y6871.00
G1 X4460.00 Y6845.00
G1 X4427.00 Y6899.00
G1 X4404.00 Y7080.00
G1 X4387.00 Y7212.00
G1 X4375.00 Y7264.00
G1 X4390.00 Y7327.00
G1 X4370.00 Y7300.00
G1 X4335.00 Y7234.00
G1 X4335.00 Y7210.00
G1 X4350.00 Y7124.00
G1 X4341.00 Y7044.00
G1 X4335.00 Y7097.00
G1 X4319.00 Y7100.00
G1 X4313.00 Y7035.00
G1 X4312.00 Y7102.00
G1 X4323.00 Y7173.00
G1 X4313.00 Y7185.00
G1 X4304.00 Y7219.00
G1 X4356.00 Y7354.00
G1 X4543.00 Y7726.00
G1 X4620.00 Y7863.00
G1 X4630.00 Y7880.00
G1 X4640.00 Y7866.00
G1 X4740.00 Y7894.00
G1 X4726.00 Y7897.00
G1 X4684.00 Y7911.00
G1 X4640.00 Y7920.00
G1 X4601.00 Y7857.00
G1 X4410.00 Y7540.00
G1 X4313.00 Y7290.00
G1 X4294.00 Y7257.00
G1 X4280.00 Y7230.00
G1 X4270.00 Y7210.00
G1 X4281.00 Y7285.00
G1 X4310.00 Y7375.00
G1 X4337.00 Y7463.00
G1 X4330.00 Y7480.00
G1 X4330.00 Y7524.00
G1 X4337.00 Y7573.00
G1 X4325.00 Y7558.00
G1 X4308.00 Y7530.00
G1 X4305.00 Y7521.00
G1 X4300.00 Y7505.00
G1 X4305.00 Y7470.00
G1 X4296.00 Y7427.00
G1 X4252.00 Y7212.00
G1 X4241.00 Y7136.00
G1 X4244.00 Y7475.00
G1 X4539.00 Y8065.00
G1 X5020.00 Y8515.00
G1 X5100.00 Y8566.00
G1 X5466.00 Y8728.00
G1 X6491.00 Y8816.00
G1 X6710.00 Y8680.00
G1 X6690.00 Y8683.00
G1 X6697.00 Y8703.00
G1 X6730.00 Y8700.00
G1 X6720.00 Y8668.00
G1 X6747.00 Y8696.00
G1 X6744.00 Y8676.00
G1 X5920.00 Y8661.00
G1 X5895.00 Y8681.00
G1 X5950.00 Y8659.00
G1 X6429.00 Y8643.00
G1 X6460.00 Y8630.00
G1 X6490.00 Y8655.00
G1 X6512.00 Y8680.00
G1 X6522.00 Y8668.00
G1 X6525.00 Y8620.00
G1 X6540.00 Y8645.00
G1 X6553.00 Y8670.00
G1 X6569.00 Y8644.00
G1 X6586.00 Y8610.00
G1 X6594.00 Y8635.00
G1 X6592.00 Y8660.00
G1 X6648.00 Y8635.00
G1 X6711.00 Y8610.00
G1 X6859.00 Y8532.00
G1 X6891.00 Y8502.00
G1 X6867.00 Y8508.00
G1 X6785.00 Y8554.00
G1 X6707.00 Y8574.00
G1 X6702.00 Y8556.00
G1 X6777.00 Y8510.00
G1 X6753.00 Y8531.00
G1 X6720.00 Y8562.00
G1 X6743.00 Y8558.00
G1 X6825.00 Y8509.00
G1 X6890.00 Y8471.00
G1 X6932.00 Y8446.00
G1 X6965.00 Y8419.00
G1 X6977.00 Y8406.00
G1 X7020.00 Y8379.00
G1 X7002.00 Y8380.00
G1 X6954.00 Y8415.00
G1 X6920.00 Y8435.00
G1 X6887.00 Y8455.00
G1 X6851.00 Y8475.00
G1 X6815.00 Y8491.00
G1 X6792.00 Y8489.00
G1 X6840.00 Y8459.00
G1 X6867.00 Y8441.00
G1 X6829.00 Y8450.00
G1 X6810.00 Y8452.00
G1 X6893.00 Y8421.00
G1 X6951.00 Y8390.00
G1 X6994.00 Y8360.00
G1 X7026.00 Y8345.00
G1 X7017.00 Y8340.00
G1 X6967.00 Y8362.00
G1 X6780.00 Y8369.00
G1 X6838.00 Y8359.00
G1 X6867.00 Y8351.00
G1 X6909.00 Y8352.00
G1 X6978.00 Y8339.00
G1 X7016.00 Y8300.00
G1 X6998.00 Y8308.00
G1 X6923.00 Y8347.00
G1 X7028.00 Y8285.00
G1 X7040.00 Y8274.00
G1 X7030.00 Y8265.00
G1 X7040.00 Y8235.00
G1 X7053.00 Y8207.00
G1 X7038.00 Y8214.00
G1 X7015.00 Y8209.00
G1 X6988.00 Y8214.00
G1 X7016.00 Y8170.00
G1 X7033.00 Y8148.00
G1 X7071.00 Y8205.00
G1 X7096.00 Y8267.00
G1 X7059.00 Y8124.00
G1 X6844.00 Y8035.00
G1 X6322.00 Y8051.00
G1 X6065.00 Y8153.00
G1 X5908.00 Y8517.00
G1 X6068.00 Y8617.00
G1 X6210.00 Y8630.00
G1 X6276.00 Y8603.00
G1 X6248.00 Y8626.00
G1 X6227.00 Y8647.00
G1 X6269.00 Y8636.00
G1 X6302.00 Y8640.00
G1 X6140.00 Y8645.00
G1 X6032.00 Y8629.00
G1 X6260.00 Y8679.00
G1 X6306.00 Y8683.00
G1 X6367.00 Y8685.00
G1 X6426.00 Y8670.00
G1 X6470.00 Y8650.00
G1 X6450.00 Y8650.00
G1 X6460.00 Y8683.00
G1 X6480.00 Y8671.00
G1 X5796.00 Y8650.00
G1 X5770.00 Y8660.00
G1 X5789.00 Y8670.00
G1 X5815.00 Y8660.00
G1 X6751.00 Y8646.00
G1 X6755.00 Y8659.00
G1 X6820.00 Y8661.00
G1 X5825.00 Y8625.00
G1 X5759.00 Y8615.00
G1 X5750.00 Y8622.00
G1 X5801.00 Y8637.00
G1 X5863.00 Y8649.00
G1 X5895.00 Y8651.00
G1 X5975.00 Y8626.00
G1 X5960.00 Y8641.00
G1 X5975.00 Y8644.00
G1 X5990.00 Y8629.00
G1 X5928.00 Y8597.00
G1 X5933.00 Y8614.00
G1 X5952.00 Y8623.00
G1 X5947.00 Y8606.00
G1 X5878.00 Y8583.00
G1 X5750.00 Y8565.00
G1 X5725.00 Y8558.00
G1 X5752.00 Y8577.00
G1 X5900.00 Y8590.00
G1 X5898.00 Y8550.00
G1 X5900.00 Y8565.00
G1 X5915.00 Y8561.00
G1 X5860.00 Y8543.00
G1 X5838.00 Y8540.00
G1 X5740.00 Y8530.00
G1 X5785.00 Y8540.00
G1 X5830.00 Y8550.00
G1 X5855.00 Y8560.00
G1 X5880.00 Y8549.00
G1 X5745.00 Y8480.00
G1 X5715.00 Y8469.00
G1 X5771.00 Y8462.00
G1 X5838.00 Y8456.00
G1 X5770.00 Y8445.00
G1 X5700.00 Y8459.00
G1 X5760.00 Y8501.00
G1 X5820.00 Y8510.00
G1 X5870.00 Y8511.00
G1 X6930.00 Y8470.00
G1 X6910.00 Y8486.00
G1 X6930.00 Y8480.00
G1 X6950.00 Y8464.00
G1 X5668.00 Y8430.00
G1 X5225.00 Y8384.00
G1 X4896.00 Y8304.00
G1 X4888.00 Y8316.00
G1 X5176.00 Y8405.00
G1 X5585.00 Y8453.00
G1 X5680.00 Y8445.00
G1 X7008.00 Y8410.00
G1 X6980.00 Y8435.00
G1 X6962.00 Y8460.00
G1 X6990.00 Y8435.00
G1 X5812.00 Y8387.00
G1 X5753.00 Y8375.00
G1 X5690.00 Y8369.00
G1 X5750.00 Y8390.00
G1 X5774.00 Y8414.00
G1 X5744.00 Y8419.00
G1 X5789.00 Y8430.00
G1 X5825.00 Y8408.00
G1 X5690.00 Y8400.00
G1 X5713.00 Y8410.00
G1 X5720.00 Y8400.00
G1 X7098.00 Y8360.00
G1 X7075.00 Y8370.00
G1 X7100.00 Y8370.00
G1 X5760.00 Y8352.00
G1 X5725.00 Y8352.00
G1 X5755.00 Y8360.00
G1 X5810.00 Y8368.00
G1 X5815.00 Y8360.00
G1 X7362.00 Y8286.00
G1 X7460.00 Y8204.00
G1 X7395.00 Y8244.00
G1 X7205.00 Y8326.00
G1 X7121.00 Y8360.00
G1 X7223.00 Y8336.00
G1 X5758.00 Y8307.00
G1 X5700.00 Y8319.00
G1 X5770.00 Y8336.00
G1 X5840.00 Y8328.00
G1 X7069.00 Y8310.00
G1 X7075.00 Y8345.00
G1 X7078.00 Y8312.00
G1 X7076.00 Y8272.00
G1 X4840.00 Y8281.00
G1 X4834.00 Y8284.00
G1 X4869.00 Y8296.00
G1 X5715.00 Y8278.00
G1 X5785.00 Y8299.00
G1 X5785.00 Y8291.00
G1 X5856.00 Y8264.00
G1 X5840.00 Y8245.00
G1 X5828.00 Y8228.00
G1 X5840.00 Y8190.00
G1 X5850.00 Y8208.00
G1 X5886.00 Y8243.00
G1 X5875.00 Y8202.00
G1 X5850.00 Y8175.00
G1 X5804.00 Y8186.00
G1 X5800.00 Y8230.00
G1 X5827.00 Y8257.00
G1 X5786.00 Y8250.00
G1 X5771.00 Y8270.00
G1 X5865.00 Y8280.00
G1 X7155.00 Y8270.00
G1 X7130.00 Y8289.00
G1 X7180.00 Y8270.00
G1 X7185.00 Y8225.00
G1 X7165.00 Y8201.00
G1 X7200.00 Y8170.00
G1 X7122.00 Y8230.00
G1 X7151.00 Y8246.00
G1 X7195.00 Y8228.00
G1 X5900.00 Y8185.00
G1 X5893.00 Y8203.00
G1 X5930.00 Y8210.00
G1 X5990.00 Y8140.00
G1 X5967.00 Y8145.00
G1 X5916.00 Y8139.00
G1 X5884.00 Y8122.00
G1 X5889.00 Y8153.00
G1 X5930.00 Y8180.00
G1 X5977.00 Y8174.00
G1 X7260.00 Y8170.00
G1 X7219.00 Y8180.00
G1 X7234.00 Y8190.00
G1 X7180.00 Y8139.00
G1 X7128.00 Y8161.00
G1 X7120.00 Y8176.00
G1 X7163.00 Y8153.00
G1 X7577.00 Y7991.00
G1 X7666.00 Y7907.00
G1 X7709.00 Y7876.00
G1 X7699.00 Y7860.00
G1 X7569.00 Y7940.00
G1 X7449.00 Y8032.00
G1 X7270.00 Y8160.00
G1 X7417.00 Y8097.00
G1 X4882.00 Y8116.00
G1 X4853.00 Y8144.00
G1 X4890.00 Y8141.00
G1 X5957.00 Y8060.00
G1 X5920.00 Y8104.00
G1 X5964.00 Y8108.00
G1 X5992.00 Y8123.00
G1 X6034.00 Y8143.00
G1 X7213.00 Y8045.00
G1 X7333.00 Y7922.00
G1 X7460.00 Y7805.00
G1 X7581.00 Y7675.00
G1 X7624.00 Y7598.00
G1 X7637.00 Y7564.00
G1 X7567.00 Y7643.00
G1 X7427.00 Y7756.00
G1 X7351.00 Y7824.00
G1 X7185.00 Y8041.00
G1 X7090.00 Y8144.00
G1 X7136.00 Y8113.00
G1 X6076.00 Y8061.00
G1 X6013.00 Y8039.00
G1 X5986.00 Y8051.00
G1 X6015.00 Y8070.00
G1 X6052.00 Y8104.00
G1 X6093.00 Y8107.00
G1 X7306.00 Y7845.00
G1 X7431.00 Y7720.00
G1 X7569.00 Y7588.00
G1 X7613.00 Y7535.00
G1 X7662.00 Y7457.00
G1 X7711.00 Y7380.00
G1 X7739.00 Y7355.00
G1 X7727.00 Y7349.00
G1 X7696.00 Y7358.00
G1 X7808.00 Y7271.00
G1 X7885.00 Y7089.00
G1 X7885.00 Y6998.00
G1 X7856.00 Y7014.00
G1 X7856.00 Y6970.00
G1 X7866.00 Y6763.00
G1 X7841.00 Y6462.00
G1 X7835.00 Y6430.00
G1 X7830.00 Y6403.00
G1 X7824.00 Y6403.00
G1 X7785.00 Y6355.00
G1 X7744.00 Y6290.00
G1 X7781.00 Y6368.00
G1 X7824.00 Y6445.00
G1 X7827.00 Y6696.00
G1 X7821.00 Y7013.00
G1 X7711.00 Y7250.00
G1 X7665.00 Y7320.00
G1 X7640.00 Y7329.00
G1 X7696.00 Y7234.00
G1 X7765.00 Y7126.00
G1 X7800.00 Y7059.00
G1 X7800.00 Y6819.00
G1 X7789.00 Y6580.00
G1 X7784.00 Y6565.00
G1 X7714.00 Y6327.00
G1 X7628.00 Y6210.00
G1 X7632.00 Y6228.00
G1 X7688.00 Y6312.00
G1 X7755.00 Y6817.00
G1 X7734.00 Y7112.00
G1 X7531.00 Y7459.00
G1 X7404.00 Y7660.00
G1 X7322.00 Y7751.00
G1 X7183.00 Y7958.00
G1 X7162.00 Y7992.00
G1 X7118.00 Y8050.00
G1 X7076.00 Y8110.00
G1 X7171.00 Y8018.00
G1 X6145.00 Y8046.00
G1 X6130.00 Y8025.00
G1 X6142.00 Y8016.00
G1 X6146.00 Y8012.00
G1 X6074.00 Y8011.00
G1 X6143.00 Y8079.00
G1 X6160.00 Y8066.00
G1 X7134.00 Y8007.00
G1 X7135.00 Y7991.00
G1 X7075.00 Y8030.00
G1 X7087.00 Y8045.00
G1 X6212.00 Y8027.00
G1 X6210.00 Y7990.00
G1 X6242.00 Y8015.00
G1 X6267.00 Y8040.00
G1 X6259.00 Y8003.00
G1 X6233.00 Y7961.00
G1 X6150.00 Y7990.00
G1 X6165.00 Y8010.00
G1 X6168.00 Y8034.00
G1 X6168.00 Y8042.00
G1 X6198.00 Y8055.00
G1 X6224.00 Y8051.00
G1 X7109.00 Y7972.00
G1 X7068.00 Y7966.00
G1 X7025.00 Y7962.00
G1 X7002.00 Y7997.00
G1 X6988.00 Y8040.00
G1 X7012.00 Y8010.00
G1 X7040.00 Y7980.00
G1 X7025.00 Y8024.00
G1 X7008.00 Y8060.00
G1 X7062.00 Y8016.00
G1 X5928.00 Y8006.00
G1 X5835.00 Y7821.00
G1 X5792.00 Y7757.00
G1 X5742.00 Y7694.00
G1 X5553.00 Y7499.00
G1 X5550.00 Y7422.00
G1 X5620.00 Y7420.00
G1 X5626.00 Y7495.00
G1 X5673.00 Y7564.00
G1 X5756.00 Y7668.00
G1 X5835.00 Y7755.00
G1 X5930.00 Y7845.00
G1 X5991.00 Y7913.00
G1 X6031.00 Y7958.00
G1 X6079.00 Y7981.00
G1 X6076.00 Y7946.00
G1 X6047.00 Y7920.00
G1 X6002.00 Y7858.00
G1 X5857.00 Y7625.00
G1 X5771.00 Y7453.00
G1 X5726.00 Y7368.00
G1 X5462.00 Y7175.00
G1 X5325.00 Y6916.00
G1 X5323.00 Y6590.00
G1 X5335.00 Y6512.00
G1 X5310.00 Y6550.00
G1 X5281.00 Y6625.00
G1 X5281.00 Y6587.00
G1 X5281.00 Y6525.00
G1 X5250.00 Y6760.00
G1 X5260.00 Y6713.00
G1 X5270.00 Y6650.00
G1 X5279.00 Y6708.00
G1 X5258.00 Y6780.00
G1 X5244.00 Y6803.00
G1 X5300.00 Y7043.00
G1 X5357.00 Y7138.00
G1 X5459.00 Y7235.00
G1 X5373.00 Y7181.00
G1 X5255.00 Y6933.00
G1 X5227.00 Y6798.00
G1 X5239.00 Y6577.00
G1 X5234.00 Y6541.00
G1 X5189.00 Y6715.00
G1 X5201.00 Y6964.00
G1 X5229.00 Y7114.00
G1 X5377.00 Y7414.00
G1 X5417.00 Y7463.00
G1 X5460.00 Y7517.00
G1 X5491.00 Y7525.00
G1 X5550.00 Y7611.00
G1 X5395.00 Y7550.00
G1 X5316.00 Y7478.00
G1 X5287.00 Y7457.00
G1 X5219.00 Y7491.00
G1 X5153.00 Y7531.00
G1 X5257.00 Y7645.00
G1 X5378.00 Y7737.00
G1 X5497.00 Y7680.00
G1 X5602.00 Y7776.00
G1 X5882.00 Y7998.00
G1 X5900.00 Y8014.00
G1 X5931.00 Y8050.00
G1 X5946.00 Y8038.00
G1 X5030.00 Y8020.00
G1 X5020.00 Y8030.00
G1 X5030.00 Y8040.00
G1 X5040.00 Y8030.00
G1 X7003.00 Y7961.00
G1 X7003.00 Y7930.00
G1 X6965.00 Y7977.00
G1 X6942.00 Y8032.00
G1 X6949.00 Y8040.00
G1 X6973.00 Y8008.00
G1 X6280.00 Y7950.00
G1 X6283.00 Y7997.00
G1 X6314.00 Y8003.00
G1 X6922.00 Y7968.00
G1 X6890.00 Y8026.00
G1 X6946.00 Y7979.00
G1 X6033.00 Y7999.00
G1 X5998.00 Y7962.00
G1 X5920.00 Y7868.00
G1 X5869.00 Y7810.00
G1 X5860.00 Y7841.00
G1 X5937.00 Y7967.00
G1 X5960.00 Y8005.00
G1 X6006.00 Y8010.00
G1 X6905.00 Y7952.00
G1 X6920.00 Y7915.00
G1 X6866.00 Y7966.00
G1 X6860.00 Y8008.00
G1 X6880.00 Y7988.00
G1 X6341.00 Y7940.00
G1 X6336.00 Y7981.00
G1 X6372.00 Y7969.00
G1 X6415.00 Y7925.00
G1 X6398.00 Y7950.00
G1 X6425.00 Y8000.00
G1 X6438.00 Y7963.00
G1 X6480.00 Y7915.00
G1 X6468.00 Y7950.00
G1 X6477.00 Y7993.00
G1 X6498.00 Y7949.00
G1 X6789.00 Y7900.00
G1 X6770.00 Y7925.00
G1 X6787.00 Y7959.00
G1 X6857.00 Y7908.00
G1 X6805.00 Y7979.00
G1 X6847.00 Y7954.00
G1 X6549.00 Y7909.00
G1 X6514.00 Y7947.00
G1 X6520.00 Y7976.00
G1 X6552.00 Y7955.00
G1 X6595.00 Y7900.00
G1 X6580.00 Y7929.00
G1 X6574.00 Y7974.00
G1 X6583.00 Y7990.00
G1 X6604.00 Y7968.00
G1 X6690.00 Y7940.00
G1 X6700.00 Y7922.00
G1 X6671.00 Y7902.00
G1 X6630.00 Y7968.00
G1 X6670.00 Y7965.00
G1 X6755.00 Y7902.00
G1 X6720.00 Y7929.00
G1 X6705.00 Y7964.00
G1 X6708.00 Y7990.00
G1 X6743.00 Y7948.00
G1 X6090.00 Y7885.00
G1 X6130.00 Y7960.00
G1 X6139.00 Y7931.00
G1 X7258.00 Y7811.00
G1 X7376.00 Y7655.00
G1 X7519.00 Y7420.00
G1 X7593.00 Y7278.00
G1 X7681.00 Y7150.00
G1 X7735.00 Y7065.00
G1 X7734.00 Y6800.00
G1 X7727.00 Y6473.00
G1 X7632.00 Y6260.00
G1 X7531.00 Y6213.00
G1 X7519.00 Y6240.00
G1 X7544.00 Y6256.00
G1 X7514.00 Y6251.00
G1 X7467.00 Y6239.00
G1 X7486.00 Y6260.00
G1 X7603.00 Y6345.00
G1 X7640.00 Y6417.00
G1 X7648.00 Y6445.00
G1 X7649.00 Y6417.00
G1 X7584.00 Y6278.00
G1 X7581.00 Y6246.00
G1 X7660.00 Y6386.00
G1 X7680.00 Y6413.00
G1 X7700.00 Y6440.00
G1 X7680.00 Y6457.00
G1 X7660.00 Y6485.00
G1 X7680.00 Y7017.00
G1 X7590.00 Y7204.00
G1 X7490.00 Y7390.00
G1 X7373.00 Y7607.00
G1 X7230.00 Y7790.00
G1 X7148.00 Y7921.00
G1 X7175.00 Y7929.00
G1 X6197.00 Y7897.00
G1 X6177.00 Y7835.00
G1 X6120.00 Y7611.00
G1 X6049.00 Y7327.00
G1 X6028.00 Y7227.00
G1 X6049.00 Y7199.00
G1 X6070.00 Y7171.00
G1 X6035.00 Y7003.00
G1 X5969.00 Y6690.00
G1 X5907.00 Y6465.00
G1 X5966.00 Y6982.00
G1 X6000.00 Y7138.00
G1 X5975.00 Y7194.00
G1 X5950.00 Y7232.00
G1 X5990.00 Y7383.00
G1 X6144.00 Y7858.00
G1 X6156.00 Y7876.00
G1 X6205.00 Y7930.00
G1 X7200.00 Y7797.00
G1 X7267.00 Y7689.00
G1 X7277.00 Y7660.00
G1 X7180.00 Y7758.00
G1 X7110.00 Y7868.00
G1 X7070.00 Y7930.00
G1 X7127.00 Y7908.00
G1 X6180.00 Y7474.00
G1 X6205.00 Y7425.00
G1 X6237.00 Y7321.00
G1 X6276.00 Y7203.00
G1 X6310.00 Y7135.00
G1 X6266.00 Y6872.00
G1 X6210.00 Y6552.00
G1 X6185.00 Y6473.00
G1 X6154.00 Y6442.00
G1 X6136.00 Y6415.00
G1 X6161.00 Y6431.00
G1 X6234.00 Y6562.00
G1 X6270.00 Y6765.00
G1 X6340.00 Y7145.00
G1 X6309.00 Y7205.00
G1 X6265.00 Y7329.00
G1 X6231.00 Y7436.00
G1 X6220.00 Y7556.00
G1 X6246.00 Y7674.00
G1 X6296.00 Y7840.00
G1 X6315.00 Y7827.00
G1 X6276.00 Y7511.00
G1 X6290.00 Y7438.00
G1 X6351.00 Y7361.00
G1 X6407.00 Y7273.00
G1 X6434.00 Y7251.00
G1 X6416.00 Y7113.00
G1 X6333.00 Y6579.00
G1 X6320.00 Y6553.00
G1 X6244.00 Y6381.00
G1 X6177.00 Y6330.00
G1 X6202.00 Y6383.00
G1 X6273.00 Y6491.00
G1 X6290.00 Y6563.00
G1 X6305.00 Y6580.00
G1 X6320.00 Y6596.00
G1 X6293.00 Y6608.00
G1 X6262.00 Y6581.00
G1 X6271.00 Y6566.00
G1 X6276.00 Y6554.00
G1 X6260.00 Y6505.00
G1 X6184.00 Y6391.00
G1 X6107.00 Y6350.00
G1 X6077.00 Y6350.00
G1 X6104.00 Y6375.00
G1 X6095.00 Y6384.00
G1 X6082.00 Y6400.00
G1 X6058.00 Y6398.00
G1 X5987.00 Y6387.00
G1 X6166.00 Y6490.00
G1 X6180.00 Y6500.00
G1 X6171.00 Y6510.00
G1 X6019.00 Y6440.00
G1 X5930.00 Y6409.00
G1 X5963.00 Y6441.00
G1 X6028.00 Y6492.00
G1 X6110.00 Y6545.00
G1 X6160.00 Y6597.00
G1 X6181.00 Y6754.00
G1 X6221.00 Y6903.00
G1 X6178.00 Y7008.00
G1 X6162.00 Y6892.00
G1 X6175.00 Y6861.00
G1 X6140.00 Y6629.00
G1 X6071.00 Y6545.00
G1 X5987.00 Y6481.00
G1 X5944.00 Y6460.00
G1 X6030.00 Y6863.00
G1 X6105.00 Y7182.00
G1 X6095.00 Y7266.00
G1 X6070.00 Y7314.00
G1 X6119.00 Y7516.00
G1 X6185.00 Y7768.00
G1 X6226.00 Y7840.00
G1 X6250.00 Y7855.00
G1 X6235.00 Y7864.00
G1 X6220.00 Y7883.00
G1 X6274.00 Y7919.00
G1 X6285.00 Y7903.00
G1 X7105.00 Y7835.00
G1 X7160.00 Y7743.00
G1 X7262.00 Y7646.00
G1 X7405.00 Y7540.00
G1 X7464.00 Y7385.00
G1 X7563.00 Y7199.00
G1 X7634.00 Y7106.00
G1 X7663.00 Y6730.00
G1 X7629.00 Y6465.00
G1 X7522.00 Y6293.00
G1 X7461.00 Y6259.00
G1 X7427.00 Y6249.00
G1 X7403.00 Y6248.00
G1 X7383.00 Y6244.00
G1 X7417.00 Y6265.00
G1 X7538.00 Y6387.00
G1 X7586.00 Y6782.00
G1 X7593.00 Y6909.00
G1 X7556.00 Y6954.00
G1 X7418.00 Y7273.00
G1 X7326.00 Y7325.00
G1 X7325.00 Y7260.00
G1 X7368.00 Y6843.00
G1 X7376.00 Y6620.00
G1 X7393.00 Y6649.00
G1 X7392.00 Y6825.00
G1 X7370.00 Y7200.00
G1 X7373.00 Y7250.00
G1 X7399.00 Y7208.00
G1 X7520.00 Y6958.00
G1 X7550.00 Y6605.00
G1 X7467.00 Y6326.00
G1 X7430.00 Y6292.00
G1 X7436.00 Y6318.00
G1 X7465.00 Y6354.00
G1 X7500.00 Y6401.00
G1 X7496.00 Y6420.00
G1 X7476.00 Y6426.00
G1 X7440.00 Y6384.00
G1 X7424.00 Y6324.00
G1 X7402.00 Y6290.00
G1 X7363.00 Y6260.00
G1 X7375.00 Y6290.00
G1 X7400.00 Y6329.00
G1 X7344.00 Y6285.00
G1 X7347.00 Y6319.00
G1 X7388.00 Y6398.00
G1 X7343.00 Y6345.00
G1 X7244.00 Y6222.00
G1 X7278.00 Y6280.00
G1 X7367.00 Y6488.00
G1 X7356.00 Y6530.00
G1 X7338.00 Y6480.00
G1 X7332.00 Y6417.00
G1 X7300.00 Y6368.00
G1 X7290.00 Y6380.00
G1 X7280.00 Y6359.00
G1 X7290.00 Y6345.00
G1 X7260.00 Y6290.00
G1 X7226.00 Y6238.00
G1 X7201.00 Y6222.00
G1 X7170.00 Y6227.00
G1 X7156.00 Y6224.00
G1 X7134.00 Y6212.00
G1 X7169.00 Y6265.00
G1 X7210.00 Y6320.00
G1 X7230.00 Y6372.00
G1 X7235.00 Y6420.00
G1 X7230.00 Y6476.00
G1 X7248.00 Y6600.00
G1 X7274.00 Y6698.00
G1 X7285.00 Y6561.00
G1 X7307.00 Y6558.00
G1 X7326.00 Y6714.00
G1 X7301.00 Y6725.00
G1 X7271.00 Y6732.00
G1 X7254.00 Y6784.00
G1 X7190.00 Y6780.00
G1 X7202.00 Y6695.00
G1 X7233.00 Y6658.00
G1 X7222.00 Y6557.00
G1 X7204.00 Y6426.00
G1 X7208.00 Y6404.00
G1 X7225.00 Y6399.00
G1 X7211.00 Y6383.00
G1 X7196.00 Y6351.00
G1 X7163.00 Y6284.00
G1 X7115.00 Y6225.00
G1 X7074.00 Y6212.00
G1 X7043.00 Y6215.00
G1 X7081.00 Y6275.00
G1 X7126.00 Y6353.00
G1 X7160.00 Y6356.00
G1 X7144.00 Y6329.00
G1 X7073.00 Y6224.00
G1 X7124.00 Y6275.00
G1 X7114.00 Y6374.00
G1 X7094.00 Y6344.00
G1 X7005.00 Y6210.00
G1 X7024.00 Y6258.00
G1 X7069.00 Y6370.00
G1 X7100.00 Y6631.00
G1 X7120.00 Y6653.00
G1 X7124.00 Y6711.00
G1 X7092.00 Y6714.00
G1 X7074.00 Y6624.00
G1 X7025.00 Y6310.00
G1 X6942.00 Y6220.00
G1 X6850.00 Y6249.00
G1 X6880.00 Y6270.00
G1 X6934.00 Y6311.00
G1 X7020.00 Y6590.00
G1 X7066.00 Y7055.00
G1 X7096.00 Y7177.00
G1 X7076.00 Y7280.00
G1 X7048.00 Y7323.00
G1 X6965.00 Y7451.00
G1 X6880.00 Y7537.00
G1 X6788.00 Y7544.00
G1 X6691.00 Y7544.00
G1 X6781.00 Y7520.00
G1 X6964.00 Y7417.00
G1 X7014.00 Y7238.00
G1 X7029.00 Y7191.00
G1 X7045.00 Y7117.00
G1 X6961.00 Y6416.00
G1 X6829.00 Y6279.00
G1 X6772.00 Y6260.00
G1 X6798.00 Y6318.00
G1 X6834.00 Y6405.00
G1 X6846.00 Y6453.00
G1 X6837.00 Y6470.00
G1 X6817.00 Y6429.00
G1 X6783.00 Y6332.00
G1 X6721.00 Y6273.00
G1 X6702.00 Y6293.00
G1 X6730.00 Y6375.00
G1 X6762.00 Y6478.00
G1 X6780.00 Y6540.00
G1 X6729.00 Y6564.00
G1 X6723.00 Y6601.00
G1 X6740.00 Y6760.00
G1 X6755.00 Y6888.00
G1 X6788.00 Y6900.00
G1 X6824.00 Y6977.00
G1 X6830.00 Y7105.00
G1 X6800.00 Y7164.00
G1 X6770.00 Y7215.00
G1 X6794.00 Y7260.00
G1 X6836.00 Y7355.00
G1 X6621.00 Y7424.00
G1 X6496.00 Y7438.00
G1 X6515.00 Y7811.00
G1 X6522.00 Y7878.00
G1 X6564.00 Y7876.00
G1 X6608.00 Y7852.00
G1 X6588.00 Y7832.00
G1 X6585.00 Y7792.00
G1 X6608.00 Y7727.00
G1 X6580.00 Y7642.00
G1 X6601.00 Y7540.00
G1 X6632.00 Y7506.00
G1 X6696.00 Y7466.00
G1 X6776.00 Y7460.00
G1 X6844.00 Y7413.00
G1 X6915.00 Y7336.00
G1 X6952.00 Y7308.00
G1 X6945.00 Y7146.00
G1 X6924.00 Y6785.00
G1 X6906.00 Y6478.00
G1 X6881.00 Y6333.00
G1 X6859.00 Y6295.00
G1 X6889.00 Y6327.00
G1 X6926.00 Y6410.00
G1 X6952.00 Y6460.00
G1 X6942.00 Y6498.00
G1 X6925.00 Y6533.00
G1 X6971.00 Y7202.00
G1 X6973.00 Y7319.00
G1 X6919.00 Y7372.00
G1 X6847.00 Y7453.00
G1 X6782.00 Y7480.00
G1 X6659.00 Y7512.00
G1 X6665.00 Y7557.00
G1 X6652.00 Y7627.00
G1 X6626.00 Y7762.00
G1 X6631.00 Y7864.00
G1 X6735.00 Y7875.00
G1 X6870.00 Y7883.00
G1 X6952.00 Y7888.00
G1 X7012.00 Y7905.00
G1 X7061.00 Y7898.00
G1 X6327.00 Y7852.00
G1 X6310.00 Y7895.00
G1 X6345.00 Y7879.00
G1 X4671.00 Y7880.00
G1 X4660.00 Y7890.00
G1 X4664.00 Y7900.00
G1 X4675.00 Y7890.00
G1 X6494.00 Y7850.00
G1 X6454.00 Y7455.00
G1 X6460.00 Y7425.00
G1 X6728.00 Y7395.00
G1 X6759.00 Y7367.00
G1 X6741.00 Y7285.00
G1 X6693.00 Y7176.00
G1 X6600.00 Y7254.00
G1 X6538.00 Y7355.00
G1 X6501.00 Y7342.00
G1 X6508.00 Y7257.00
G1 X6548.00 Y7256.00
G1 X6570.00 Y7231.00
G1 X6556.00 Y7190.00
G1 X6536.00 Y7078.00
G1 X6527.00 Y6945.00
G1 X6540.00 Y6924.00
G1 X6603.00 Y6915.00
G1 X6650.00 Y6909.00
G1 X6650.00 Y6851.00
G1 X6636.00 Y6744.00
G1 X6615.00 Y6617.00
G1 X6499.00 Y6275.00
G1 X6515.00 Y6333.00
G1 X6540.00 Y6407.00
G1 X6549.00 Y6434.00
G1 X6562.00 Y6534.00
G1 X6561.00 Y6600.00
G1 X6569.00 Y6718.00
G1 X6596.00 Y6780.00
G1 X6618.00 Y6808.00
G1 X6583.00 Y6838.00
G1 X6550.00 Y6770.00
G1 X6545.00 Y6642.00
G1 X6520.00 Y6532.00
G1 X6480.00 Y6445.00
G1 X6402.00 Y6280.00
G1 X6396.00 Y6298.00
G1 X6428.00 Y6390.00
G1 X6467.00 Y6494.00
G1 X6497.00 Y6649.00
G1 X6504.00 Y6837.00
G1 X6478.00 Y6703.00
G1 X6359.00 Y6295.00
G1 X6364.00 Y6352.00
G1 X6427.00 Y6558.00
G1 X6413.00 Y6590.00
G1 X6370.00 Y6546.00
G1 X6305.00 Y6380.00
G1 X6271.00 Y6333.00
G1 X6230.00 Y6323.00
G1 X6256.00 Y6361.00
G1 X6325.00 Y6495.00
G1 X6351.00 Y6565.00
G1 X6414.00 Y6913.00
G1 X6460.00 Y7239.00
G1 X6429.00 Y7286.00
G1 X6360.00 Y7425.00
G1 X6341.00 Y7518.00
G1 X6311.00 Y7547.00
G1 X6327.00 Y7679.00
G1 X6357.00 Y7810.00
G1 X6370.00 Y7848.00
G1 X6399.00 Y7894.00
G1 X6455.00 Y7886.00
G1 X6063.00 Y7724.00
G1 X5954.00 Y7346.00
G1 X5921.00 Y7216.00
G1 X5945.00 Y7184.00
G1 X5939.00 Y6971.00
G1 X5876.00 Y6560.00
G1 X5860.00 Y6425.00
G1 X5807.00 Y6590.00
G1 X5846.00 Y6840.00
G1 X5876.00 Y6896.00
G1 X5843.00 Y6908.00
G1 X5813.00 Y6860.00
G1 X5794.00 Y6721.00
G1 X5805.00 Y6464.00
G1 X5819.00 Y6417.00
G1 X5773.00 Y6424.00
G1 X5722.00 Y6435.00
G1 X5729.00 Y6795.00
G1 X5783.00 Y6969.00
G1 X5795.00 Y6989.00
G1 X5804.00 Y6997.00
G1 X5854.00 Y7019.00
G1 X5857.00 Y7104.00
G1 X5828.00 Y7125.00
G1 X5807.00 Y7099.00
G1 X5727.00 Y7047.00
G1 X5630.00 Y6855.00
G1 X5613.00 Y6625.00
G1 X5626.00 Y6478.00
G1 X5617.00 Y6440.00
G1 X5596.00 Y6458.00
G1 X5577.00 Y6770.00
G1 X5654.00 Y7086.00
G1 X5717.00 Y7126.00
G1 X5725.00 Y7168.00
G1 X5651.00 Y7119.00
G1 X5575.00 Y7004.00
G1 X5556.00 Y6898.00
G1 X5528.00 Y6850.00
G1 X5470.00 Y6808.00
G1 X5522.00 Y6760.00
G1 X5540.00 Y6775.00
G1 X5519.00 Y6790.00
G1 X5528.00 Y6828.00
G1 X5550.00 Y6743.00
G1 X5565.00 Y6555.00
G1 X5567.00 Y6446.00
G1 X5535.00 Y6588.00
G1 X5496.00 Y6742.00
G1 X5456.00 Y6738.00
G1 X5455.00 Y6800.00
G1 X5521.00 Y7092.00
G1 X5732.00 Y7252.00
G1 X5764.00 Y7335.00
G1 X5752.00 Y7360.00
G1 X5805.00 Y7468.00
G1 X5874.00 Y7610.00
G1 X5960.00 Y7740.00
G1 X6033.00 Y7863.00
G1 X6093.00 Y7869.00
G1 X4694.00 Y7720.00
G1 X4690.00 Y7735.00
G1 X4706.00 Y7750.00
G1 X4710.00 Y7735.00
G1 X6595.00 Y7574.00
G1 X6590.00 Y7600.00
G1 X6640.00 Y7606.00
G1 X5507.00 Y7552.00
G1 X5490.00 Y7595.00
G1 X5525.00 Y7579.00
G1 X5335.00 Y7440.00
G1 X5380.00 Y7505.00
G1 X5452.00 Y7556.00
G1 X5408.00 Y7491.00
G1 X5245.00 Y7449.00
G1 X5336.00 Y7409.00
G1 X5287.00 Y7282.00
G1 X5225.00 Y7163.00
G1 X4992.00 Y7255.00
G1 X5140.00 Y7500.00
G1 X5156.00 Y7491.00
G1 X6321.00 Y7450.00
G1 X6294.00 Y7485.00
G1 X6328.00 Y7488.00
G1 X5605.00 Y7431.00
G1 X5575.00 Y7431.00
G1 X5590.00 Y7480.00
G1 X5614.00 Y7463.00
G1 X4274.00 Y7343.00
G1 X4291.00 Y7380.00
G1 X4290.00 Y7359.00
G1 X6800.00 Y7290.00
G1 X6780.00 Y7320.00
G1 X6814.00 Y7334.00
G1 X5608.00 Y7196.00
G1 X5481.00 Y7056.00
G1 X5440.00 Y6890.00
G1 X5428.00 Y6751.00
G1 X5465.00 Y6584.00
G1 X5467.00 Y6469.00
G1 X5420.00 Y6674.00
G1 X5404.00 Y6772.00
G1 X5369.00 Y6780.00
G1 X5350.00 Y6710.00
G1 X5365.00 Y6636.00
G1 X5378.00 Y6548.00
G1 X5376.00 Y6500.00
G1 X5341.00 Y6611.00
G1 X5324.00 Y6793.00
G1 X5394.00 Y7084.00
G1 X5622.00 Y7264.00
G1 X5696.00 Y7322.00
G1 X5730.00 Y7318.00
G1 X6535.00 Y7280.00
G1 X6510.00 Y7298.00
G1 X6517.00 Y7323.00
G1 X6542.00 Y7330.00
G1 X6560.00 Y7305.00
G1 X7373.00 Y7272.00
G1 X7342.00 Y7293.00
G1 X7367.00 Y7308.00
G1 X7398.00 Y7287.00
G1 X6060.00 Y7220.00
G1 X6077.00 Y7245.00
G1 X6090.00 Y7213.00
G1 X7040.00 Y7218.00
G1 X7047.00 Y7243.00
G1 X7072.00 Y7250.00
G1 X7088.00 Y7228.00
G1 X5057.00 Y7195.00
G1 X5022.00 Y7089.00
G1 X4985.00 Y6985.00
G1 X4985.00 Y6812.00
G1 X4978.00 Y6640.00
G1 X4947.00 Y6857.00
G1 X4926.00 Y6990.00
G1 X4899.00 Y6988.00
G1 X4900.00 Y6734.00
G1 X4883.00 Y6726.00
G1 X4862.00 Y6873.00
G1 X4878.00 Y7010.00
G1 X4920.00 Y7097.00
G1 X5021.00 Y7209.00
G1 X4381.00 Y7038.00
G1 X4370.00 Y6965.00
G1 X4373.00 Y7197.00
G1 X4384.00 Y7172.00
G1 X4283.00 Y7130.00
G1 X4287.00 Y7158.00
G1 X4287.00 Y7103.00
G1 X5129.00 Y7128.00
G1 X5119.00 Y6900.00
G1 X5134.00 Y6987.00
G1 X5168.00 Y7150.00
G1 X5188.00 Y7142.00
G1 X5170.00 Y6908.00
G1 X5186.00 Y6588.00
G1 X5177.00 Y6570.00
G1 X5140.00 Y6744.00
G1 X5113.00 Y6786.00
G1 X5147.00 Y6591.00
G1 X5142.00 Y6574.00
G1 X5101.00 Y6715.00
G1 X5080.00 Y6765.00
G1 X5060.00 Y6710.00
G1 X5054.00 Y6655.00
G1 X5048.00 Y6710.00
G1 X5039.00 Y6775.00
G1 X5045.00 Y6843.00
G1 X5036.00 Y6900.00
G1 X5020.00 Y6818.00
G1 X5050.00 Y6640.00
G1 X5059.00 Y6622.00
G1 X5031.00 Y6629.00
G1 X5002.00 Y6776.00
G1 X5029.00 Y7024.00
G1 X5120.00 Y7170.00
G1 X6804.00 Y7112.00
G1 X6802.00 Y7018.00
G1 X6792.00 Y6932.00
G1 X6674.00 Y6933.00
G1 X6565.00 Y6946.00
G1 X6566.00 Y7038.00
G1 X6658.00 Y7156.00
G1 X6770.00 Y7141.00
G1 X4479.00 Y6945.00
G1 X4487.00 Y6985.00
G1 X4489.00 Y6935.00
G1 X4505.00 Y6845.00
G1 X4495.00 Y6837.00
G1 X4462.00 Y6903.00
G1 X4454.00 Y7003.00
G1 X4460.00 Y7093.00
G1 X4469.00 Y7106.00
G1 X4474.00 Y7003.00
G1 X5820.00 Y7020.00
G1 X5807.00 Y7038.00
G1 X5850.00 Y7075.00
G1 X5769.00 Y6994.00
G1 X5739.00 Y6959.00
G1 X5697.00 Y6670.00
G1 X5683.00 Y6653.00
G1 X5640.00 Y6661.00
G1 X5659.00 Y6645.00
G1 X5696.00 Y6496.00
G1 X5703.00 Y6428.00
G1 X5679.00 Y6435.00
G1 X5653.00 Y6444.00
G1 X5638.00 Y6561.00
G1 X5643.00 Y6795.00
G1 X5730.00 Y7028.00
G1 X5790.00 Y7032.00
G1 X4332.00 Y7010.00
G1 X4337.00 Y7023.00
G1 X4337.00 Y6998.00
G1 X7930.00 Y6990.00
G1 X7920.00 Y7011.00
G1 X7930.00 Y7025.00
G1 X7940.00 Y7004.00
G1 X4936.00 Y6720.00
G1 X4932.00 Y6665.00
G1 X4900.00 Y6938.00
G1 X4924.00 Y6878.00
G1 X6184.00 Y6920.00
G1 X6170.00 Y6950.00
G1 X6204.00 Y6972.00
G1 X7942.00 Y6580.00
G1 X7920.00 Y6519.00
G1 X7890.00 Y6450.00
G1 X7857.00 Y6390.00
G1 X7826.00 Y6335.00
G1 X7854.00 Y6405.00
G1 X7929.00 Y6626.00
G1 X7923.00 Y6630.00
G1 X7910.00 Y6595.00
G1 X7886.00 Y6505.00
G1 X7866.00 Y6460.00
G1 X7855.00 Y6455.00
G1 X7868.00 Y6515.00
G1 X7883.00 Y6569.00
G1 X7896.00 Y6769.00
G1 X7899.00 Y6963.00
G1 X7919.00 Y6970.00
G1 X7945.00 Y6783.00
G1 X6709.00 Y6658.00
G1 X6684.00 Y6521.00
G1 X6630.00 Y6453.00
G1 X6564.00 Y6270.00
G1 X6560.00 Y6300.00
G1 X6605.00 Y6453.00
G1 X6667.00 Y6828.00
G1 X6702.00 Y6900.00
G1 X6726.00 Y6853.00
G1 X5840.00 Y6875.00
G1 X5830.00 Y6879.00
G1 X5840.00 Y6890.00
G1 X5850.00 Y6886.00
G1 X6580.00 Y6805.00
G1 X6570.00 Y6814.00
G1 X6580.00 Y6830.00
G1 X6590.00 Y6821.00
G1 X4390.00 Y6770.00
G1 X4380.00 Y6780.00
G1 X4390.00 Y6790.00
G1 X4400.00 Y6780.00
G1 X5426.00 Y6511.00
G1 X5419.00 Y6482.00
G1 X5402.00 Y6511.00
G1 X5379.00 Y6642.00
G1 X5382.00 Y6762.00
G1 X5405.00 Y6649.00
G1 X7232.00 Y6708.00
G1 X7204.00 Y6757.00
G1 X7238.00 Y6741.00
G1 X5090.00 Y6597.00
G1 X5074.00 Y6687.00
G1 X5095.00 Y6648.00
G1 X4390.00 Y6735.00
G1 X4380.00 Y6739.00
G1 X4390.00 Y6750.00
G1 X4400.00 Y6746.00
G1 X4390.00 Y6705.00
G1 X4427.00 Y6750.00
G1 X4418.00 Y6725.00
G1 X5526.00 Y6536.00
G1 X5519.00 Y6467.00
G1 X5470.00 Y6703.00
G1 X5503.00 Y6669.00
G1 X4412.00 Y6665.00
G1 X4452.00 Y6730.00
G1 X4451.00 Y6713.00
G1 X4450.00 Y6655.00
G1 X4440.00 Y6639.00
G1 X4452.00 Y6636.00
G1 X4456.00 Y6632.00
G1 X4459.00 Y6620.00
G1 X4486.00 Y6665.00
G1 X4511.00 Y6710.00
G1 X4495.00 Y6650.00
G1 X4491.00 Y6577.00
G1 X4542.00 Y6637.00
G1 X4576.00 Y6697.00
G1 X4555.00 Y6635.00
G1 X4544.00 Y6580.00
G1 X4575.00 Y6641.00
G1 X4597.00 Y6690.00
G1 X4574.00 Y6605.00
G1 X4560.00 Y6570.00
G1 X4576.00 Y6580.00
G1 X4590.00 Y6605.00
G1 X4588.00 Y6580.00
G1 X4513.00 Y6559.00
G1 X4447.00 Y6605.00
G1 X4419.00 Y6640.00
G1 X4439.00 Y6662.00
G1 X4466.00 Y6702.00
G1 X4481.00 Y6720.00
G1 X4475.00 Y6691.00
G1 X4496.00 Y6590.00
G1 X4509.00 Y6644.00
G1 X4525.00 Y6634.00
G1 X4620.00 Y6565.00
G1 X4631.00 Y6603.00
G1 X4640.00 Y6655.00
G1 X4645.00 Y6635.00
G1 X4649.00 Y6615.00
G1 X4659.00 Y6620.00
G1 X4648.00 Y6592.00
G1 X4673.00 Y6594.00
G1 X4690.00 Y6626.00
G1 X4700.00 Y6660.00
G1 X4703.00 Y6641.00
G1 X4708.00 Y6614.00
G1 X4721.00 Y6648.00
G1 X4729.00 Y6645.00
G1 X4736.00 Y6615.00
G1 X4747.00 Y6648.00
G1 X4780.00 Y6668.00
G1 X4800.00 Y6641.00
G1 X4780.00 Y6651.00
G1 X4760.00 Y6660.00
G1 X4772.00 Y6632.00
G1 X4773.00 Y6620.00
G1 X4757.00 Y6633.00
G1 X4751.00 Y6629.00
G1 X4725.00 Y6606.00
G1 X4664.00 Y6575.00
G1 X4600.00 Y6581.00
G1 X4628.00 Y6692.00
G1 X4621.00 Y6635.00
G1 X4671.00 Y6625.00
G1 X4686.00 Y6687.00
G1 X4681.00 Y6644.00
G1 X4718.00 Y6683.00
G1 X4730.00 Y6688.00
G1 X4743.00 Y6683.00
G1 X7106.00 Y6670.00
G1 X7095.00 Y6680.00
G1 X7099.00 Y6690.00
G1 X7110.00 Y6680.00
G1 X4980.00 Y6446.00
G1 X4890.00 Y6615.00
G1 X4953.00 Y6533.00
G1 X4915.00 Y6480.00
G1 X4900.00 Y6489.00
G1 X4865.00 Y6549.00
G1 X4830.00 Y6607.00
G1 X4916.00 Y6508.00
G1 X4877.00 Y6413.00
G1 X4823.00 Y6437.00
G1 X4776.00 Y6553.00
G1 X4835.00 Y6519.00
G1 X4726.00 Y5608.00
G1 X4514.00 Y5153.00
G1 X3880.00 Y4374.00
G1 X3882.00 Y4403.00
G1 X4489.00 Y5510.00
G1 X4590.00 Y5940.00
G1 X4635.00 Y6090.00
G1 X4713.00 Y6508.00
G1 X4793.00 Y6425.00
G1 X7769.00 Y6382.00
G1 X7730.00 Y6292.00
G1 X7710.00 Y6260.00
G1 X7726.00 Y6320.00
G1 X7800.00 Y6537.00
G1 X7809.00 Y6560.00
G1 X7813.00 Y6513.00
G1 X7915.00 Y6390.00
G1 X7925.00 Y6425.00
G1 X7972.00 Y6522.00
G1 X8000.00 Y6549.00
G1 X4636.00 Y6178.00
G1 X4625.00 Y6205.00
G1 X4636.00 Y6400.00
G1 X4673.00 Y6550.00
G1 X4680.00 Y6451.00
G1 X5055.00 Y6450.00
G1 X5040.00 Y6465.00
G1 X5029.00 Y6550.00
G1 X5043.00 Y6513.00
G1 X5085.00 Y6434.00
G1 X5063.00 Y6550.00
G1 X5092.00 Y6473.00
G1 X6300.00 Y6300.00
G1 X6306.00 Y6351.00
G1 X6375.00 Y6493.00
G1 X6403.00 Y6547.00
G1 X6413.00 Y6534.00
G1 X6740.00 Y6480.00
G1 X6700.00 Y6352.00
G1 X6663.00 Y6273.00
G1 X6649.00 Y6294.00
G1 X6685.00 Y6392.00
G1 X6754.00 Y6542.00
G1 X5155.00 Y6426.00
G1 X5170.00 Y6399.00
G1 X5150.00 Y6395.00
G1 X5105.00 Y6540.00
G1 X5125.00 Y6486.00
G1 X4589.00 Y6207.00
G1 X4546.00 Y5985.00
G1 X4490.00 Y5890.00
G1 X4463.00 Y5856.00
G1 X4484.00 Y6036.00
G1 X4526.00 Y6363.00
G1 X4544.00 Y6520.00
G1 X4572.00 Y6520.00
G1 X4600.00 Y6450.00
G1 X5143.00 Y6477.00
G1 X5150.00 Y6505.00
G1 X5170.00 Y6468.00
G1 X6484.00 Y6308.00
G1 X6455.00 Y6280.00
G1 X6464.00 Y6338.00
G1 X6506.00 Y6458.00
G1 X6537.00 Y6520.00
G1 X6550.00 Y6513.00
G1 X6644.00 Y6328.00
G1 X6614.00 Y6270.00
G1 X6620.00 Y6333.00
G1 X6647.00 Y6438.00
G1 X6664.00 Y6492.00
G1 X6675.00 Y6429.00
G1 X5210.00 Y6394.00
G1 X5200.00 Y6366.00
G1 X5188.00 Y6486.00
G1 X5200.00 Y6450.00
G1 X5267.00 Y6314.00
G1 X5225.00 Y6423.00
G1 X5239.00 Y6453.00
G1 X5305.00 Y6356.00
G1 X5316.00 Y6252.00
G1 X5281.00 Y6351.00
G1 X5280.00 Y6470.00
G1 X5290.00 Y6463.00
G1 X5356.00 Y6202.00
G1 X5325.00 Y6351.00
G1 X5349.00 Y6316.00
G1 X5408.00 Y6168.00
G1 X5414.00 Y6295.00
G1 X5420.00 Y6430.00
G1 X5438.00 Y6266.00
G1 X5456.00 Y6328.00
G1 X5480.00 Y6374.00
G1 X5454.00 Y6141.00
G1 X5438.00 Y6146.00
G1 X5412.00 Y6156.00
G1 X5372.00 Y6287.00
G1 X5364.00 Y6412.00
G1 X5366.00 Y6442.00
G1 X5395.00 Y6292.00
G1 X4966.00 Y6095.00
G1 X4894.00 Y5782.00
G1 X4782.00 Y5629.00
G1 X4829.00 Y5779.00
G1 X4904.00 Y6165.00
G1 X4920.00 Y6440.00
G1 X4939.00 Y6402.00
G1 X5076.00 Y6208.00
G1 X5049.00 Y6053.00
G1 X4995.00 Y6119.00
G1 X4978.00 Y6354.00
G1 X4961.00 Y6412.00
G1 X4992.00 Y6406.00
G1 X5036.00 Y6389.00
G1 X5491.00 Y6122.00
G1 X5484.00 Y6186.00
G1 X5497.00 Y6333.00
G1 X5511.00 Y6410.00
G1 X5519.00 Y6323.00
G1 X7465.00 Y6380.00
G1 X7456.00 Y6403.00
G1 X7480.00 Y6389.00
G1 X5541.00 Y6122.00
G1 X5534.00 Y6236.00
G1 X5560.00 Y6393.00
G1 X5562.00 Y6256.00
G1 X5583.00 Y6133.00
G1 X5575.00 Y6172.00
G1 X5586.00 Y6303.00
G1 X5606.00 Y6390.00
G1 X5614.00 Y6313.00
G1 X5649.00 Y6216.00
G1 X5640.00 Y6186.00
G1 X5617.00 Y6147.00
G1 X5647.00 Y6370.00
G1 X5663.00 Y6288.00
G1 X5666.00 Y6178.00
G1 X5681.00 Y6285.00
G1 X5691.00 Y6380.00
G1 X5697.00 Y6281.00
G1 X5688.00 Y6168.00
G1 X5738.00 Y6204.00
G1 X5751.00 Y6278.00
G1 X5759.00 Y6365.00
G1 X5773.00 Y6355.00
G1 X5779.00 Y6269.00
G1 X5752.00 Y6199.00
G1 X5720.00 Y6183.00
G1 X5719.00 Y6282.00
G1 X5730.00 Y6360.00
G1 X5732.00 Y6266.00
G1 X7744.00 Y6260.00
G1 X7706.00 Y6225.00
G1 X7746.00 Y6270.00
G1 X7799.00 Y6348.00
G1 X7817.00 Y6376.00
G1 X7802.00 Y6333.00
G1 X5126.00 Y6201.00
G1 X5105.00 Y6257.00
G1 X5088.00 Y6350.00
G1 X5091.00 Y6363.00
G1 X5121.00 Y6298.00
G1 X5833.00 Y6335.00
G1 X5838.00 Y6309.00
G1 X5824.00 Y6236.00
G1 X5790.00 Y6299.00
G1 X5810.00 Y6308.00
G1 X5823.00 Y6270.00
G1 X5870.00 Y6260.00
G1 X5860.00 Y6313.00
G1 X5870.00 Y6350.00
G1 X5880.00 Y6298.00
G1 X7851.00 Y6337.00
G1 X7869.00 Y6354.00
G1 X7856.00 Y6332.00
G1 X5900.00 Y6260.00
G1 X5891.00 Y6308.00
G1 X5900.00 Y6335.00
G1 X5909.00 Y6288.00
G1 X5931.00 Y6260.00
G1 X5936.00 Y6350.00
G1 X5940.00 Y6298.00
G1 X5290.00 Y6243.00
G1 X5293.00 Y6226.00
G1 X5206.00 Y6340.00
G1 X5236.00 Y6315.00
G1 X5998.00 Y6285.00
G1 X5993.00 Y6258.00
G1 X5974.00 Y6270.00
G1 X5961.00 Y6308.00
G1 X5962.00 Y6345.00
G1 X5972.00 Y6310.00
G1 X5990.00 Y6300.00
G1 X5330.00 Y6143.00
G1 X5318.00 Y6031.00
G1 X5303.00 Y5924.00
G1 X5260.00 Y6042.00
G1 X5150.00 Y6297.00
G1 X5130.00 Y6322.00
G1 X5252.00 Y6219.00
G1 X6031.00 Y6236.00
G1 X6018.00 Y6320.00
G1 X6034.00 Y6289.00
G1 X6058.00 Y6215.00
G1 X6054.00 Y6239.00
G1 X6060.00 Y6291.00
G1 X6071.00 Y6310.00
G1 X6076.00 Y6268.00
G1 X6081.00 Y6190.00
G1 X6084.00 Y6234.00
G1 X6110.00 Y6249.00
G1 X6139.00 Y6214.00
G1 X6150.00 Y6240.00
G1 X6162.00 Y6266.00
G1 X6167.00 Y6249.00
G1 X6160.00 Y6203.00
G1 X6127.00 Y6193.00
G1 X6121.00 Y6238.00
G1 X6135.00 Y6239.00
G1 X6188.00 Y6140.00
G1 X6204.00 Y6184.00
G1 X6225.00 Y6246.00
G1 X6215.00 Y6168.00
G1 X6195.00 Y6092.00
G1 X6242.00 Y6200.00
G1 X6268.00 Y6248.00
G1 X6257.00 Y6198.00
G1 X6224.00 Y6063.00
G1 X6245.00 Y6110.00
G1 X6276.00 Y6189.00
G1 X6290.00 Y6233.00
G1 X6300.00 Y6245.00
G1 X6297.00 Y6182.00
G1 X6271.00 Y6122.00
G1 X6244.00 Y6055.00
G1 X6197.00 Y6066.00
G1 X6165.00 Y6140.00
G1 X6201.00 Y6264.00
G1 X6201.00 Y6237.00
G1 X5961.00 Y6244.00
G1 X5966.00 Y6257.00
G1 X5967.00 Y6238.00
G1 X6333.00 Y6131.00
G1 X6315.00 Y6052.00
G1 X6263.00 Y6009.00
G1 X6242.00 Y6027.00
G1 X6271.00 Y6086.00
G1 X6310.00 Y6148.00
G1 X6320.00 Y6170.00
G1 X6352.00 Y6240.00
G1 X6355.00 Y6208.00
G1 X5815.00 Y5730.00
G1 X5710.00 Y5460.00
G1 X5700.00 Y5574.00
G1 X5705.00 Y5719.00
G1 X5734.00 Y5855.00
G1 X5842.00 Y6217.00
G1 X5878.00 Y6139.00
G1 X6354.00 Y6052.00
G1 X6316.00 Y5981.00
G1 X6325.00 Y6024.00
G1 X6334.00 Y6071.00
G1 X6337.00 Y6093.00
G1 X6366.00 Y6170.00
G1 X6385.00 Y6235.00
G1 X6388.00 Y6181.00
G1 X6376.00 Y6111.00
G1 X6400.00 Y6201.00
G1 X6407.00 Y6224.00
G1 X6418.00 Y6220.00
G1 X6411.00 Y6197.00
G1 X6385.00 Y6036.00
G1 X6380.00 Y6012.00
G1 X6455.00 Y6145.00
G1 X6470.00 Y6210.00
G1 X6445.00 Y6054.00
G1 X6357.00 Y5980.00
G1 X6387.00 Y6085.00
G1 X6414.00 Y6152.00
G1 X6445.00 Y6230.00
G1 X6444.00 Y6183.00
G1 X5945.00 Y5900.00
G1 X5776.00 Y5303.00
G1 X5720.00 Y5146.00
G1 X5697.00 Y5137.00
G1 X5753.00 Y5480.00
G1 X5912.00 Y6112.00
G1 X5913.00 Y6217.00
G1 X5943.00 Y6206.00
G1 X5973.00 Y6195.00
G1 X5966.00 Y6090.00
G1 X6493.00 Y6100.00
G1 X6509.00 Y6194.00
G1 X6516.00 Y6156.00
G1 X6519.00 Y6090.00
G1 X6544.00 Y6184.00
G1 X6559.00 Y6164.00
G1 X6619.00 Y6130.00
G1 X6621.00 Y6189.00
G1 X6633.00 Y6172.00
G1 X6716.00 Y6177.00
G1 X6725.00 Y6225.00
G1 X6728.00 Y6176.00
G1 X6726.00 Y6122.00
G1 X6564.00 Y6122.00
G1 X6567.00 Y6142.00
G1 X6584.00 Y6183.00
G1 X6600.00 Y6182.00
G1 X6746.00 Y6082.00
G1 X6749.00 Y6178.00
G1 X6760.00 Y6205.00
G1 X6765.00 Y6117.00
G1 X5214.00 Y6076.00
G1 X5277.00 Y5816.00
G1 X5038.00 Y5475.00
G1 X5062.00 Y5685.00
G1 X5099.00 Y5966.00
G1 X5139.00 Y6159.00
G1 X5180.00 Y6179.00
G1 X5740.00 Y6015.00
G1 X5701.00 Y5885.00
G1 X5694.00 Y5910.00
G1 X5761.00 Y6176.00
G1 X5779.00 Y6142.00
G1 X5936.00 Y5375.00
G1 X5800.00 Y5016.00
G1 X5762.00 Y5046.00
G1 X5770.00 Y4991.00
G1 X5732.00 Y4850.00
G1 X5580.00 Y4686.00
G1 X5632.00 Y4795.00
G1 X5745.00 Y5128.00
G1 X5776.00 Y5218.00
G1 X5935.00 Y5715.00
G1 X5992.00 Y6078.00
G1 X6012.00 Y6172.00
G1 X6037.00 Y6058.00
G1 X6651.00 Y6174.00
G1 X6656.00 Y6187.00
G1 X6657.00 Y6168.00
G1 X6794.00 Y6079.00
G1 X6772.00 Y6005.00
G1 X6765.00 Y6010.00
G1 X6783.00 Y6113.00
G1 X6803.00 Y6190.00
G1 X6807.00 Y6161.00
G1 X6815.00 Y6012.00
G1 X6840.00 Y6074.00
G1 X6877.00 Y6176.00
G1 X6811.00 Y5960.00
G1 X6787.00 Y5992.00
G1 X6810.00 Y6080.00
G1 X6846.00 Y6188.00
G1 X6830.00 Y6100.00
G1 X6154.00 Y6157.00
G1 X6160.00 Y6147.00
G1 X6120.00 Y6155.00
G1 X6133.00 Y6165.00
G1 X6681.00 Y6146.00
G1 X6687.00 Y6173.00
G1 X6691.00 Y6149.00
G1 X6930.00 Y6137.00
G1 X6939.00 Y6155.00
G1 X6906.00 Y5964.00
G1 X6900.00 Y5931.00
G1 X6920.00 Y5955.00
G1 X6908.00 Y5927.00
G1 X6833.00 Y5926.00
G1 X6829.00 Y5959.00
G1 X6855.00 Y6011.00
G1 X6891.00 Y6058.00
G1 X6900.00 Y6068.00
G1 X6890.00 Y6085.00
G1 X6893.00 Y6139.00
G1 X6905.00 Y6174.00
G1 X6908.00 Y6142.00
G1 X6921.00 Y6110.00
G1 X7356.00 Y6155.00
G1 X7367.00 Y6166.00
G1 X7361.00 Y6143.00
G1 X7378.00 Y6058.00
G1 X7384.00 Y6064.00
G1 X7396.00 Y6077.00
G1 X7400.00 Y6121.00
G1 X7404.00 Y6110.00
G1 X7409.00 Y6090.00
G1 X7422.00 Y6140.00
G1 X7427.00 Y6131.00
G1 X7411.00 Y6066.00
G1 X7441.00 Y6117.00
G1 X7447.00 Y6157.00
G1 X7458.00 Y6159.00
G1 X7451.00 Y6119.00
G1 X6956.00 Y5968.00
G1 X6936.00 Y5918.00
G1 X6919.00 Y5895.00
G1 X6925.00 Y5920.00
G1 X6950.00 Y6050.00
G1 X6967.00 Y6140.00
G1 X6971.00 Y6060.00
G1 X7244.00 Y6093.00
G1 X7252.00 Y6138.00
G1 X7257.00 Y6131.00
G1 X7249.00 Y6086.00
G1 X7291.00 Y6144.00
G1 X7296.00 Y6157.00
G1 X7297.00 Y6138.00
G1 X7441.00 Y6017.00
G1 X7455.00 Y6084.00
G1 X7480.00 Y6158.00
G1 X7490.00 Y6154.00
G1 X7476.00 Y6086.00
G1 X5364.00 Y5934.00
G1 X5333.00 Y5894.00
G1 X5339.00 Y5956.00
G1 X5352.00 Y6082.00
G1 X5372.00 Y6133.00
G1 X5390.00 Y6048.00
G1 X6979.00 Y5966.00
G1 X6985.00 Y6060.00
G1 X7000.00 Y6148.00
G1 X7010.00 Y6150.00
G1 X7020.00 Y6143.00
G1 X7025.00 Y6005.00
G1 X7034.00 Y6005.00
G1 X7059.00 Y6060.00
G1 X7088.00 Y6107.00
G1 X7016.00 Y5961.00
G1 X6980.00 Y5914.00
G1 X6965.00 Y5896.00
G1 X6961.00 Y5913.00
G1 X6992.00 Y5956.00
G1 X7008.00 Y5986.00
G1 X7024.00 Y6074.00
G1 X7050.00 Y6139.00
G1 X7045.00 Y6075.00
G1 X7222.00 Y6070.00
G1 X7218.00 Y6110.00
G1 X7226.00 Y6150.00
G1 X7230.00 Y6110.00
G1 X7272.00 Y6130.00
G1 X7277.00 Y6143.00
G1 X7277.00 Y6118.00
G1 X7375.00 Y6112.00
G1 X7376.00 Y6134.00
G1 X7387.00 Y6146.00
G1 X7386.00 Y6124.00
G1 X7493.00 Y6034.00
G1 X7519.00 Y6082.00
G1 X7539.00 Y6115.00
G1 X7525.00 Y6066.00
G1 X7520.00 Y6030.00
G1 X7531.00 Y6015.00
G1 X7540.00 Y6035.00
G1 X7547.00 Y6085.00
G1 X7548.00 Y6038.00
G1 X7525.00 Y5990.00
G1 X7504.00 Y5983.00
G1 X7495.00 Y5995.00
G1 X7489.00 Y6002.00
G1 X7458.00 Y5990.00
G1 X7518.00 Y6140.00
G1 X7505.00 Y6084.00
G1 X7062.00 Y5971.00
G1 X6998.00 Y5910.00
G1 X7042.00 Y5969.00
G1 X7104.00 Y6071.00
G1 X7136.00 Y6138.00
G1 X7127.00 Y6084.00
G1 X7140.00 Y6050.00
G1 X7141.00 Y6083.00
G1 X7156.00 Y6128.00
G1 X7164.00 Y6113.00
G1 X7179.00 Y6105.00
G1 X7185.00 Y6145.00
G1 X7188.00 Y6106.00
G1 X7186.00 Y6062.00
G1 X5667.00 Y5695.00
G1 X5673.00 Y5395.00
G1 X5614.00 Y5292.00
G1 X5546.00 Y5190.00
G1 X5632.00 Y6010.00
G1 X5686.00 Y6130.00
G1 X5695.00 Y6113.00
G1 X6093.00 Y6066.00
G1 X6105.00 Y6095.00
G1 X6136.00 Y6046.00
G1 X7202.00 Y6110.00
G1 X7207.00 Y6123.00
G1 X7207.00 Y6098.00
G1 X7672.00 Y6100.00
G1 X7677.00 Y6113.00
G1 X7677.00 Y6088.00
G1 X5496.00 Y6090.00
G1 X5517.00 Y6062.00
G1 X5496.00 Y5640.00
G1 X5489.00 Y5092.00
G1 X5243.00 Y4780.00
G1 X5291.00 Y5052.00
G1 X5409.00 Y5795.00
G1 X5450.00 Y6025.00
G1 X5470.00 Y6064.00
G1 X5460.00 Y6070.00
G1 X5450.00 Y6083.00
G1 X5460.00 Y6110.00
G1 X5470.00 Y6100.00
G1 X5540.00 Y5634.00
G1 X5530.00 Y5600.00
G1 X5531.00 Y5937.00
G1 X5582.00 Y6098.00
G1 X5617.00 Y6088.00
G1 X6563.00 Y6001.00
G1 X6493.00 Y5903.00
G1 X6487.00 Y5925.00
G1 X6597.00 Y6100.00
G1 X6620.00 Y6090.00
G1 X6736.00 Y6063.00
G1 X6726.00 Y6064.00
G1 X6720.00 Y6100.00
G1 X6730.00 Y6091.00
G1 X7565.00 Y6030.00
G1 X7577.00 Y6070.00
G1 X7571.00 Y6010.00
G1 X7590.00 Y6053.00
G1 X7595.00 Y6105.00
G1 X7598.00 Y6061.00
G1 X7593.00 Y6009.00
G1 X7613.00 Y6065.00
G1 X7617.00 Y6088.00
G1 X7617.00 Y6048.00
G1 X7632.00 Y6070.00
G1 X7637.00 Y6088.00
G1 X7637.00 Y6053.00
G1 X7652.00 Y6075.00
G1 X7657.00 Y6093.00
G1 X7657.00 Y6063.00
G1 X6720.00 Y5991.00
G1 X6662.00 Y5916.00
G1 X6419.00 Y5611.00
G1 X6456.00 Y5770.00
G1 X6667.00 Y6090.00
G1 X6695.00 Y6041.00
G1 X7400.00 Y6027.00
G1 X7436.00 Y6070.00
G1 X7427.00 Y6045.00
G1 X7169.00 Y5885.00
G1 X7041.00 Y5690.00
G1 X6914.00 Y5492.00
G1 X7015.00 Y5736.00
G1 X7242.00 Y6045.00
G1 X7264.00 Y6028.00
G1 X6132.00 Y6015.00
G1 X6140.00 Y6035.00
G1 X6158.00 Y6045.00
G1 X6150.00 Y6025.00
G1 X6435.00 Y5874.00
G1 X6398.00 Y5676.00
G1 X6326.00 Y5513.00
G1 X6274.00 Y5463.00
G1 X6345.00 Y5897.00
G1 X6398.00 Y5961.00
G1 X6455.00 Y6017.00
G1 X6470.00 Y6007.00
G1 X6100.00 Y6000.00
G1 X6100.00 Y6021.00
G1 X6120.00 Y5986.00
G1 X5013.00 Y5580.00
G1 X4947.00 Y5350.00
G1 X4794.00 Y5122.00
G1 X4819.00 Y5211.00
G1 X4940.00 Y5712.00
G1 X4995.00 Y5897.00
G1 X5046.00 Y5986.00
G1 X5066.00 Y6030.00
G1 X5065.00 Y5973.00
G1 X6140.00 Y5988.00
G1 X6172.00 Y6020.00
G1 X6170.00 Y6000.00
G1 X7351.00 Y5790.00
G1 X7357.00 Y5873.00
G1 X7376.00 Y5988.00
G1 X7387.00 Y5943.00
G1 X6086.00 Y5673.00
G1 X6035.00 Y5250.00
G1 X5904.00 Y4743.00
G1 X5694.00 Y4512.00
G1 X5723.00 Y4602.00
G1 X5810.00 Y4878.00
G1 X5849.00 Y4983.00
G1 X5959.00 Y5325.00
G1 X6066.00 Y5918.00
G1 X6073.00 Y5991.00
G1 X6091.00 Y5963.00
G1 X6110.00 Y5868.00
G1 X6196.00 Y5758.00
G1 X6075.00 Y5232.00
G1 X6105.00 Y5611.00
G1 X6150.00 Y5906.00
G1 X6188.00 Y5973.00
G1 X6230.00 Y5940.00
G1 X6265.00 Y5667.00
G1 X6108.00 Y5100.00
G1 X6084.00 Y5148.00
G1 X6235.00 Y5790.00
G1 X6301.00 Y5962.00
G1 X6325.00 Y5936.00
G1 X7007.00 Y5785.00
G1 X6833.00 Y5365.00
G1 X6606.00 Y4902.00
G1 X6570.00 Y4880.00
G1 X6792.00 Y5490.00
G1 X6922.00 Y5813.00
G1 X6994.00 Y5875.00
G1 X7074.00 Y5939.00
G1 X7098.00 Y5948.00
G1 X6697.00 Y5705.00
G1 X6578.00 Y5585.00
G1 X6407.00 Y5402.00
G1 X6353.00 Y5347.00
G1 X6422.00 Y5565.00
G1 X6502.00 Y5661.00
G1 X6631.00 Y5821.00
G1 X6719.00 Y5938.00
G1 X6722.00 Y5833.00
G1 X7445.00 Y5920.00
G1 X7430.00 Y5934.00
G1 X7445.00 Y5960.00
G1 X7460.00 Y5946.00
G1 X4299.00 Y5071.00
G1 X4053.00 Y4645.00
G1 X3653.00 Y4234.00
G1 X3711.00 Y4307.00
G1 X4318.00 Y5325.00
G1 X4425.00 Y5746.00
G1 X4466.00 Y5811.00
G1 X4523.00 Y5897.00
G1 X4546.00 Y5937.00
G1 X4539.00 Y5860.00
G1 X6792.00 Y5898.00
G1 X6821.00 Y5899.00
G1 X6805.00 Y5837.00
G1 X6756.00 Y5810.00
G1 X6770.00 Y5908.00
G1 X6781.00 Y5934.00
G1 X6786.00 Y5907.00
G1 X5259.00 Y5060.00
G1 X5213.00 Y4817.00
G1 X5207.00 Y4739.00
G1 X5127.00 Y4637.00
G1 X4865.00 Y4354.00
G1 X4595.00 Y4127.00
G1 X4504.00 Y4080.00
G1 X4658.00 Y4263.00
G1 X5221.00 Y5134.00
G1 X5307.00 Y5660.00
G1 X5330.00 Y5845.00
G1 X5365.00 Y5898.00
G1 X5386.00 Y5928.00
G1 X5375.00 Y5779.00
G1 X7318.00 Y5425.00
G1 X7110.00 Y5065.00
G1 X7181.00 Y5295.00
G1 X7280.00 Y5585.00
G1 X7370.00 Y5775.00
G1 X7478.00 Y5874.00
G1 X7460.00 Y5783.00
G1 X6745.00 Y5455.00
G1 X6575.00 Y4979.00
G1 X6509.00 Y4807.00
G1 X6404.00 Y4599.00
G1 X6333.00 Y4504.00
G1 X6350.00 Y4560.00
G1 X6395.00 Y4715.00
G1 X6621.00 Y5405.00
G1 X6696.00 Y5615.00
G1 X6764.00 Y5741.00
G1 X6833.00 Y5823.00
G1 X6896.00 Y5870.00
G1 X6920.00 Y5870.00
G1 X6896.00 Y5833.00
G1 X4867.00 Y4542.00
G1 X4644.00 Y4303.00
G1 X4700.00 Y4423.00
G1 X4881.00 Y4839.00
G1 X5001.00 Y5322.00
G1 X5121.00 Y5537.00
G1 X5253.00 Y5719.00
G1 X5278.00 Y5731.00
G1 X5271.00 Y5574.00
G1 X6452.00 Y5030.00
G1 X6375.00 Y4770.00
G1 X6241.00 Y4374.00
G1 X6027.00 Y4131.00
G1 X6024.00 Y4145.00
G1 X6065.00 Y4356.00
G1 X6277.00 Y5153.00
G1 X6539.00 Y5501.00
G1 X6668.00 Y5635.00
G1 X6661.00 Y5609.00
G1 X5968.00 Y4642.00
G1 X5934.00 Y4621.00
G1 X5965.00 Y4727.00
G1 X6027.00 Y4877.00
G1 X6240.00 Y5376.00
G1 X6274.00 Y5428.00
G1 X6317.00 Y5464.00
G1 X6343.00 Y5458.00
G1 X5667.00 Y5127.00
G1 X5623.00 Y4860.00
G1 X5504.00 Y4612.00
G1 X5510.00 Y4773.00
G1 X5555.00 Y4985.00
G1 X5628.00 Y5203.00
G1 X5578.00 Y5109.00
G1 X5531.00 Y4995.00
G1 X5530.00 Y5051.00
G1 X5592.00 Y5203.00
G1 X5651.00 Y5266.00
G1 X5448.00 Y4845.00
G1 X5271.00 Y4580.00
G1 X5231.00 Y4535.00
G1 X5230.00 Y4636.00
G1 X5243.00 Y4743.00
G1 X5471.00 Y5014.00
G1 X5497.00 Y5050.00
G1 X5498.00 Y4988.00
G1 X6001.00 Y4197.00
G1 X5937.00 Y4012.00
G1 X5844.00 Y3930.00
G1 X5684.00 Y3790.00
G1 X5533.00 Y3656.00
G1 X5480.00 Y3619.00
G1 X5649.00 Y3963.00
G1 X5843.00 Y4367.00
G1 X5907.00 Y4488.00
G1 X6045.00 Y4713.00
G1 X6148.00 Y4885.00
G1 X6141.00 Y4858.00
G1 X5539.00 Y4366.00
G1 X5477.00 Y4308.00
G1 X5483.00 Y4376.00
G1 X5490.00 Y4494.00
G1 X5593.00 Y4649.00
G1 X5730.00 Y4802.00
G1 X5767.00 Y4846.00
G1 X5734.00 Y4729.00
G1 X5467.00 Y4545.00
G1 X5408.00 Y4495.00
G1 X5216.00 Y4351.00
G1 X5220.00 Y4423.00
G1 X5273.00 Y4538.00
G1 X5453.00 Y4787.00
G1 X5475.00 Y4827.00
G1 X5472.00 Y4685.00
G1 X5011.00 Y4343.00
G1 X4765.00 Y4202.00
G1 X4821.00 Y4260.00
G1 X5159.00 Y4626.00
G1 X5195.00 Y4677.00
G1 X5198.00 Y4593.00
G1 X5201.00 Y4508.00
G1 X5134.00 Y4447.00
G1 X5631.00 Y4000.00
G1 X5460.00 Y3655.00
G1 X5336.00 Y3478.00
G1 X5247.00 Y3400.00
G1 X5259.00 Y3433.00
G1 X5415.00 Y3939.00
G1 X5497.00 Y4163.00
G1 X5609.00 Y4371.00
G1 X5664.00 Y4435.00
G1 X5806.00 Y4571.00
G1 X5906.00 Y4680.00
G1 X5879.00 Y4571.00
G1 X5444.00 Y4360.00
G1 X5437.00 Y4285.00
G1 X5366.00 Y4211.00
G1 X5124.00 Y3993.00
G1 X5150.00 Y4100.00
G1 X5185.00 Y4252.00
G1 X5268.00 Y4349.00
G1 X5395.00 Y4445.00
G1 X5453.00 Y4490.00
G1 X5456.00 Y4463.00
G1 X5087.00 Y3992.00
G1 X4999.00 Y3891.00
G1 X4580.00 Y3610.00
G1 X3937.00 Y3146.00
G1 X3785.00 Y2957.00
G1 X3710.00 Y2855.00
G1 X3730.00 Y2970.00
G1 X3905.00 Y3425.00
G1 X4156.00 Y3664.00
G1 X4566.00 Y4005.00
G1 X4766.00 Y4164.00
G1 X5159.00 Y4424.00
G1 X5174.00 Y4363.00
G1 X5461.00 Y4155.00
G1 X5462.00 Y4198.00
G1 X5507.00 Y4296.00
G1 X5556.00 Y4348.00
G1 X5510.00 Y4250.00
G1 X5894.00 Y3693.00
G1 X5919.00 Y3771.00
G1 X5990.00 Y4021.00
G1 X6007.00 Y4051.00
G1 X6092.00 Y4148.00
G1 X6170.00 Y4230.00
G1 X6124.00 Y4108.00
G1 X5335.00 Y4003.00
G1 X5153.00 Y3800.00
G1 X5031.00 Y3675.00
G1 X5060.00 Y3775.00
G1 X5095.00 Y3901.00
G1 X5167.00 Y3982.00
G1 X5325.00 Y4122.00
G1 X5415.00 Y4208.00
G1 X5422.00 Y4166.00
G1 X5412.00 Y4103.00
G1 X4146.00 Y3700.00
G1 X4281.00 Y3848.00
G1 X4514.00 Y4047.00
G1 X4608.00 Y4100.00
G1 X4603.00 Y4086.00
G1 X5203.00 Y3611.00
G1 X5105.00 Y3480.00
G1 X4325.00 Y2705.00
G1 X4151.00 Y2550.00
G1 X4154.00 Y2614.00
G1 X4630.00 Y3092.00
G1 X4964.00 Y3532.00
G1 X5135.00 Y3735.00
G1 X5334.00 Y3948.00
G1 X5390.00 Y4010.00
G1 X5384.00 Y3963.00
G1 X4206.00 Y3822.00
G1 X4047.00 Y3651.00
G1 X3705.00 Y3402.00
G1 X3562.00 Y3316.00
G1 X3724.00 Y3506.00
G1 X4184.00 Y3874.00
G1 X4308.00 Y3950.00
G1 X4324.00 Y3939.00
G1 X4855.00 Y3527.00
G1 X4420.00 Y3255.00
G1 X3804.00 Y2862.00
G1 X3753.00 Y2834.00
G1 X3859.00 Y3002.00
G1 X4604.00 Y3584.00
G1 X5015.00 Y3864.00
G1 X5046.00 Y3848.00
G1 X2094.00 Y3581.00
G1 X2087.00 Y3643.00
G1 X2138.00 Y3637.00
G1 X4475.00 Y2995.00
G1 X4045.00 Y2505.00
G1 X3888.00 Y2329.00
G1 X3626.00 Y2103.00
G1 X3468.00 Y1970.00
G1 X3517.00 Y2155.00
G1 X3664.00 Y2625.00
G1 X3850.00 Y2849.00
G1 X4315.00 Y3155.00
G1 X4921.00 Y3543.00
G1 X4927.00 Y3542.00
G1 X4891.00 Y3454.00
G1 X3595.00 Y3140.00
G1 X3311.00 Y2840.00
G1 X3234.00 Y2779.00
G1 X3493.00 Y3224.00
G1 X3872.00 Y3460.00
G1 X3874.00 Y3448.00
G1 X3680.00 Y2865.00
G1 X3664.00 Y2768.00
G1 X3328.00 Y2497.00
G1 X3223.00 Y2436.00
G1 X3170.00 Y2410.00
G1 X3170.00 Y2482.00
G1 X3268.00 Y2737.00
G1 X3511.00 Y3006.00
G1 X3797.00 Y3300.00
G1 X3770.00 Y3238.00
G1 X2062.00 Y2996.00
G1 X2055.00 Y3053.00
G1 X2106.00 Y3038.00
G1 X2446.00 Y2524.00
G1 X2400.00 Y2565.00
G1 X2435.00 Y2598.00
G1 X2458.00 Y2562.00
G1 X3135.00 Y2386.00
G1 X3075.00 Y2359.00
G1 X3011.00 Y2335.00
G1 X3136.00 Y2550.00
G1 X3136.00 Y2468.00
G1 X2051.00 Y2396.00
G1 X2046.00 Y2444.00
G1 X2100.00 Y2441.00
G1 X4891.00 Y2282.00
G1 X4864.00 Y2336.00
G1 X4920.00 Y2331.00
G1 X6410.00 Y2220.00
G1 X6376.00 Y2274.00
G1 X6435.00 Y2279.00
G1 X2664.00 Y2122.00
G1 X2675.00 Y2190.00
G1 X2700.00 Y2168.00
G1 X4401.00 Y1932.00
G1 X4407.00 Y1990.00
G1 X4435.00 Y1974.00
G1 X2922.00 Y1905.00
G1 X2876.00 Y1886.00
G1 X2896.00 Y1960.00
G1 X2920.00 Y1945.00
G1 X4100.00 Y1780.00
G1 X4044.00 Y1816.00
G1 X4104.00 Y1807.00
G1 X5220.00 Y1705.00
G1 X5162.00 Y1702.00
G1 X5166.00 Y1744.00
G1 X5215.00 Y1740.00
G1 X3415.00 Y1545.00
G1 X3387.00 Y1561.00
G1 X3415.00 Y1610.00
G1 X3447.00 Y1594.00
G1 X5660.00 Y1275.00
G1 X5632.00 Y1293.00
G1 X5662.00 Y1338.00
G1 X5685.00 Y1305.00
G1 X4806.00 Y1203.00
G1 X4803.00 Y1264.00
G1 X4855.00 Y1241.00
G1 X3774.00 Y1069.00
G1 X3742.00 Y1067.00
G1 X3736.00 Y1127.00
G1 X3774.00 Y1134.00
G0 X6100.00 Y8802.00
G1 X6177.00 Y8733.00
G1 X6150.00 Y8775.00
G1 X6100.00 Y8802.00
G0 X6616.00 Y8744.00
G1 X6625.00 Y8720.00
G1 X6631.00 Y8760.00
G1 X6616.00 Y8744.00
G0 X5428.00 Y8663.00
G1 X5447.00 Y8664.00
G1 X5434.00 Y8669.00
G1 X5428.00 Y8663.00
G0 X5280.00 Y8621.00
G1 X5245.00 Y8602.00
G1 X5283.00 Y8603.00
G1 X5320.00 Y8612.00
G1 X5338.00 Y8620.00
G1 X5340.00 Y8630.00
G1 X5280.00 Y8621.00
G0 X5140.00 Y8545.00
G1 X5178.00 Y8527.00
G1 X5165.00 Y8552.00
G1 X5140.00 Y8545.00
G0 X5095.00 Y8530.00
G1 X5120.00 Y8530.00
G1 X5118.00 Y8540.00
G1 X5095.00 Y8530.00
G0 X4750.00 Y8170.00
G1 X4760.00 Y8160.00
G1 X4770.00 Y8170.00
G1 X4760.00 Y8180.00
G1 X4750.00 Y8170.00
G0 X4635.00 Y8141.00
G1 X4640.00 Y8125.00
G1 X4650.00 Y8134.00
G1 X4635.00 Y8141.00
G0 X7564.00 Y8118.00
G1 X7596.00 Y8073.00
G1 X7613.00 Y8031.00
G1 X7647.00 Y7978.00
G1 X7660.00 Y7993.00
G1 X7656.00 Y8033.00
G1 X7615.00 Y8083.00
G1 X7564.00 Y8118.00
G0 X4590.00 Y8062.00
G1 X4569.00 Y8024.00
G1 X4481.00 Y7880.00
G1 X4424.00 Y7740.00
G1 X4410.00 Y7716.00
G1 X4471.00 Y7807.00
G1 X4511.00 Y7876.00
G1 X4511.00 Y7889.00
G1 X4521.00 Y7921.00
G1 X4565.00 Y7991.00
G1 X4604.00 Y8049.00
G1 X4605.00 Y8080.00
G1 X4590.00 Y8062.00
G0 X7678.00 Y8005.00
G1 X7746.00 Y7930.00
G1 X7785.00 Y7905.00
G1 X7747.00 Y7950.00
G1 X7697.00 Y7995.00
G1 X7678.00 Y8005.00
G0 X4584.00 Y7943.00
G1 X4520.00 Y7840.00
G1 X4445.00 Y7717.00
G1 X4400.00 Y7685.00
G1 X4357.00 Y7652.00
G1 X4356.00 Y7597.00
G1 X4355.00 Y7540.00
G1 X4380.00 Y7551.00
G1 X4565.00 Y7875.00
G1 X4603.00 Y7928.00
G1 X4620.00 Y7958.00
G1 X4584.00 Y7943.00
G1 X4375.00 Y7621.00
G1 X4391.00 Y7660.00
G1 X4400.00 Y7653.00
G0 X5110.00 Y7867.00
G1 X5124.00 Y7841.00
G1 X5150.00 Y7849.00
G1 X5151.00 Y7870.00
G1 X5126.00 Y7876.00
G1 X5110.00 Y7867.00
G0 X7812.00 Y7858.00
G1 X7840.00 Y7848.00
G1 X7824.00 Y7864.00
G1 X7812.00 Y7858.00
G0 X4420.00 Y7825.00
G1 X4424.00 Y7810.00
G1 X4440.00 Y7825.00
G1 X4436.00 Y7840.00
G1 X4420.00 Y7825.00
G0 X7674.00 Y7816.00
G1 X7714.00 Y7750.00
G1 X7767.00 Y7708.00
G1 X7849.00 Y7637.00
G1 X7941.00 Y7506.00
G1 X7982.00 Y7436.00
G1 X8032.00 Y7363.00
G1 X8056.00 Y7320.00
G1 X8044.00 Y7358.00
G1 X8017.00 Y7422.00
G1 X7989.00 Y7453.00
G1 X7946.00 Y7528.00
G1 X7815.00 Y7694.00
G1 X7758.00 Y7761.00
G1 X7735.00 Y7784.00
G1 X7718.00 Y7802.00
G1 X7674.00 Y7816.00
G0 X7877.00 Y7786.00
G1 X7898.00 Y7765.00
G1 X7867.00 Y7810.00
G1 X7877.00 Y7786.00
G0 X4856.00 Y7781.00
G1 X4842.00 Y7723.00
G1 X4877.00 Y7682.00
G1 X4930.00 Y7780.00
G1 X4856.00 Y7781.00
G1 X4888.00 Y7702.00
G1 X4870.00 Y7728.00
G1 X4877.00 Y7764.00
G1 X4905.00 Y7734.00
G0 X4387.00 Y7784.00
G1 X4380.00 Y7761.00
G1 X4391.00 Y7757.00
G1 X4398.00 Y7780.00
G1 X4387.00 Y7784.00
G0 X7685.00 Y7690.00
G1 X7692.00 Y7680.00
G1 X7775.00 Y7599.00
G1 X7802.00 Y7556.00
G1 X7858.00 Y7481.00
G1 X8036.00 Y6946.00
G1 X8061.00 Y6919.00
G1 X8065.00 Y6946.00
G1 X8050.00 Y6980.00
G1 X8065.00 Y7020.00
G1 X8080.00 Y7029.00
G1 X8059.00 Y7033.00
G1 X8042.00 Y7051.00
G1 X8058.00 Y7072.00
G1 X8070.00 Y7086.00
G1 X8055.00 Y7090.00
G1 X8005.00 Y7200.00
G1 X7801.00 Y7594.00
G1 X7780.00 Y7626.00
G1 X7705.00 Y7700.00
G1 X7685.00 Y7690.00
G0 X7826.00 Y7608.00
G1 X7920.00 Y7462.00
G1 X7959.00 Y7390.00
G1 X8021.00 Y7262.00
G1 X8066.00 Y7183.00
G1 X7968.00 Y7411.00
G1 X7930.00 Y7482.00
G1 X7831.00 Y7630.00
G1 X7826.00 Y7608.00
G0 X4837.00 Y7508.00
G1 X4695.00 Y7288.00
G1 X4691.00 Y7263.00
G1 X4706.00 Y7243.00
G1 X4700.00 Y7224.00
G1 X4687.00 Y7220.00
G1 X4661.00 Y7246.00
G1 X4649.00 Y7198.00
G1 X4669.00 Y7055.00
G1 X4677.00 Y6975.00
G1 X4679.00 Y7071.00
G1 X4710.00 Y7193.00
G1 X4740.00 Y7251.00
G1 X4886.00 Y7518.00
G1 X4897.00 Y7544.00
G1 X4837.00 Y7508.00
G0 X4455.00 Y7483.00
G1 X4425.00 Y7385.00
G1 X4405.00 Y7245.00
G1 X4428.00 Y7325.00
G1 X4470.00 Y7400.00
G1 X4494.00 Y7406.00
G1 X4471.00 Y7422.00
G1 X4457.00 Y7452.00
G1 X4475.00 Y7540.00
G1 X4455.00 Y7483.00
G0 X4515.00 Y7323.00
G1 X4480.00 Y7208.00
G1 X4470.00 Y7145.00
G1 X4505.00 Y7233.00
G1 X4536.00 Y7317.00
G1 X4543.00 Y7336.00
G1 X4549.00 Y7350.00
G1 X4560.00 Y7340.00
G1 X4570.00 Y7330.00
G1 X4564.00 Y7374.00
G1 X4515.00 Y7323.00
G0 X8046.00 Y7141.00
G1 X8055.00 Y7120.00
G1 X8070.00 Y7123.00
G1 X8046.00 Y7141.00
G0 X4632.00 Y7074.00
G1 X4624.00 Y7004.00
G1 X4629.00 Y6966.00
G1 X4637.00 Y7036.00
G1 X4632.00 Y7074.00
G0 X8040.00 Y6861.00
G1 X8055.00 Y6847.00
G1 X8052.00 Y6878.00
G1 X8040.00 Y6861.00
G0 X8042.00 Y6798.00
G1 X8070.00 Y6794.00
G1 X8054.00 Y6810.00
G1 X8042.00 Y6798.00
G0 X6325.00 Y8660.00
G1 X6295.00 Y8654.00
G1 X6320.00 Y8645.00
G1 X6357.00 Y8638.00
G1 X6375.00 Y8630.00
G1 X6400.00 Y8639.00
G1 X6325.00 Y8660.00
G0 X6613.00 Y8615.00
G1 X6648.00 Y8609.00
G1 X6637.00 Y8617.00
G1 X6616.00 Y8623.00
G1 X6613.00 Y8615.00
G0 X6125.00 Y8609.00
G1 X6051.00 Y8595.00
G1 X5910.00 Y8436.00
G1 X5925.00 Y8350.00
G1 X5985.00 Y8336.00
G1 X6045.00 Y8344.00
G1 X6060.00 Y8349.00
G1 X6075.00 Y8360.00
G1 X6096.00 Y8375.00
G1 X6179.00 Y8410.00
G1 X6214.00 Y8430.00
G1 X6091.00 Y8392.00
G1 X5940.00 Y8360.00
G1 X5958.00 Y8371.00
G1 X6050.00 Y8390.00
G1 X6080.00 Y8411.00
G1 X6135.00 Y8435.00
G1 X6158.00 Y8454.00
G1 X6050.00 Y8415.00
G1 X6029.00 Y8395.00
G1 X6021.00 Y8409.00
G1 X6032.00 Y8419.00
G1 X5978.00 Y8400.00
G1 X5930.00 Y8390.00
G1 X5945.00 Y8400.00
G1 X5960.00 Y8409.00
G1 X6134.00 Y8464.00
G1 X6145.00 Y8480.00
G1 X5949.00 Y8429.00
G1 X5920.00 Y8442.00
G1 X5934.00 Y8450.00
G1 X5976.00 Y8475.00
G1 X5982.00 Y8500.00
G1 X5950.00 Y8480.00
G1 X5929.00 Y8460.00
G1 X5942.00 Y8499.00
G1 X6032.00 Y8570.00
G1 X6015.00 Y8554.00
G1 X5985.00 Y8540.00
G1 X6018.00 Y8545.00
G1 X6050.00 Y8540.00
G1 X6018.00 Y8530.00
G1 X5970.00 Y8520.00
G1 X6075.00 Y8525.00
G1 X6142.00 Y8532.00
G1 X6088.00 Y8511.00
G1 X6000.00 Y8480.00
G1 X6028.00 Y8475.00
G1 X6110.00 Y8497.00
G1 X6159.00 Y8536.00
G1 X6101.00 Y8546.00
G1 X6080.00 Y8550.00
G1 X6133.00 Y8559.00
G1 X6195.00 Y8578.00
G1 X6125.00 Y8609.00
G1 X6055.00 Y8568.00
G1 X6185.00 Y8591.00
G1 X6160.00 Y8579.00
G0 X6665.00 Y8591.00
G1 X6690.00 Y8585.00
G1 X6687.00 Y8600.00
G1 X6665.00 Y8591.00
G0 X6800.00 Y8421.00
G1 X6877.00 Y8387.00
G1 X6883.00 Y8406.00
G1 X6818.00 Y8425.00
G1 X6800.00 Y8421.00
G0 X6205.00 Y8398.00
G1 X6169.00 Y8385.00
G1 X6097.00 Y8347.00
G1 X6017.00 Y8323.00
G1 X6001.00 Y8325.00
G1 X6066.00 Y8256.00
G1 X6147.00 Y8204.00
G1 X6115.00 Y8240.00
G1 X6096.00 Y8256.00
G1 X6101.00 Y8280.00
G1 X6163.00 Y8333.00
G1 X6235.00 Y8397.00
G1 X6240.00 Y8409.00
G1 X6205.00 Y8398.00
G1 X6050.00 Y8296.00
G1 X6065.00 Y8310.00
G1 X6093.00 Y8320.00
G1 X6178.00 Y8374.00
G1 X6129.00 Y8322.00
G0 X6233.00 Y8366.00
G1 X6145.00 Y8260.00
G1 X6170.00 Y8267.00
G1 X6227.00 Y8337.00
G1 X6233.00 Y8366.00
G0 X6300.00 Y8350.00
G1 X6282.00 Y8333.00
G1 X6210.00 Y8268.00
G1 X6245.00 Y8292.00
G1 X6280.00 Y8313.00
G1 X6305.00 Y8320.00
G1 X6320.00 Y8370.00
G1 X6300.00 Y8350.00
G0 X6333.00 Y8310.00
G1 X6309.00 Y8256.00
G1 X6383.00 Y8354.00
G1 X6333.00 Y8310.00
G0 X6760.00 Y8352.00
G1 X6804.00 Y8292.00
G1 X6864.00 Y8213.00
G1 X6894.00 Y8180.00
G1 X6933.00 Y8126.00
G1 X6943.00 Y8100.00
G1 X6949.00 Y8145.00
G1 X6908.00 Y8190.00
G1 X6876.00 Y8228.00
G1 X6760.00 Y8352.00
G0 X6737.00 Y8326.00
G1 X6786.00 Y8253.00
G1 X6836.00 Y8188.00
G1 X6860.00 Y8174.00
G1 X6795.00 Y8269.00
G1 X6755.00 Y8327.00
G1 X6744.00 Y8347.00
G1 X6737.00 Y8326.00
G0 X6800.00 Y8340.00
G1 X6811.00 Y8330.00
G1 X6815.00 Y8340.00
G1 X6804.00 Y8350.00
G1 X6800.00 Y8340.00
G0 X6830.00 Y8342.00
G1 X6878.00 Y8300.00
G1 X6908.00 Y8275.00
G1 X6940.00 Y8261.00
G1 X6885.00 Y8316.00
G1 X6830.00 Y8342.00
G0 X6391.00 Y8302.00
G1 X6345.00 Y8194.00
G1 X6323.00 Y8103.00
G1 X6327.00 Y8080.00
G1 X6354.00 Y8158.00
G1 X6433.00 Y8310.00
G1 X6448.00 Y8322.00
G1 X6391.00 Y8302.00
G0 X6690.00 Y8330.00
G1 X6754.00 Y8222.00
G1 X6796.00 Y8148.00
G1 X6856.00 Y8070.00
G1 X6866.00 Y8125.00
G1 X6856.00 Y8096.00
G1 X6853.00 Y8080.00
G1 X6804.00 Y8170.00
G1 X6801.00 Y8195.00
G1 X6761.00 Y8248.00
G1 X6718.00 Y8312.00
G1 X6690.00 Y8330.00
G0 X6895.00 Y8330.00
G1 X6946.00 Y8290.00
G1 X6990.00 Y8245.00
G1 X7001.00 Y8230.00
G1 X6955.00 Y8302.00
G1 X6895.00 Y8330.00
G0 X6470.00 Y8296.00
G1 X6464.00 Y8214.00
G1 X6468.00 Y8175.00
G1 X6494.00 Y8321.00
G1 X6470.00 Y8296.00
G0 X6520.00 Y8255.00
G1 X6535.00 Y8180.00
G1 X6546.00 Y8233.00
G1 X6541.00 Y8308.00
G1 X6530.00 Y8330.00
G1 X6520.00 Y8255.00
G0 X6570.00 Y8295.00
G1 X6580.00 Y8242.00
G1 X6610.00 Y8196.00
G1 X6611.00 Y8226.00
G1 X6592.00 Y8279.00
G1 X6572.00 Y8318.00
G1 X6570.00 Y8295.00
G0 X6620.00 Y8288.00
G1 X6640.00 Y8223.00
G1 X6650.00 Y8190.00
G1 X6648.00 Y8280.00
G1 X6618.00 Y8320.00
G1 X6620.00 Y8288.00
G0 X6665.00 Y8290.00
G1 X6680.00 Y8237.00
G1 X6736.00 Y8069.00
G1 X6729.00 Y8114.00
G1 X6700.00 Y8213.00
G1 X6660.00 Y8320.00
G1 X6665.00 Y8290.00
G0 X5950.00 Y8302.00
G1 X6116.00 Y8163.00
G1 X6090.00 Y8195.00
G1 X6070.00 Y8200.00
G1 X5995.00 Y8270.00
G1 X5982.00 Y8287.00
G1 X5968.00 Y8308.00
G1 X5950.00 Y8302.00
G0 X6412.00 Y8250.00
G1 X6401.00 Y8172.00
G1 X6437.00 Y8293.00
G1 X6412.00 Y8250.00
G0 X6871.00 Y8269.00
G1 X6898.00 Y8254.00
G1 X6884.00 Y8275.00
G1 X6871.00 Y8269.00
G0 X6190.00 Y8240.00
G1 X6204.00 Y8220.00
G1 X6214.00 Y8254.00
G1 X6190.00 Y8240.00
G0 X6251.00 Y8234.00
G1 X6240.00 Y8190.00
G1 X6277.00 Y8256.00
G1 X6251.00 Y8234.00
G0 X6302.00 Y8217.00
G1 X6280.00 Y8186.00
G1 X6254.00 Y8147.00
G1 X6241.00 Y8111.00
G1 X6258.00 Y8118.00
G1 X6281.00 Y8152.00
G1 X6327.00 Y8236.00
G1 X6302.00 Y8217.00
G0 X6900.00 Y8231.00
G1 X6910.00 Y8215.00
G1 X6920.00 Y8219.00
G1 X6910.00 Y8235.00
G1 X6900.00 Y8231.00
G0 X6720.00 Y8219.00
G1 X6729.00 Y8195.00
G1 X6749.00 Y8135.00
G1 X6798.00 Y8060.00
G1 X6797.00 Y8078.00
G1 X6760.00 Y8155.00
G1 X6720.00 Y8219.00
G0 X6940.00 Y8200.00
G1 X6966.00 Y8152.00
G1 X6986.00 Y8134.00
G1 X7000.00 Y8135.00
G1 X7020.00 Y8132.00
G1 X6980.00 Y8179.00
G1 X6940.00 Y8200.00
G0 X6156.00 Y8175.00
G1 X6171.00 Y8151.00
G1 X6181.00 Y8200.00
G1 X6156.00 Y8175.00
G0 X6206.00 Y8158.00
G1 X6217.00 Y8135.00
G1 X6226.00 Y8180.00
G1 X6206.00 Y8158.00
G0 X6446.00 Y8138.00
G1 X6459.00 Y8060.00
G1 X6478.00 Y8099.00
G1 X6446.00 Y8138.00
G0 X6584.00 Y8144.00
G1 X6590.00 Y8088.00
G1 X6596.00 Y8053.00
G1 X6623.00 Y8048.00
G1 X6635.00 Y8056.00
G1 X6615.00 Y8133.00
G1 X6594.00 Y8160.00
G1 X6584.00 Y8144.00
G1 X6602.00 Y8090.00
G1 X6607.00 Y8103.00
G1 X6607.00 Y8078.00
G0 X6644.00 Y8148.00
G1 X6661.00 Y8099.00
G1 X6720.00 Y8050.00
G1 X6711.00 Y8060.00
G1 X6681.00 Y8110.00
G1 X6649.00 Y8160.00
G1 X6644.00 Y8148.00
G0 X6880.00 Y8147.00
G1 X6912.00 Y8080.00
G1 X6900.00 Y8145.00
G1 X6880.00 Y8147.00
G0 X6376.00 Y8119.00
G1 X6391.00 Y8070.00
G1 X6408.00 Y8107.00
G1 X6376.00 Y8119.00
G0 X6518.00 Y8104.00
G1 X6538.00 Y8054.00
G1 X6530.00 Y8150.00
G1 X6518.00 Y8104.00
G0 X6286.00 Y8124.00
G1 X6289.00 Y8094.00
G1 X6300.00 Y8140.00
G1 X6286.00 Y8124.00
G0 X6060.00 Y8080.00
G1 X6057.00 Y8070.00
G1 X6075.00 Y8080.00
G1 X6060.00 Y8080.00
G0 X5816.00 Y7704.00
G1 X5843.00 Y7672.00
G1 X5878.00 Y7698.00
G1 X5852.00 Y7720.00
G1 X5816.00 Y7704.00
G0 X5478.00 Y7309.00
G1 X5476.00 Y7243.00
G1 X5540.00 Y7280.00
G1 X5506.00 Y7320.00
G1 X5478.00 Y7309.00
G1 X5505.00 Y7270.00
G1 X5497.00 Y7293.00
G1 X5520.00 Y7285.00
G0 X6130.00 Y6449.00
G1 X6140.00 Y6445.00
G1 X6150.00 Y6456.00
G1 X6140.00 Y6460.00
G1 X6130.00 Y6449.00
G0 X7000.00 Y7856.00
G1 X7023.00 Y7823.00
G1 X7072.00 Y7730.00
G1 X7107.00 Y7653.00
G1 X7094.00 Y7725.00
G1 X7021.00 Y7870.00
G1 X7000.00 Y7856.00
G0 X6900.00 Y7856.00
G1 X6910.00 Y7826.00
G1 X6940.00 Y7830.00
G1 X6920.00 Y7860.00
G1 X6900.00 Y7856.00
G0 X6852.00 Y7829.00
G1 X6865.00 Y7808.00
G1 X6862.00 Y7848.00
G1 X6852.00 Y7829.00
G0 X6702.00 Y7818.00
G1 X6730.00 Y7814.00
G1 X6714.00 Y7840.00
G1 X6702.00 Y7818.00
G0 X6761.00 Y7816.00
G1 X6788.00 Y7812.00
G1 X6767.00 Y7838.00
G1 X6761.00 Y7816.00
G0 X6917.00 Y7744.00
G1 X6923.00 Y7720.00
G1 X6960.00 Y7565.00
G1 X7034.00 Y7464.00
G1 X7116.00 Y7355.00
G1 X7161.00 Y7287.00
G1 X7199.00 Y7255.00
G1 X7220.00 Y7100.00
G1 X7253.00 Y6934.00
G1 X7324.00 Y6907.00
G1 X7330.00 Y6942.00
G1 X7295.00 Y6960.00
G1 X7266.00 Y6968.00
G1 X7241.00 Y7120.00
G1 X7216.00 Y7270.00
G1 X7175.00 Y7308.00
G1 X7140.00 Y7351.00
G1 X7056.00 Y7474.00
G1 X6968.00 Y7670.00
G1 X6939.00 Y7748.00
G1 X6917.00 Y7744.00
G0 X6772.00 Y7713.00
G1 X6810.00 Y7709.00
G1 X6789.00 Y7730.00
G1 X6772.00 Y7713.00
G0 X6784.00 Y7625.00
G1 X6785.00 Y7600.00
G1 X6820.00 Y7609.00
G1 X6784.00 Y7625.00
G0 X7086.00 Y7618.00
G1 X7125.00 Y7518.00
G1 X7164.00 Y7460.00
G1 X7290.00 Y7333.00
G1 X7242.00 Y7392.00
G1 X7177.00 Y7555.00
G1 X7165.00 Y7620.00
G1 X7086.00 Y7618.00
G1 X7135.00 Y7544.00
G1 X7109.00 Y7550.00
G1 X7100.00 Y7576.00
G1 X7123.00 Y7598.00
G1 X7148.00 Y7566.00
G0 X7493.00 Y6788.00
G1 X7480.00 Y6567.00
G1 X7484.00 Y6441.00
G1 X7516.00 Y6768.00
G1 X7508.00 Y6890.00
G1 X7493.00 Y6788.00
G0 X6826.00 Y6649.00
G1 X6825.00 Y6500.00
G1 X6843.00 Y6517.00
G1 X6813.00 Y6300.00
G1 X6814.00 Y6292.00
G1 X6877.00 Y6449.00
G1 X6883.00 Y6540.00
G1 X6856.00 Y6540.00
G1 X6834.00 Y6549.00
G1 X6863.00 Y6803.00
G1 X6826.00 Y6649.00
G0 X7407.00 Y6684.00
G1 X7407.00 Y6667.00
G1 X7412.00 Y6506.00
G1 X7433.00 Y6578.00
G1 X7426.00 Y6690.00
G1 X7407.00 Y6684.00
G0 X6777.00 Y6438.00
G1 X6734.00 Y6283.00
G1 X6785.00 Y6409.00
G1 X6777.00 Y6438.00
G0 X7263.00 Y6398.00
G1 X7245.00 Y6360.00
G1 X7208.00 Y6286.00
G1 X7183.00 Y6233.00
G1 X7266.00 Y6359.00
G1 X7263.00 Y6398.00
G0 X6424.00 Y7836.00
G1 X6441.00 Y7790.00
G1 X6450.00 Y7810.00
G1 X6460.00 Y7830.00
G1 X6470.00 Y7845.00
G1 X6424.00 Y7836.00
G0 X6372.00 Y7628.00
G1 X6407.00 Y7552.00
G1 X6426.00 Y7616.00
G1 X6372.00 Y7628.00
G1 X6404.00 Y7582.00
G1 X6382.00 Y7604.00
G1 X6396.00 Y7618.00
G1 X6418.00 Y7596.00
G0 X5102.00 Y7010.00
G1 X5107.00 Y6998.00
G1 X5107.00 Y7023.00
G1 X5102.00 Y7010.00
G0 X5082.00 Y6903.00
G1 X5079.00 Y6800.00
G1 X5094.00 Y6830.00
G1 X5120.00 Y6828.00
G1 X5130.00 Y6810.00
G1 X5140.00 Y6853.00
G1 X5116.00 Y6880.00
G1 X5098.00 Y6930.00
G1 X5082.00 Y6903.00
G0 X7932.00 Y6745.00
G1 X7937.00 Y6733.00
G1 X7937.00 Y6763.00
G1 X7932.00 Y6745.00
G0 X7932.00 Y6685.00
G1 X7937.00 Y6673.00
G1 X7937.00 Y6703.00
G1 X7932.00 Y6685.00
G0 X6286.00 Y6092.00
G1 X6285.00 Y6059.00
G1 X6282.00 Y6044.00
G1 X6265.00 Y6040.00
G1 X6269.00 Y6030.00
G1 X6287.00 Y6029.00
G1 X6300.00 Y6084.00
G1 X6286.00 Y6092.00
G0 X6801.00 Y5984.00
G1 X6807.00 Y5978.00
G1 X6806.00 Y5997.00
G1 X6801.00 Y5984.00
G0 X6917.00 Y6094.00
G1 X6910.00 Y6066.00
G1 X6921.00 Y6063.00
G1 X6917.00 Y6094.00
G0 X6866.00 Y5989.00
G1 X6858.00 Y5920.00
G1 X6900.00 Y5991.00
G1 X6888.00 Y5994.00
G1 X6883.00 Y5996.00
G1 X6903.00 Y6005.00
G1 X6901.00 Y6033.00
G1 X6866.00 Y5989.00
G0 X2212.00 Y2044.00
G1 X2212.00 Y1946.00
G1 X2320.00 Y1998.00
G1 X2212.00 Y2044.00
G1 X2280.00 Y1981.00
G1 X2246.00 Y1966.00
G1 X2237.00 Y2023.00
G1 X2279.00 Y2016.00
G0 X3017.00 Y1318.00
G1 X3010.00 Y1217.00
G1 X3130.00 Y1260.00
G1 X3017.00 Y1318.00
G1 X3058.00 Y1230.00
G1 X3034.00 Y1275.00
G1 X3094.00 Y1274.00
M2 ; End of program
