; G-code generated from SVG
G21 ; Set units to mm
G90 ; Absolute positioning
G0 X2460.00 Y10178.00
G1 X1420.00 Y9384.00
G1 X571.00 Y8360.00
G1 X366.00 Y8085.00
G1 X73.00 Y7666.00
G1 X0.00 Y7514.00
G1 X4.00 Y7470.00
G1 X55.00 Y7543.00
G1 X1089.00 Y8935.00
G1 X2690.00 Y10227.00
G1 X2645.00 Y10239.00
G1 X2460.00 Y10178.00
G0 X1784.00 Y10154.00
G1 X619.00 Y9100.00
G1 X140.00 Y8504.00
G1 X2.00 Y8254.00
G1 X5.00 Y8218.00
G1 X59.00 Y8296.00
G1 X775.00 Y9190.00
G1 X1805.00 Y10104.00
G1 X1921.00 Y10204.00
G1 X1900.00 Y10220.00
G1 X1784.00 Y10154.00
G0 X7401.00 Y10191.00
G1 X7475.00 Y10110.00
G1 X8079.00 Y9597.00
G1 X8695.00 Y8855.00
G1 X9692.00 Y7793.00
G1 X10129.00 Y7603.00
G1 X10058.00 Y7670.00
G1 X9545.00 Y7969.00
G1 X9109.00 Y8410.00
G1 X8754.00 Y8871.00
G1 X7640.00 Y10061.00
G1 X7416.00 Y10210.00
G1 X7401.00 Y10191.00
G0 X6881.00 Y10167.00
G1 X6903.00 Y10114.00
G1 X7350.00 Y9814.00
G1 X8045.00 Y9105.00
G1 X8365.00 Y8680.00
G1 X9101.00 Y7785.00
G1 X9485.00 Y7468.00
G1 X10047.00 Y7197.00
G1 X10121.00 Y7196.00
G1 X10078.00 Y7250.00
G1 X9321.00 Y7660.00
G1 X8799.00 Y8195.00
G1 X8450.00 Y8659.00
G1 X7740.00 Y9533.00
G1 X7068.00 Y10082.00
G1 X6881.00 Y10167.00
G0 X3825.00 Y10119.00
G1 X3725.00 Y10105.00
G1 X2551.00 Y9633.00
G1 X1909.00 Y9098.00
G1 X824.00 Y7820.00
G1 X165.00 Y6910.00
G1 X2.00 Y6582.00
G1 X5.00 Y6540.00
G1 X55.00 Y6622.00
G1 X1169.00 Y8165.00
G1 X2255.00 Y9341.00
G1 X3156.00 Y9888.00
G1 X4655.00 Y9961.00
G1 X5002.00 Y9676.00
G1 X5023.00 Y9635.00
G1 X4975.00 Y9688.00
G1 X4394.00 Y9971.00
G1 X3835.00 Y9950.00
G1 X2564.00 Y9162.00
G1 X2055.00 Y8505.00
G1 X1437.00 Y7706.00
G1 X661.00 Y6755.00
G1 X40.00 Y5178.00
G1 X1.00 Y4853.00
G1 X2.00 Y4725.00
G1 X16.00 Y4785.00
G1 X85.00 Y5113.00
G1 X469.00 Y6319.00
G1 X1275.00 Y7430.00
G1 X1781.00 Y8035.00
G1 X2160.00 Y8556.00
G1 X3008.00 Y9493.00
G1 X3960.00 Y9915.00
G1 X4549.00 Y9879.00
G1 X4800.00 Y9754.00
G1 X4772.00 Y9759.00
G1 X4405.00 Y9825.00
G1 X4165.00 Y9819.00
G1 X3053.00 Y9278.00
G1 X2340.00 Y8560.00
G1 X560.00 Y5315.00
G1 X400.00 Y4695.00
G1 X95.00 Y3741.00
G1 X-1.00 Y3457.00
G1 X2.00 Y3361.00
G1 X13.00 Y3295.00
G1 X233.00 Y3971.00
G1 X555.00 Y5060.00
G1 X797.00 Y5905.00
G1 X1899.00 Y7925.00
G1 X3185.00 Y9312.00
G1 X3888.00 Y9694.00
G1 X4365.00 Y9772.00
G1 X4747.00 Y9707.00
G1 X5044.00 Y9452.00
G1 X5009.00 Y9439.00
G1 X4904.00 Y9508.00
G1 X4470.00 Y9587.00
G1 X3523.00 Y9236.00
G1 X1903.00 Y7365.00
G1 X1642.00 Y6895.00
G1 X1445.00 Y6437.00
G1 X1382.00 Y6302.00
G1 X1015.00 Y5681.00
G1 X690.00 Y4825.00
G1 X207.00 Y3520.00
G1 X30.00 Y3125.00
G1 X9.00 Y3062.00
G1 X1.00 Y2877.00
G1 X2.00 Y2715.00
G1 X18.00 Y2794.00
G1 X20.00 Y2714.00
G1 X1.00 Y1880.00
G1 X12.00 Y1220.00
G1 X30.00 Y1850.00
G1 X43.00 Y2460.00
G1 X55.00 Y2544.00
G1 X156.00 Y3093.00
G1 X621.00 Y4149.00
G1 X989.00 Y4904.00
G1 X1050.00 Y5035.00
G1 X980.00 Y4800.00
G1 X601.00 Y3510.00
G1 X465.00 Y1912.00
G1 X456.00 Y1060.00
G1 X66.00 Y303.00
G1 X0.00 Y194.00
G1 X0.00 Y156.00
G1 X46.00 Y200.00
G1 X525.00 Y1145.00
G1 X536.00 Y1707.00
G1 X505.00 Y2367.00
G1 X514.00 Y2540.00
G1 X656.00 Y3495.00
G1 X1020.00 Y4740.00
G1 X1155.00 Y5165.00
G1 X1458.00 Y5855.00
G1 X1947.00 Y6595.00
G1 X2253.00 Y7038.00
G1 X2318.00 Y7126.00
G1 X2115.00 Y6735.00
G1 X1774.00 Y6100.00
G1 X1510.00 Y5525.00
G1 X1440.00 Y5340.00
G1 X1095.00 Y4090.00
G1 X950.00 Y3505.00
G1 X815.00 Y2845.00
G1 X803.00 Y2479.00
G1 X825.00 Y1865.00
G1 X806.00 Y893.00
G1 X395.00 Y184.00
G1 X312.00 Y83.00
G1 X412.00 Y120.00
G1 X823.00 Y750.00
G1 X883.00 Y1855.00
G1 X856.00 Y2415.00
G1 X1149.00 Y3920.00
G1 X1210.00 Y4081.00
G1 X1175.00 Y3920.00
G1 X1114.00 Y3598.00
G1 X1083.00 Y3075.00
G1 X1104.00 Y2505.00
G1 X1170.00 Y2045.00
G1 X1214.00 Y1755.00
G1 X1232.00 Y1630.00
G1 X1237.00 Y1205.00
G1 X1221.00 Y1089.00
G1 X942.00 Y370.00
G1 X792.00 Y191.00
G1 X715.00 Y84.00
G1 X846.00 Y164.00
G1 X1272.00 Y1041.00
G1 X1295.00 Y1375.00
G1 X1225.00 Y2060.00
G1 X1176.00 Y2385.00
G1 X1148.00 Y2590.00
G1 X1153.00 Y3470.00
G1 X1494.00 Y4700.00
G1 X1509.00 Y4660.00
G1 X1395.00 Y3985.00
G1 X1385.00 Y3885.00
G1 X1376.00 Y3070.00
G1 X1573.00 Y1890.00
G1 X1627.00 Y1055.00
G1 X1529.00 Y677.00
G1 X1223.00 Y199.00
G1 X1144.00 Y91.00
G1 X1276.00 Y166.00
G1 X1614.00 Y745.00
G1 X1697.00 Y1373.00
G1 X1595.00 Y2065.00
G1 X1444.00 Y2950.00
G1 X1433.00 Y3800.00
G1 X1585.00 Y4707.00
G1 X1783.00 Y5230.00
G1 X1863.00 Y5410.00
G1 X1819.00 Y5225.00
G1 X1685.00 Y4580.00
G1 X1670.00 Y4460.00
G1 X1643.00 Y3805.00
G1 X1935.00 Y2150.00
G1 X2103.00 Y1295.00
G1 X2030.00 Y785.00
G1 X1666.00 Y203.00
G1 X1573.00 Y83.00
G1 X1652.00 Y115.00
G1 X1900.00 Y382.00
G1 X2135.00 Y950.00
G1 X2157.00 Y1220.00
G1 X1975.00 Y2210.00
G1 X1875.00 Y2555.00
G1 X1931.00 Y2440.00
G1 X2201.00 Y1900.00
G1 X2581.00 Y1114.00
G1 X2581.00 Y766.00
G1 X2377.00 Y438.00
G1 X2013.00 Y167.00
G1 X1943.00 Y82.00
G1 X2397.00 Y384.00
G1 X2640.00 Y772.00
G1 X2429.00 Y1620.00
G1 X2166.00 Y2236.00
G1 X1990.00 Y3020.00
G1 X1923.00 Y4010.00
G1 X1975.00 Y5095.00
G1 X2096.00 Y5689.00
G1 X2095.00 Y5615.00
G1 X2028.00 Y4390.00
G1 X2060.00 Y3915.00
G1 X2084.00 Y3715.00
G1 X2186.00 Y3115.00
G1 X2465.00 Y2110.00
G1 X2800.00 Y877.00
G1 X2741.00 Y566.00
G1 X2386.00 Y176.00
G1 X2290.00 Y100.00
G1 X2305.00 Y80.00
G1 X2381.00 Y105.00
G1 X2735.00 Y440.00
G1 X2857.00 Y830.00
G1 X2580.00 Y1941.00
G1 X2089.00 Y4210.00
G1 X2105.00 Y5210.00
G1 X2244.00 Y5950.00
G1 X2239.00 Y5876.00
G1 X2155.00 Y5185.00
G1 X2175.00 Y4495.00
G1 X2357.00 Y3370.00
G1 X2750.00 Y2190.00
G1 X3116.00 Y1175.00
G1 X3136.00 Y767.00
G1 X3042.00 Y475.00
G1 X2831.00 Y193.00
G1 X2753.00 Y95.00
G1 X2841.00 Y124.00
G1 X3139.00 Y551.00
G1 X3184.00 Y1126.00
G1 X2917.00 Y1930.00
G1 X2475.00 Y3136.00
G1 X2270.00 Y4130.00
G1 X2245.00 Y4335.00
G1 X2235.00 Y4445.00
G1 X2213.00 Y5155.00
G1 X2306.00 Y5898.00
G1 X2486.00 Y6378.00
G1 X2449.00 Y6230.00
G1 X2339.00 Y5366.00
G1 X2345.00 Y5066.00
G1 X2355.00 Y4970.00
G1 X2750.00 Y3680.00
G1 X2961.00 Y3375.00
G1 X2993.00 Y3255.00
G1 X3164.00 Y2841.00
G1 X4354.00 Y1970.00
G1 X4870.00 Y1886.00
G1 X5183.00 Y1913.00
G1 X5466.00 Y2058.00
G1 X5807.00 Y2510.00
G1 X5800.00 Y2407.00
G1 X5569.00 Y1655.00
G1 X5275.00 Y837.00
G1 X5203.00 Y328.00
G1 X5197.00 Y120.00
G1 X5222.00 Y120.00
G1 X5247.00 Y120.00
G1 X5253.00 Y303.00
G1 X5560.00 Y1475.00
G1 X5926.00 Y2715.00
G1 X5944.00 Y2805.00
G1 X6036.00 Y2900.00
G1 X6460.00 Y3427.00
G1 X6498.00 Y3475.00
G1 X6344.00 Y3173.00
G1 X5785.00 Y1945.00
G1 X5782.00 Y232.00
G1 X5869.00 Y124.00
G1 X5854.00 Y202.00
G1 X5695.00 Y758.00
G1 X5740.00 Y1610.00
G1 X5972.00 Y2300.00
G1 X6339.00 Y3049.00
G1 X6421.00 Y3207.00
G1 X6436.00 Y3228.00
G1 X6315.00 Y2930.00
G1 X5954.00 Y1799.00
G1 X5944.00 Y1730.00
G1 X5927.00 Y1405.00
G1 X6037.00 Y755.00
G1 X6261.00 Y138.00
G1 X6313.00 Y133.00
G1 X6264.00 Y286.00
G1 X6036.00 Y970.00
G1 X5984.00 Y1510.00
G1 X6200.00 Y2515.00
G1 X6470.00 Y3145.00
G1 X6862.00 Y4095.00
G1 X7051.00 Y4679.00
G1 X7057.00 Y4683.00
G1 X6976.00 Y4268.00
G1 X6715.00 Y3370.00
G1 X6611.00 Y3075.00
G1 X6541.00 Y2880.00
G1 X6411.00 Y2450.00
G1 X6404.00 Y1825.00
G1 X6747.00 Y1060.00
G1 X7159.00 Y254.00
G1 X7237.00 Y133.00
G1 X7226.00 Y237.00
G1 X6785.00 Y1105.00
G1 X6445.00 Y2290.00
G1 X6683.00 Y3113.00
G1 X7059.00 Y4375.00
G1 X7230.00 Y5247.00
G1 X7257.00 Y5410.00
G1 X7257.00 Y5365.00
G1 X7245.00 Y5245.00
G1 X7069.00 Y3965.00
G1 X6876.00 Y3060.00
G1 X6747.00 Y2275.00
G1 X7019.00 Y1434.00
G1 X7381.00 Y975.00
G1 X7893.00 Y242.00
G1 X7976.00 Y121.00
G1 X7990.00 Y152.00
G1 X7762.00 Y595.00
G1 X7271.00 Y1190.00
G1 X7139.00 Y1360.00
G1 X6809.00 Y2150.00
G1 X6950.00 Y3125.00
G1 X7134.00 Y4015.00
G1 X7249.00 Y4775.00
G1 X7280.00 Y5025.00
G1 X7321.00 Y5775.00
G1 X7332.00 Y5975.00
G1 X7342.00 Y5430.00
G1 X7185.00 Y3820.00
G1 X7093.00 Y3150.00
G1 X7104.00 Y2861.00
G1 X7495.00 Y2025.00
G1 X8031.00 Y1481.00
G1 X8885.00 Y260.00
G1 X8945.00 Y120.00
G1 X8955.00 Y224.00
G1 X8714.00 Y786.00
G1 X8055.00 Y1535.00
G1 X7556.00 Y2041.00
G1 X7149.00 Y3245.00
G1 X7239.00 Y3811.00
G1 X7374.00 Y4680.00
G1 X7390.00 Y4853.00
G1 X7407.00 Y5243.00
G1 X7422.00 Y5472.00
G1 X7445.00 Y4029.00
G1 X7430.00 Y3845.00
G1 X7410.00 Y3630.00
G1 X7423.00 Y2975.00
G1 X7999.00 Y2015.00
G1 X8380.00 Y1705.00
G1 X9038.00 Y1141.00
G1 X9515.00 Y182.00
G1 X9570.00 Y115.00
G1 X9615.00 Y320.00
G1 X9560.00 Y1002.00
G1 X9223.00 Y1570.00
G1 X8615.00 Y2090.00
G1 X8261.00 Y2385.00
G1 X7991.00 Y2700.00
G1 X7725.00 Y3385.00
G1 X7685.00 Y4185.00
G1 X7528.00 Y5625.00
G1 X7350.00 Y6570.00
G1 X7250.00 Y7034.00
G1 X7284.00 Y7013.00
G1 X7605.00 Y6283.00
G1 X7750.00 Y5000.00
G1 X7846.00 Y4168.00
G1 X8465.00 Y3393.00
G1 X9052.00 Y2745.00
G1 X9575.00 Y1945.00
G1 X9844.00 Y835.00
G1 X9773.00 Y206.00
G1 X9775.00 Y124.00
G1 X9844.00 Y265.00
G1 X9897.00 Y740.00
G1 X9686.00 Y1843.00
G1 X8958.00 Y2948.00
G1 X8933.00 Y3008.00
G1 X9150.00 Y2808.00
G1 X10100.00 Y1390.00
G1 X10167.00 Y848.00
G1 X10129.00 Y250.00
G1 X10126.00 Y123.00
G1 X10197.00 Y295.00
G1 X10224.00 Y745.00
G1 X10207.00 Y1150.00
G1 X9888.00 Y2053.00
G1 X9552.00 Y2495.00
G1 X9175.00 Y2860.00
G1 X9040.00 Y2994.00
G1 X9101.00 Y2953.00
G1 X9231.00 Y2874.00
G1 X10025.00 Y2316.00
G1 X10122.00 Y2240.00
G1 X10141.00 Y2262.00
G1 X9925.00 Y2469.00
G1 X9205.00 Y2956.00
G1 X8849.00 Y3204.00
G1 X8437.00 Y3965.00
G1 X8195.00 Y5175.00
G1 X8091.00 Y5909.00
G1 X8064.00 Y6067.00
G1 X8235.00 Y5415.00
G1 X8425.00 Y4619.00
G1 X8972.00 Y3511.00
G1 X9945.00 Y2589.00
G1 X10131.00 Y2491.00
G1 X10043.00 Y2591.00
G1 X8724.00 Y4040.00
G1 X8457.00 Y4705.00
G1 X8310.00 Y5315.00
G1 X7900.00 Y6595.00
G1 X7360.00 Y7460.00
G1 X7000.00 Y8000.00
G1 X6151.00 Y8920.00
G1 X5789.00 Y9103.00
G1 X5284.00 Y9183.00
G1 X5461.00 Y9250.00
G1 X6624.00 Y8988.00
G1 X7117.00 Y8540.00
G1 X7312.00 Y8160.00
G1 X7690.00 Y7490.00
G1 X8160.00 Y6645.00
G1 X8257.00 Y6416.00
G1 X8381.00 Y6076.00
G1 X8575.00 Y5415.00
G1 X8926.00 Y4396.00
G1 X9845.00 Y3437.00
G1 X10066.00 Y3346.00
G1 X10131.00 Y3346.00
G1 X10040.00 Y3416.00
G1 X8965.00 Y4445.00
G1 X8601.00 Y5530.00
G1 X8236.00 Y6613.00
G1 X8223.00 Y6650.00
G1 X8265.00 Y6588.00
G1 X8642.00 Y6083.00
G1 X8752.00 Y5957.00
G1 X8844.00 Y5774.00
G1 X9508.00 Y4508.00
G1 X9720.00 Y4331.00
G1 X10131.00 Y4161.00
G1 X10073.00 Y4221.00
G1 X9745.00 Y4386.00
G1 X9150.00 Y5106.00
G1 X8941.00 Y5651.00
G1 X8905.00 Y5775.00
G1 X8890.00 Y5825.00
G1 X9012.00 Y5704.00
G1 X9589.00 Y5220.00
G1 X10125.00 Y4980.00
G1 X10083.00 Y5036.00
G1 X9475.00 Y5372.00
G1 X8978.00 Y5812.00
G1 X8862.00 Y5925.00
G1 X8777.00 Y6190.00
G1 X8587.00 Y6780.00
G1 X8351.00 Y7510.00
G1 X7920.00 Y8690.00
G1 X7245.00 Y9605.00
G1 X6305.00 Y10101.00
G1 X6000.00 Y10124.00
G1 X5690.00 Y10097.00
G1 X5465.00 Y10016.00
G1 X5128.00 Y9655.00
G1 X5100.00 Y9591.00
G1 X4912.00 Y9867.00
G1 X4040.00 Y10129.00
G1 X3825.00 Y10119.00
G1 X7175.00 Y9587.00
G1 X7989.00 Y8390.00
G1 X8022.00 Y8247.00
G1 X7520.00 Y8875.00
G1 X7245.00 Y9112.00
G1 X6193.00 Y9616.00
G1 X5685.00 Y9649.00
G1 X5178.00 Y9430.00
G1 X5161.00 Y9493.00
G1 X5339.00 Y9867.00
G1 X5873.00 Y10069.00
G1 X5970.00 Y10078.00
G1 X6100.00 Y10070.00
G1 X7743.00 Y8548.00
G1 X8479.00 Y6925.00
G1 X8700.00 Y6246.00
G1 X8766.00 Y6033.00
G1 X8476.00 Y6384.00
G1 X7662.00 Y7780.00
G1 X6870.00 Y8951.00
G1 X6250.00 Y9373.00
G1 X5654.00 Y9461.00
G1 X5214.00 Y9292.00
G1 X5176.00 Y9323.00
G1 X5645.00 Y9591.00
G1 X6133.00 Y9571.00
G1 X5001.00 Y9377.00
G1 X5100.00 Y9228.00
G1 X5053.00 Y9256.00
G1 X4545.00 Y9379.00
G1 X3936.00 Y9178.00
G1 X3300.00 Y8654.00
G1 X2579.00 Y7835.00
G1 X2285.00 Y7464.00
G1 X1656.00 Y6663.00
G1 X1532.00 Y6505.00
G1 X1816.00 Y7107.00
G1 X3272.00 Y8966.00
G1 X4435.00 Y9534.00
G1 X4746.00 Y9510.00
G1 X6714.00 Y9027.00
G1 X6770.00 Y8970.00
G1 X6703.00 Y9007.00
G1 X5955.00 Y9287.00
G1 X5309.00 Y9278.00
G1 X5352.00 Y9323.00
G1 X5675.00 Y9409.00
G1 X5980.00 Y9393.00
G1 X5046.00 Y9199.00
G1 X5045.00 Y9184.00
G1 X4415.00 Y9184.00
G1 X3583.00 Y8839.00
G1 X3540.00 Y8817.00
G1 X3925.00 Y9107.00
G1 X4510.00 Y9324.00
G1 X4830.00 Y9306.00
G1 X5058.00 Y9114.00
G1 X4700.00 Y9040.00
G1 X3842.00 Y8681.00
G1 X3332.00 Y8180.00
G1 X2655.00 Y6949.00
G1 X2518.00 Y6723.00
G1 X2108.00 Y6150.00
G1 X1710.00 Y5350.00
G1 X1378.00 Y4593.00
G1 X1214.00 Y4230.00
G1 X1170.00 Y4140.00
G1 X1275.00 Y4610.00
G1 X1517.00 Y5380.00
G1 X2145.00 Y6680.00
G1 X2319.00 Y6995.00
G1 X2519.00 Y7380.00
G1 X3066.00 Y8269.00
G1 X4245.00 Y9080.00
G1 X4993.00 Y9140.00
G1 X6379.00 Y8677.00
G1 X6842.00 Y8146.00
G1 X6864.00 Y8100.00
G1 X5510.00 Y9023.00
G1 X5221.00 Y9111.00
G1 X5235.00 Y9121.00
G1 X5590.00 Y9105.00
G1 X4585.00 Y8771.00
G1 X3767.00 Y8398.00
G1 X3363.00 Y8105.00
G1 X3320.00 Y8075.00
G1 X3513.00 Y8311.00
G1 X3920.00 Y8665.00
G1 X4125.00 Y8783.00
G1 X4814.00 Y9005.00
G1 X5048.00 Y9055.00
G1 X5067.00 Y9060.00
G1 X5060.00 Y9030.00
G1 X6461.00 Y8419.00
G1 X6731.00 Y8162.00
G1 X7392.00 Y7320.00
G1 X8019.00 Y5990.00
G1 X8166.00 Y4985.00
G1 X8231.00 Y4525.00
G1 X8355.00 Y4036.00
G1 X8649.00 Y3375.00
G1 X8704.00 Y3291.00
G1 X8406.00 Y3539.00
G1 X7986.00 Y4168.00
G1 X7800.00 Y5173.00
G1 X7638.00 Y6368.00
G1 X7217.00 Y7215.00
G1 X7048.00 Y7480.00
G1 X6712.00 Y7945.00
G1 X6201.00 Y8433.00
G1 X5521.00 Y8849.00
G1 X5216.00 Y9050.00
G1 X5325.00 Y9024.00
G1 X5545.00 Y8775.00
G1 X6695.00 Y7883.00
G1 X6768.00 Y7763.00
G1 X5840.00 Y8432.00
G1 X5501.00 Y8644.00
G1 X5192.00 Y8928.00
G1 X5160.00 Y8999.00
G1 X5218.00 Y8966.00
G1 X5345.00 Y8883.00
G1 X4895.00 Y8605.00
G1 X4250.00 Y8188.00
G1 X3450.00 Y7697.00
G1 X3145.00 Y7455.00
G1 X3065.00 Y7390.00
G1 X3396.00 Y7794.00
G1 X3935.00 Y8244.00
G1 X4630.00 Y8619.00
G1 X5042.00 Y8889.00
G1 X5078.00 Y8920.00
G1 X5057.00 Y8850.00
G1 X5740.00 Y8430.00
G1 X6540.00 Y7886.00
G1 X7028.00 Y7384.00
G1 X7254.00 Y6809.00
G1 X7318.00 Y6338.00
G1 X7287.00 Y6435.00
G1 X7147.00 Y6815.00
G1 X6205.00 Y7966.00
G1 X5690.00 Y8328.00
G1 X5309.00 Y8610.00
G1 X5165.00 Y8829.00
G1 X5241.00 Y8779.00
G1 X5455.00 Y8609.00
G1 X4586.00 Y8655.00
G1 X4353.00 Y8545.00
G1 X3367.00 Y7845.00
G1 X2792.00 Y7077.00
G1 X2744.00 Y7013.00
G1 X3023.00 Y7605.00
G1 X3289.00 Y7953.00
G1 X4460.00 Y8666.00
G1 X4815.00 Y8808.00
G1 X4900.00 Y8845.00
G1 X5556.00 Y8350.00
G1 X6184.00 Y7909.00
G1 X6811.00 Y7264.00
G1 X7050.00 Y6900.00
G1 X7209.00 Y6518.00
G1 X7275.00 Y6146.00
G1 X7280.00 Y6055.00
G1 X7265.00 Y6135.00
G1 X7070.00 Y6699.00
G1 X6530.00 Y6957.00
G1 X5499.00 Y6648.00
G1 X5251.00 Y6203.00
G1 X5203.00 Y5775.00
G1 X5256.00 Y5004.00
G1 X5276.00 Y4619.00
G1 X5086.00 Y4411.00
G1 X5097.00 Y4456.00
G1 X5102.00 Y4930.00
G1 X5090.00 Y6379.00
G1 X5130.00 Y7997.00
G1 X5137.00 Y8706.00
G1 X5159.00 Y8700.00
G1 X5231.00 Y8610.00
G1 X4595.00 Y8213.00
G1 X4037.00 Y7959.00
G1 X3807.00 Y7864.00
G1 X3785.00 Y7858.00
G1 X4310.00 Y8158.00
G1 X4799.00 Y8449.00
G1 X5020.00 Y8673.00
G1 X5027.00 Y8677.00
G1 X4990.00 Y8585.00
G1 X4470.00 Y7926.00
G1 X4100.00 Y7731.00
G1 X3295.00 Y7285.00
G1 X2744.00 Y6801.00
G1 X2693.00 Y6744.00
G1 X2836.00 Y6988.00
G1 X3459.00 Y7602.00
G1 X3960.00 Y7863.00
G1 X4500.00 Y8101.00
G1 X4955.00 Y8441.00
G1 X4997.00 Y8487.00
G1 X4971.00 Y8416.00
G1 X5056.00 Y6835.00
G1 X5043.00 Y4960.00
G1 X5000.00 Y4408.00
G1 X4964.00 Y4367.00
G1 X4911.00 Y4429.00
G1 X4795.00 Y4527.00
G1 X4732.00 Y4563.00
G1 X4728.00 Y4621.00
G1 X4580.00 Y4780.00
G1 X4398.00 Y4570.00
G1 X4579.00 Y4360.00
G1 X4647.00 Y4394.00
G1 X4674.00 Y4429.00
G1 X4710.00 Y4396.00
G1 X4878.00 Y4320.00
G1 X4922.00 Y4309.00
G1 X4904.00 Y4283.00
G1 X4843.00 Y3985.00
G1 X4883.00 Y3932.00
G1 X4875.00 Y3913.00
G1 X4725.00 Y3960.00
G1 X4466.00 Y3855.00
G1 X4015.00 Y3705.00
G1 X3950.00 Y3695.00
G1 X3955.00 Y3664.00
G1 X4021.00 Y3644.00
G1 X4109.00 Y3576.00
G1 X4640.00 Y3190.00
G1 X4758.00 Y3170.00
G1 X4780.00 Y3166.00
G1 X4770.00 Y3088.00
G1 X4755.00 Y2975.00
G1 X4749.00 Y2583.00
G1 X4861.00 Y2351.00
G1 X4905.00 Y2308.00
G1 X4788.00 Y2314.00
G1 X4587.00 Y2334.00
G1 X3620.00 Y2833.00
G1 X3208.00 Y3197.00
G1 X3047.00 Y3399.00
G1 X3127.00 Y3690.00
G1 X3174.00 Y3975.00
G1 X2954.00 Y4627.00
G1 X2708.00 Y5385.00
G1 X2946.00 Y6042.00
G1 X3082.00 Y6083.00
G1 X3648.00 Y5838.00
G1 X3730.00 Y5871.00
G1 X3669.00 Y5894.00
G1 X3442.00 Y5934.00
G1 X3123.00 Y6123.00
G1 X3096.00 Y6201.00
G1 X3158.00 Y6171.00
G1 X3725.00 Y5943.00
G1 X4165.00 Y6006.00
G1 X4392.00 Y5984.00
G1 X4464.00 Y5969.00
G1 X4305.00 Y6379.00
G1 X3480.00 Y6641.00
G1 X3150.00 Y6498.00
G1 X2763.00 Y6369.00
G1 X2691.00 Y6409.00
G1 X2660.00 Y6482.00
G1 X3081.00 Y6877.00
G1 X3943.00 Y6830.00
G1 X4535.00 Y6524.00
G1 X4704.00 Y6230.00
G1 X4749.00 Y5858.00
G1 X4773.00 Y5642.00
G1 X4796.00 Y5641.00
G1 X4810.00 Y5819.00
G1 X4625.00 Y6579.00
G1 X4422.00 Y6764.00
G1 X3802.00 Y6986.00
G1 X2875.00 Y6838.00
G1 X2930.00 Y6919.00
G1 X3995.00 Y7612.00
G1 X4748.00 Y8052.00
G1 X5034.00 Y8413.00
G1 X5068.00 Y8460.00
G1 X5066.00 Y7655.00
G1 X7533.00 Y7915.00
G1 X7561.00 Y7800.00
G1 X7304.00 Y8310.00
G1 X7348.00 Y8248.00
G1 X2585.00 Y7638.00
G1 X2413.00 Y7365.00
G1 X2256.00 Y7135.00
G1 X1927.00 Y6662.00
G1 X1375.00 Y5820.00
G1 X1313.00 Y5726.00
G1 X1495.00 Y6339.00
G1 X1915.00 Y6909.00
G1 X2158.00 Y7219.00
G1 X2343.00 Y7450.00
G1 X2675.00 Y7867.00
G1 X2908.00 Y8155.00
G1 X2803.00 Y7987.00
G1 X3888.00 Y6903.00
G1 X3894.00 Y6909.00
G1 X3907.00 Y6904.00
G1 X6911.00 Y6788.00
G1 X6940.00 Y6746.00
G1 X6661.00 Y6856.00
G1 X6137.00 Y6841.00
G1 X5650.00 Y6672.00
G1 X5619.00 Y6664.00
G1 X5997.00 Y6830.00
G1 X6680.00 Y6886.00
G1 X4425.00 Y6694.00
G1 X4455.00 Y6668.00
G1 X4420.00 Y6689.00
G1 X4050.00 Y6854.00
G1 X4020.00 Y6876.00
G1 X7106.00 Y6484.00
G1 X7215.00 Y6065.00
G1 X7222.00 Y5555.00
G1 X7207.00 Y5660.00
G1 X6765.00 Y6436.00
G1 X6249.00 Y6625.00
G1 X5583.00 Y6377.00
G1 X5390.00 Y6012.00
G1 X5521.00 Y5970.00
G1 X5742.00 Y5961.00
G1 X6180.00 Y5889.00
G1 X6767.00 Y6151.00
G1 X6815.00 Y6209.00
G1 X6830.00 Y6205.00
G1 X6761.00 Y6091.00
G1 X6193.00 Y5841.00
G1 X6070.00 Y5808.00
G1 X6192.00 Y5780.00
G1 X6841.00 Y6096.00
G1 X6935.00 Y6170.00
G1 X7156.00 Y5515.00
G1 X7078.00 Y5005.00
G1 X6614.00 Y3779.00
G1 X6087.00 Y3039.00
G1 X5060.00 Y2335.00
G1 X4873.00 Y2418.00
G1 X4803.00 Y2701.00
G1 X4836.00 Y3126.00
G1 X4842.00 Y3157.00
G1 X4958.00 Y3163.00
G1 X5470.00 Y3359.00
G1 X5595.00 Y3510.00
G1 X5688.00 Y3600.00
G1 X5768.00 Y3653.00
G1 X5689.00 Y3681.00
G1 X5385.00 Y3832.00
G1 X5065.00 Y3931.00
G1 X5014.00 Y3910.00
G1 X5032.00 Y3953.00
G1 X5025.00 Y4193.00
G1 X5032.00 Y4300.00
G1 X5159.00 Y4364.00
G1 X5182.00 Y4388.00
G1 X5217.00 Y4364.00
G1 X5425.00 Y4413.00
G1 X5394.00 Y4673.00
G1 X5301.00 Y5075.00
G1 X5263.00 Y5764.00
G1 X5344.00 Y6275.00
G1 X5735.00 Y6649.00
G1 X6495.00 Y6815.00
G1 X6670.00 Y6799.00
G1 X4385.00 Y6157.00
G1 X4378.00 Y6120.00
G1 X3904.00 Y6519.00
G1 X3131.00 Y6390.00
G1 X2904.00 Y6318.00
G1 X2925.00 Y6330.00
G1 X3185.00 Y6454.00
G1 X3503.00 Y6591.00
G1 X3695.00 Y6607.00
G1 X3915.00 Y6569.00
G1 X6840.00 Y6311.00
G1 X6760.00 Y6336.00
G1 X5900.00 Y6448.00
G1 X5500.00 Y6113.00
G1 X5451.00 Y6055.00
G1 X5493.00 Y6153.00
G1 X6000.00 Y6551.00
G1 X6215.00 Y6566.00
G1 X6425.00 Y6545.00
G1 X2420.00 Y6395.00
G1 X2371.00 Y6313.00
G1 X2344.00 Y6270.00
G1 X2458.00 Y6478.00
G1 X2474.00 Y6483.00
G1 X2083.00 Y5925.00
G1 X1975.00 Y5725.00
G1 X1856.00 Y5507.00
G1 X1804.00 Y5423.00
G1 X2160.00 Y6130.00
G1 X2266.00 Y6295.00
G1 X2416.00 Y6500.00
G1 X2369.00 Y6419.00
G1 X2834.00 Y6256.00
G1 X2954.00 Y6197.00
G1 X2983.00 Y6174.00
G1 X2938.00 Y6123.00
G1 X2649.00 Y5375.00
G1 X2858.00 Y4681.00
G1 X3119.00 Y4055.00
G1 X3066.00 Y3694.00
G1 X3008.00 Y3487.00
G1 X2994.00 Y3419.00
G1 X2945.00 Y3487.00
G1 X2715.00 Y3865.00
G1 X2399.00 Y5094.00
G1 X2406.00 Y5735.00
G1 X2460.00 Y6050.00
G1 X2602.00 Y6500.00
G1 X2610.00 Y6468.00
G1 X3727.00 Y6410.00
G1 X3766.00 Y6435.00
G1 X3802.00 Y6441.00
G1 X3825.00 Y6300.00
G1 X3722.00 Y6240.00
G1 X3600.00 Y6364.00
G1 X3658.00 Y6449.00
G1 X3678.00 Y6423.00
G1 X3573.00 Y6262.00
G1 X3789.00 Y6200.00
G1 X3892.00 Y6402.00
G1 X3911.00 Y6427.00
G1 X3962.00 Y6300.00
G1 X3719.00 Y6060.00
G1 X3486.00 Y6205.00
G1 X3521.00 Y6429.00
G1 X3544.00 Y6450.00
G1 X3545.00 Y6377.00
G1 X6023.00 Y6220.00
G1 X6186.00 Y6132.00
G1 X6339.00 Y6233.00
G1 X6345.00 Y6379.00
G1 X6379.00 Y6391.00
G1 X6351.00 Y6079.00
G1 X6175.00 Y6000.00
G1 X6010.00 Y6073.00
G1 X5942.00 Y6313.00
G1 X6023.00 Y6420.00
G1 X6015.00 Y6379.00
G1 X6226.00 Y6395.00
G1 X6274.00 Y6389.00
G1 X6269.00 Y6235.00
G1 X6127.00 Y6195.00
G1 X6092.00 Y6398.00
G1 X6118.00 Y6400.00
G1 X6148.00 Y6369.00
G1 X3491.00 Y6105.00
G1 X3635.00 Y6013.00
G1 X3675.00 Y6000.00
G1 X3630.00 Y6005.00
G1 X3294.00 Y6132.00
G1 X3170.00 Y6254.00
G1 X3428.00 Y6406.00
G1 X3420.00 Y6354.00
G1 X4282.00 Y6161.00
G1 X4340.00 Y6079.00
G1 X4283.00 Y6078.00
G1 X4110.00 Y6055.00
G1 X3810.00 Y6001.00
G1 X3775.00 Y6002.00
G1 X3806.00 Y6011.00
G1 X4011.00 Y6223.00
G1 X4005.00 Y6383.00
G1 X4070.00 Y6363.00
G1 X6750.00 Y6219.00
G1 X6575.00 Y6050.00
G1 X6291.00 Y5950.00
G1 X6308.00 Y5971.00
G1 X6454.00 Y6124.00
G1 X6460.00 Y6369.00
G1 X6533.00 Y6359.00
G1 X6069.00 Y5965.00
G1 X6094.00 Y5951.00
G1 X5765.00 Y6017.00
G1 X5588.00 Y6055.00
G1 X5540.00 Y6061.00
G1 X5716.00 Y6256.00
G1 X5887.00 Y6366.00
G1 X5879.00 Y6320.00
G1 X3025.00 Y6213.00
G1 X2998.00 Y6233.00
G1 X2975.00 Y6261.00
G1 X3027.00 Y6280.00
G1 X3110.00 Y6310.00
G1 X3149.00 Y6330.00
G1 X3089.00 Y6271.00
G1 X2286.00 Y6157.00
G1 X2213.00 Y6032.00
G1 X2180.00 Y5989.00
G1 X2336.00 Y6260.00
G1 X2333.00 Y6243.00
G1 X1260.00 Y5775.00
G1 X890.00 Y4820.00
G1 X524.00 Y4083.00
G1 X580.00 Y4271.00
G1 X685.00 Y4610.00
G1 X1172.00 Y5855.00
G1 X1368.00 Y6185.00
G1 X1337.00 Y6058.00
G1 X7590.00 Y5040.00
G1 X7611.00 Y4869.00
G1 X7630.00 Y4174.00
G1 X7645.00 Y3520.00
G1 X7671.00 Y3364.00
G1 X7764.00 Y3001.00
G1 X7958.00 Y2650.00
G1 X8601.00 Y2029.00
G1 X9335.00 Y1335.00
G1 X9570.00 Y404.00
G1 X9557.00 Y285.00
G1 X9530.00 Y395.00
G1 X8535.00 Y1660.00
G1 X7843.00 Y2251.00
G1 X7478.00 Y2995.00
G1 X7457.00 Y3340.00
G1 X7479.00 Y3770.00
G1 X7524.00 Y4690.00
G1 X7485.00 Y5430.00
G1 X7431.00 Y5794.00
G1 X7505.00 Y5519.00
G1 X1871.00 Y4575.00
G1 X1875.00 Y3578.00
G1 X1955.00 Y2873.00
G1 X2100.00 Y2251.00
G1 X2126.00 Y2153.00
G1 X1988.00 Y2445.00
G1 X1729.00 Y3405.00
G1 X1705.00 Y3940.00
G1 X1766.00 Y4737.00
G1 X1949.00 Y5465.00
G1 X2027.00 Y5666.00
G1 X1995.00 Y5519.00
G1 X4675.00 Y4633.00
G1 X4646.00 Y4617.00
G1 X4525.00 Y4579.00
G1 X4484.00 Y4512.00
G1 X4469.00 Y4495.00
G1 X4477.00 Y4657.00
G1 X4573.00 Y4730.00
G1 X4618.00 Y4716.00
G1 X5346.00 Y4404.00
G1 X5332.00 Y4436.00
G1 X5354.00 Y4559.00
G1 X5352.00 Y4642.00
G1 X5371.00 Y4613.00
G1 X5396.00 Y4539.00
G1 X4590.00 Y4425.00
G1 X4540.00 Y4490.00
G1 X4628.00 Y4564.00
G1 X4651.00 Y4560.00
G1 X4809.00 Y4400.00
G1 X4750.00 Y4452.00
G1 X4815.00 Y4410.00
G1 X8016.00 Y3970.00
G1 X8025.00 Y3935.00
G1 X7892.00 Y4210.00
G1 X7883.00 Y4290.00
G1 X7949.00 Y4115.00
G1 X4974.00 Y3962.00
G1 X4940.00 Y3950.00
G1 X4883.00 Y4087.00
G1 X4950.00 Y4235.00
G1 X4980.00 Y4148.00
G1 X1211.00 Y4124.00
G1 X1216.00 Y4137.00
G1 X1217.00 Y4118.00
G1 X4927.00 Y3825.00
G1 X4889.00 Y3658.00
G1 X4862.00 Y3620.00
G1 X4745.00 Y3655.00
G1 X4463.00 Y3680.00
G1 X4246.00 Y3657.00
G1 X4275.00 Y3694.00
G1 X4460.00 Y3786.00
G1 X4846.00 Y3863.00
G1 X5342.00 Y3792.00
G1 X5485.00 Y3691.00
G1 X5565.00 Y3640.00
G1 X5495.00 Y3640.00
G1 X5350.00 Y3660.00
G1 X5061.00 Y3645.00
G1 X4946.00 Y3663.00
G1 X5052.00 Y3868.00
G1 X5227.00 Y3866.00
G1 X4856.00 Y3560.00
G1 X4867.00 Y3547.00
G1 X4807.00 Y3305.00
G1 X4668.00 Y3245.00
G1 X4402.00 Y3349.00
G1 X4184.00 Y3560.00
G1 X4152.00 Y3605.00
G1 X4279.00 Y3606.00
G1 X4480.00 Y3622.00
G1 X4738.00 Y3594.00
G1 X5498.00 Y3576.00
G1 X5566.00 Y3568.00
G1 X5506.00 Y3484.00
G1 X4962.00 Y3223.00
G1 X4849.00 Y3217.00
G1 X4855.00 Y3256.00
G1 X4921.00 Y3527.00
G1 X4978.00 Y3562.00
G1 X5095.00 Y3593.00
G1 X5352.00 Y3600.00
G1 X4255.00 Y2375.00
G1 X4800.00 Y2255.00
G1 X5670.00 Y2558.00
G1 X5787.00 Y2659.00
G1 X5810.00 Y2672.00
G1 X5674.00 Y2372.00
G1 X5211.00 Y1986.00
G1 X3675.00 Y2426.00
G1 X3193.00 Y2895.00
G1 X3050.00 Y3239.00
G1 X3050.00 Y3274.00
G1 X3193.00 Y3133.00
G1 X3448.00 Y2896.00
G0 X2431.00 Y3867.00
G1 X2420.00 Y3845.00
G1 X2496.00 Y3605.00
G1 X3036.00 Y2355.00
G1 X3545.00 Y1137.00
G1 X3505.00 Y593.00
G1 X3236.00 Y161.00
G1 X3215.00 Y90.00
G1 X3282.00 Y126.00
G1 X3606.00 Y780.00
G1 X3538.00 Y1400.00
G1 X3100.00 Y2350.00
G1 X2699.00 Y3200.00
G1 X2554.00 Y3607.00
G1 X2455.00 Y3874.00
G1 X2431.00 Y3867.00
M2 ; End of program
