; G-code generated from SVG
G21 ; Set units to mm
G90 ; Absolute positioning
G0 X5000.00 Y9103.00
G1 X4286.00 Y8908.00
G1 X3407.00 Y8070.00
G1 X3252.00 Y7480.00
G1 X3398.00 Y7099.00
G1 X3712.00 Y6900.00
G1 X3814.00 Y6840.00
G1 X3780.00 Y6525.00
G1 X3550.00 Y5781.00
G1 X3103.00 Y5530.00
G1 X2930.00 Y5650.00
G1 X2960.00 Y5700.00
G1 X2985.00 Y5786.00
G1 X2862.00 Y5738.00
G1 X2835.00 Y5639.00
G1 X2950.00 Y5465.00
G1 X3100.00 Y5436.00
G1 X3380.00 Y5506.00
G1 X3850.00 Y6233.00
G1 X4047.00 Y6726.00
G1 X4138.00 Y6774.00
G1 X4168.00 Y6768.00
G1 X4144.00 Y6716.00
G1 X4080.00 Y6245.00
G1 X4056.00 Y5887.00
G1 X3585.00 Y5265.00
G1 X3240.00 Y4785.00
G1 X3265.00 Y4518.00
G1 X3279.00 Y4471.00
G1 X3182.00 Y4414.00
G1 X2840.00 Y4020.00
G1 X2892.00 Y3884.00
G1 X3050.00 Y3808.00
G1 X3120.00 Y3861.00
G1 X3042.00 Y3911.00
G1 X2938.00 Y3992.00
G1 X3109.00 Y4254.00
G1 X3305.00 Y4369.00
G1 X3470.00 Y4009.00
G1 X3248.00 Y3773.00
G1 X2997.00 Y3504.00
G1 X2917.00 Y3250.00
G1 X2961.00 Y3150.00
G1 X3010.00 Y3243.00
G1 X3087.00 Y3463.00
G1 X3504.00 Y3881.00
G1 X3527.00 Y3621.00
G1 X3333.00 Y3131.00
G1 X3179.00 Y2822.00
G1 X3316.00 Y2341.00
G1 X3487.00 Y2229.00
G1 X3750.00 Y1984.00
G1 X3645.00 Y1611.00
G1 X3580.00 Y1519.00
G1 X3841.00 Y1684.00
G1 X3861.00 Y1942.00
G1 X3547.00 Y2307.00
G1 X3259.00 Y2623.00
G1 X3413.00 Y3073.00
G1 X3580.00 Y3398.00
G1 X3591.00 Y3914.00
G1 X3573.00 Y3978.00
G1 X3708.00 Y4136.00
G1 X3900.00 Y4356.00
G1 X3958.00 Y4416.00
G1 X3965.00 Y4351.00
G1 X4044.00 Y4027.00
G1 X4096.00 Y3557.00
G1 X4079.00 Y3486.00
G1 X4001.00 Y3446.00
G1 X3613.00 Y3040.00
G1 X3613.00 Y2732.00
G1 X3852.00 Y2417.00
G1 X3929.00 Y2438.00
G1 X3828.00 Y2562.00
G1 X3699.00 Y2798.00
G1 X3834.00 Y3205.00
G1 X4037.00 Y3350.00
G1 X4022.00 Y3257.00
G1 X4000.00 Y2853.00
G1 X4117.00 Y2520.00
G1 X4209.00 Y2102.00
G1 X4115.00 Y1844.00
G1 X4028.00 Y1488.00
G1 X4134.00 Y1296.00
G1 X4140.00 Y1426.00
G1 X4122.00 Y1580.00
G1 X4192.00 Y1787.00
G1 X4304.00 Y2175.00
G1 X4200.00 Y2572.00
G1 X4089.00 Y2905.00
G1 X4136.00 Y3326.00
G1 X4130.00 Y4082.00
G1 X4050.00 Y4450.00
G1 X4170.00 Y4644.00
G1 X4298.00 Y4814.00
G1 X4451.00 Y5047.00
G1 X4675.00 Y5516.00
G1 X4649.00 Y6105.00
G1 X4604.00 Y6400.00
G1 X4622.00 Y6620.00
G1 X4667.00 Y6708.00
G1 X4672.00 Y6663.00
G1 X4678.00 Y6273.00
G1 X4795.00 Y5955.00
G1 X4821.00 Y5727.00
G1 X4590.00 Y4895.00
G1 X4370.00 Y4240.00
G1 X4470.00 Y3570.00
G1 X4509.00 Y3455.00
G1 X4455.00 Y3374.00
G1 X4306.00 Y2915.00
G1 X4378.00 Y2629.00
G1 X4677.00 Y2573.00
G1 X4654.00 Y3321.00
G1 X4616.00 Y3427.00
G1 X4659.00 Y3479.00
G1 X4710.00 Y3530.00
G1 X4724.00 Y3478.00
G1 X4795.00 Y3175.00
G1 X4897.00 Y2630.00
G1 X4864.00 Y2280.00
G1 X4669.00 Y1901.00
G1 X4490.00 Y1528.00
G1 X4689.00 Y1072.00
G1 X4814.00 Y1083.00
G1 X4897.00 Y1198.00
G1 X4877.00 Y1264.00
G1 X4796.00 Y1221.00
G1 X4740.00 Y1160.00
G1 X4582.00 Y1420.00
G1 X4745.00 Y1840.00
G1 X4869.00 Y2030.00
G1 X4990.00 Y2575.00
G1 X4856.00 Y3310.00
G1 X4810.00 Y3524.00
G1 X4817.00 Y3629.00
G1 X4985.00 Y3760.00
G1 X4996.00 Y3622.00
G1 X5127.00 Y3030.00
G1 X5264.00 Y2450.00
G1 X5199.00 Y2082.00
G1 X5065.00 Y1855.00
G1 X5012.00 Y1722.00
G1 X5119.00 Y1766.00
G1 X5357.00 Y2395.00
G1 X5186.00 Y3145.00
G1 X5123.00 Y3962.00
G1 X5175.00 Y4180.00
G1 X5318.00 Y4372.00
G1 X5275.00 Y4204.00
G1 X5177.00 Y3640.00
G1 X5199.00 Y3355.00
G1 X5494.00 Y2609.00
G1 X5591.00 Y2402.00
G1 X5546.00 Y2324.00
G1 X5503.00 Y1289.00
G1 X5606.00 Y1230.00
G1 X5584.00 Y1341.00
G1 X5510.00 Y2005.00
G1 X5629.00 Y2270.00
G1 X5680.00 Y2090.00
G1 X5676.00 Y1840.00
G1 X5676.00 Y1742.00
G1 X5742.00 Y1738.00
G1 X5777.00 Y2023.00
G1 X5723.00 Y2302.00
G1 X5697.00 Y2389.00
G1 X5723.00 Y2447.00
G1 X5781.00 Y2841.00
G1 X5698.00 Y3135.00
G1 X5622.00 Y3461.00
G1 X5696.00 Y3847.00
G1 X5822.00 Y4433.00
G1 X5595.00 Y4960.00
G1 X5532.00 Y5045.00
G1 X5521.00 Y5170.00
G1 X5465.00 Y5500.00
G1 X5414.00 Y5760.00
G1 X5513.00 Y6105.00
G1 X5566.00 Y6658.00
G1 X5576.00 Y6710.00
G1 X5620.00 Y6653.00
G1 X5601.00 Y6105.00
G1 X5828.00 Y4994.00
G1 X5949.00 Y4802.00
G1 X6057.00 Y4651.00
G1 X6111.00 Y4591.00
G1 X6114.00 Y4363.00
G1 X6117.00 Y4135.00
G1 X6164.00 Y3905.00
G1 X6207.00 Y3562.00
G1 X6193.00 Y3439.00
G1 X6123.00 Y3471.00
G1 X6015.00 Y3580.00
G1 X5947.00 Y3650.00
G1 X5900.00 Y3601.00
G1 X6124.00 Y3351.00
G1 X6170.00 Y3326.00
G1 X6139.00 Y3224.00
G1 X6080.00 Y2881.00
G1 X6136.00 Y2545.00
G1 X6176.00 Y2181.00
G1 X6055.00 Y1900.00
G1 X5972.00 Y1725.00
G1 X5945.00 Y1499.00
G1 X5945.00 Y1354.00
G1 X5982.00 Y1279.00
G1 X6139.00 Y1107.00
G1 X6400.00 Y1266.00
G1 X6304.00 Y1345.00
G1 X6299.00 Y1294.00
G1 X6285.00 Y1205.00
G1 X6053.00 Y1353.00
G1 X6036.00 Y1520.00
G1 X6140.00 Y1855.00
G1 X6280.00 Y2294.00
G1 X6198.00 Y2675.00
G1 X6184.00 Y3010.00
G1 X6267.00 Y3277.00
G1 X6482.00 Y3122.00
G1 X6585.00 Y2835.00
G1 X6555.00 Y2665.00
G1 X6458.00 Y2534.00
G1 X6410.00 Y2402.00
G1 X6542.00 Y2480.00
G1 X6536.00 Y3207.00
G1 X6311.00 Y3371.00
G1 X6287.00 Y3434.00
G1 X6294.00 Y3635.00
G1 X6257.00 Y3945.00
G1 X6206.00 Y4453.00
G1 X6322.00 Y4363.00
G1 X6647.00 Y3970.00
G1 X6625.00 Y3870.00
G1 X6625.00 Y3495.00
G1 X6831.00 Y3076.00
G1 X7018.00 Y2591.00
G1 X6768.00 Y2252.00
G1 X6531.00 Y1996.00
G1 X6531.00 Y1643.00
G1 X6631.00 Y1576.00
G1 X6615.00 Y1699.00
G1 X6696.00 Y2065.00
G1 X6853.00 Y2194.00
G1 X7064.00 Y2417.00
G1 X7056.00 Y2903.00
G1 X6925.00 Y3110.00
G1 X6704.00 Y3660.00
G1 X6712.00 Y3843.00
G1 X6725.00 Y3911.00
G1 X6920.00 Y3715.00
G1 X7210.00 Y3240.00
G1 X7234.00 Y3165.00
G1 X7306.00 Y3196.00
G1 X7276.00 Y3421.00
G1 X7027.00 Y3750.00
G1 X6823.00 Y3958.00
G1 X6781.00 Y4053.00
G1 X6925.00 Y4398.00
G1 X7193.00 Y4241.00
G1 X7246.00 Y4034.00
G1 X7168.00 Y4000.00
G1 X7100.00 Y3953.00
G1 X7201.00 Y3905.00
G1 X7357.00 Y4019.00
G1 X7104.00 Y4416.00
G1 X6972.00 Y4485.00
G1 X6954.00 Y4513.00
G1 X6987.00 Y4775.00
G1 X6635.00 Y5308.00
G1 X6331.00 Y5619.00
G1 X6196.00 Y5922.00
G1 X6180.00 Y6245.00
G1 X6124.00 Y6709.00
G1 X6153.00 Y6790.00
G1 X6217.00 Y6733.00
G1 X6400.00 Y6252.00
G1 X6716.00 Y5641.00
G1 X7134.00 Y5470.00
G1 X7402.00 Y5706.00
G1 X7355.00 Y5780.00
G1 X7306.00 Y5708.00
G1 X7045.00 Y5575.00
G1 X6491.00 Y6325.00
G1 X6482.00 Y6555.00
G1 X6444.00 Y6851.00
G1 X6482.00 Y6879.00
G1 X6638.00 Y6947.00
G1 X6834.00 Y7083.00
G1 X7007.00 Y7559.00
G1 X6463.00 Y8570.00
G1 X6117.00 Y8834.00
G1 X5580.00 Y9051.00
G1 X5000.00 Y9103.00
G1 X5848.00 Y8828.00
G1 X5935.00 Y8800.00
G1 X6027.00 Y8775.00
G1 X6474.00 Y8426.00
G1 X6854.00 Y7841.00
G1 X6865.00 Y7264.00
G1 X6864.00 Y7335.00
G1 X6870.00 Y7566.00
G1 X6838.00 Y7454.00
G1 X6796.00 Y7255.00
G1 X6753.00 Y7187.00
G1 X6769.00 Y7238.00
G1 X6775.00 Y7760.00
G1 X6595.00 Y8132.00
G1 X6556.00 Y8137.00
G1 X6589.00 Y7979.00
G1 X6720.00 Y7467.00
G1 X6521.00 Y7019.00
G1 X6468.00 Y6990.00
G1 X6526.00 Y7057.00
G1 X6678.00 Y7436.00
G1 X6658.00 Y7486.00
G1 X6640.00 Y7406.00
G1 X6624.00 Y7289.00
G1 X6553.00 Y7143.00
G1 X6563.00 Y7212.00
G1 X6580.00 Y7482.00
G1 X6247.00 Y8313.00
G1 X6113.00 Y8418.00
G1 X6171.00 Y8270.00
G1 X6419.00 Y7767.00
G1 X6478.00 Y7220.00
G1 X6465.00 Y7165.00
G1 X6462.00 Y7268.00
G1 X6446.00 Y7370.00
G1 X6426.00 Y7293.00
G1 X6293.00 Y6960.00
G1 X6284.00 Y6994.00
G1 X6370.00 Y7196.00
G1 X6313.00 Y7129.00
G1 X6184.00 Y6952.00
G1 X6209.00 Y7023.00
G1 X6190.00 Y7841.00
G1 X5492.00 Y8868.00
G1 X5360.00 Y8916.00
G1 X5468.00 Y8800.00
G1 X5804.00 Y8415.00
G1 X6170.00 Y7532.00
G1 X6130.00 Y7072.00
G1 X5962.00 Y6878.00
G1 X5971.00 Y6916.00
G1 X6106.00 Y7206.00
G1 X6057.00 Y7150.00
G1 X5844.00 Y6860.00
G1 X5848.00 Y6908.00
G1 X5960.00 Y7108.00
G1 X5972.00 Y7192.00
G1 X5922.00 Y7138.00
G1 X5796.00 Y6905.00
G1 X5724.00 Y6850.00
G1 X5740.00 Y6883.00
G1 X5855.00 Y7125.00
G1 X5855.00 Y7557.00
G1 X5729.00 Y8105.00
G1 X5273.00 Y8890.00
G1 X5338.00 Y8727.00
G1 X5633.00 Y8094.00
G1 X5778.00 Y7281.00
G1 X5711.00 Y6990.00
G1 X5566.00 Y6830.00
G1 X5550.00 Y6834.00
G1 X5591.00 Y6900.00
G1 X5690.00 Y7160.00
G1 X5672.00 Y7180.00
G1 X5637.00 Y7121.00
G1 X5518.00 Y6884.00
G1 X5444.00 Y6820.00
G1 X5463.00 Y6883.00
G1 X5546.00 Y7126.00
G1 X5535.00 Y7179.00
G1 X5500.00 Y7110.00
G1 X5404.00 Y6874.00
G1 X5360.00 Y6871.00
G1 X5427.00 Y7240.00
G1 X5399.00 Y7657.00
G1 X5331.00 Y7656.00
G1 X5329.00 Y7565.00
G1 X5340.00 Y7322.00
G1 X5316.00 Y7040.00
G1 X5276.00 Y6890.00
G1 X5260.00 Y6855.00
G1 X5265.00 Y6920.00
G1 X5262.00 Y7170.00
G1 X5221.00 Y6979.00
G1 X5177.00 Y6803.00
G1 X5164.00 Y6984.00
G1 X5149.00 Y7171.00
G1 X5128.00 Y7172.00
G1 X5118.00 Y6986.00
G1 X5103.00 Y6803.00
G1 X5048.00 Y7011.00
G1 X5010.00 Y7167.00
G1 X4998.00 Y7085.00
G1 X5010.00 Y6940.00
G1 X5015.00 Y6871.00
G1 X4949.00 Y7055.00
G1 X4950.00 Y7570.00
G1 X4985.00 Y7910.00
G1 X5052.00 Y8425.00
G1 X5092.00 Y8880.00
G1 X5016.00 Y8735.00
G1 X4843.00 Y7355.00
G1 X4916.00 Y6868.00
G1 X4914.00 Y6818.00
G1 X4810.00 Y6976.00
G1 X4771.00 Y7100.00
G1 X4736.00 Y7178.00
G1 X4800.00 Y6893.00
G1 X4829.00 Y6820.00
G1 X4697.00 Y6962.00
G1 X4626.00 Y7153.00
G1 X4584.00 Y7165.00
G1 X4642.00 Y6965.00
G1 X4697.00 Y6877.00
G1 X4727.00 Y6824.00
G1 X4679.00 Y6850.00
G1 X4504.00 Y7139.00
G1 X4537.00 Y7710.00
G1 X4546.00 Y7912.00
G1 X4469.00 Y7817.00
G1 X4413.00 Y7149.00
G1 X4516.00 Y6904.00
G1 X4552.00 Y6840.00
G1 X4483.00 Y6903.00
G1 X4349.00 Y7130.00
G1 X4315.00 Y7189.00
G1 X4302.00 Y7147.00
G1 X4413.00 Y6915.00
G1 X4411.00 Y6865.00
G1 X4215.00 Y7160.00
G1 X4179.00 Y7214.00
G1 X4197.00 Y7082.00
G1 X4307.00 Y6900.00
G1 X4272.00 Y6900.00
G1 X4083.00 Y7423.00
G1 X4205.00 Y7915.00
G1 X4634.00 Y8622.00
G1 X4928.00 Y8901.00
G1 X4917.00 Y8930.00
G1 X4604.00 Y8715.00
G1 X4101.00 Y7904.00
G1 X3993.00 Y7415.00
G1 X4064.00 Y7025.00
G1 X4104.00 Y6931.00
G1 X4010.00 Y7032.00
G1 X3954.00 Y7150.00
G1 X3922.00 Y7210.00
G1 X4001.00 Y6970.00
G1 X4029.00 Y6926.00
G1 X3938.00 Y7000.00
G1 X3849.00 Y7273.00
G1 X3822.00 Y7370.00
G1 X3812.00 Y7260.00
G1 X3780.00 Y7249.00
G1 X3795.00 Y7600.00
G1 X4189.00 Y8395.00
G1 X4667.00 Y8846.00
G1 X4697.00 Y8910.00
G1 X4460.00 Y8784.00
G1 X3700.00 Y7226.00
G1 X3716.00 Y7153.00
G1 X3695.00 Y7176.00
G1 X3633.00 Y7403.00
G1 X3611.00 Y7488.00
G1 X3596.00 Y7398.00
G1 X3756.00 Y7031.00
G1 X3686.00 Y7074.00
G1 X3586.00 Y7220.00
G1 X3548.00 Y7573.00
G1 X3735.00 Y8097.00
G1 X3752.00 Y8221.00
G1 X3618.00 Y8069.00
G1 X3456.00 Y7500.00
G1 X3502.00 Y7217.00
G1 X3516.00 Y7173.00
G1 X3475.00 Y7242.00
G1 X3420.00 Y7503.00
G1 X3406.00 Y7570.00
G1 X3380.00 Y7483.00
G1 X3422.00 Y7251.00
G1 X3397.00 Y7269.00
G1 X3508.00 Y8059.00
G1 X3862.00 Y8495.00
G1 X4254.00 Y8786.00
G1 X4348.00 Y8803.00
G1 X4378.00 Y8786.00
G1 X4439.00 Y8833.00
G1 X4565.00 Y8911.00
G1 X4969.00 Y9010.00
G1 X5360.00 Y8999.00
G1 X6387.00 Y6665.00
G1 X6393.00 Y6605.00
G1 X6356.00 Y6674.00
G1 X6295.00 Y6776.00
G1 X6288.00 Y6823.00
G1 X6365.00 Y6778.00
G1 X3963.00 Y6763.00
G1 X3906.00 Y6680.00
G1 X3878.00 Y6635.00
G1 X3884.00 Y6695.00
G1 X3901.00 Y6788.00
G1 X3949.00 Y6815.00
G1 X3989.00 Y6805.00
G1 X6086.00 Y6250.00
G1 X6195.00 Y5650.00
G1 X6238.00 Y5457.00
G1 X6231.00 Y5277.00
G1 X6189.00 Y5122.00
G1 X5976.00 Y5420.00
G1 X5895.00 Y5691.00
G1 X5952.00 Y6084.00
G1 X5993.00 Y6375.00
G1 X5930.00 Y6692.00
G1 X5902.00 Y6749.00
G1 X5944.00 Y6752.00
G1 X5993.00 Y6752.00
G1 X6024.00 Y6701.00
G1 X4331.00 Y6683.00
G1 X4269.00 Y6264.00
G1 X4316.00 Y6040.00
G1 X4341.00 Y5587.00
G1 X4116.00 Y5178.00
G1 X4049.00 Y5100.00
G1 X4014.00 Y5315.00
G1 X4086.00 Y5681.00
G1 X4175.00 Y6225.00
G1 X4242.00 Y6714.00
G1 X4292.00 Y6746.00
G1 X4341.00 Y6740.00
G1 X4540.00 Y6659.00
G1 X4560.00 Y6080.00
G1 X4610.00 Y5663.00
G1 X4366.00 Y5095.00
G1 X4218.00 Y4870.00
G1 X4108.00 Y4716.00
G1 X4065.00 Y4668.00
G1 X4063.00 Y4821.00
G1 X4069.00 Y4980.00
G1 X4286.00 Y5251.00
G1 X4455.00 Y5697.00
G1 X4398.00 Y6096.00
G1 X4356.00 Y6380.00
G1 X4382.00 Y6579.00
G1 X4434.00 Y6690.00
G1 X4507.00 Y6723.00
G1 X4557.00 Y6716.00
G1 X5866.00 Y6125.00
G1 X5819.00 Y5584.00
G1 X6084.00 Y5102.00
G1 X6169.00 Y5001.00
G1 X6155.00 Y4933.00
G1 X6135.00 Y4790.00
G1 X6128.00 Y4715.00
G1 X6101.00 Y4747.00
G1 X6026.00 Y4862.00
G1 X5894.00 Y5070.00
G1 X5691.00 Y5465.00
G1 X5690.00 Y6085.00
G1 X5741.00 Y6310.00
G1 X5705.00 Y6702.00
G1 X5737.00 Y6723.00
G1 X5791.00 Y6728.00
G1 X5842.00 Y6653.00
G1 X4870.00 Y6465.00
G1 X4830.00 Y6220.00
G1 X4792.00 Y6227.00
G1 X4765.00 Y6648.00
G1 X4781.00 Y6700.00
G1 X4845.00 Y6698.00
G1 X4910.00 Y6680.00
G1 X5481.00 Y6334.00
G1 X5380.00 Y6015.00
G1 X5370.00 Y6057.00
G1 X5355.00 Y6225.00
G1 X5329.00 Y6475.00
G1 X5311.00 Y6647.00
G1 X5308.00 Y6695.00
G1 X5384.00 Y6698.00
G1 X5453.00 Y6695.00
G1 X5468.00 Y6655.00
G1 X5065.00 Y6079.00
G1 X5182.00 Y5592.00
G1 X5223.00 Y5469.00
G1 X5211.00 Y5387.00
G1 X5093.00 Y4934.00
G1 X5080.00 Y5177.00
G1 X4980.00 Y5765.00
G1 X4924.00 Y6030.00
G1 X4975.00 Y6517.00
G1 X5010.00 Y6684.00
G1 X5038.00 Y6690.00
G1 X5065.00 Y6690.00
G1 X5058.00 Y6603.00
G1 X5235.00 Y6480.00
G1 X5270.00 Y6150.00
G1 X5296.00 Y5865.00
G1 X5280.00 Y5685.00
G1 X5257.00 Y5635.00
G1 X5219.00 Y5790.00
G1 X5145.00 Y6335.00
G1 X5153.00 Y6613.00
G1 X5185.00 Y6690.00
G1 X5214.00 Y6673.00
G1 X4990.00 Y5130.00
G1 X5009.00 Y4811.00
G1 X5019.00 Y4746.00
G1 X4971.00 Y4666.00
G1 X4730.00 Y3960.00
G1 X4710.00 Y3793.00
G1 X4700.00 Y3701.00
G1 X4670.00 Y3629.00
G1 X4613.00 Y3568.00
G1 X4580.00 Y3537.00
G1 X4485.00 Y3880.00
G1 X4464.00 Y4076.00
G1 X4643.00 Y4791.00
G1 X4830.00 Y5189.00
G1 X4907.00 Y5563.00
G1 X4917.00 Y5666.00
G1 X4936.00 Y5604.00
G1 X5410.00 Y5255.00
G1 X5320.00 Y5481.00
G1 X5346.00 Y5605.00
G1 X5385.00 Y5430.00
G1 X6891.00 Y4647.00
G1 X6874.00 Y4548.00
G1 X6580.00 Y4729.00
G1 X6315.00 Y4985.00
G1 X6272.00 Y5035.00
G1 X6300.00 Y5156.00
G1 X6335.00 Y5359.00
G1 X6342.00 Y5441.00
G1 X6444.00 Y5343.00
G1 X6626.00 Y5183.00
G1 X3963.00 Y5011.00
G1 X3919.00 Y4963.00
G1 X3398.00 Y4531.00
G1 X3362.00 Y4509.00
G1 X3345.00 Y4586.00
G1 X3332.00 Y4745.00
G1 X3373.00 Y4903.00
G1 X3642.00 Y5186.00
G1 X3850.00 Y5362.00
G1 X3915.00 Y5429.00
G1 X3921.00 Y5317.00
G1 X3945.00 Y5108.00
G1 X5427.00 Y4940.00
G1 X5216.00 Y4405.00
G1 X5192.00 Y4376.00
G1 X5185.00 Y4440.00
G1 X5148.00 Y4624.00
G1 X5118.00 Y4743.00
G1 X5169.00 Y4869.00
G1 X5280.00 Y5270.00
G1 X5341.00 Y5185.00
G1 X5417.00 Y5051.00
G1 X6778.00 Y4477.00
G1 X6838.00 Y4444.00
G1 X6772.00 Y4278.00
G1 X6699.00 Y4102.00
G1 X6589.00 Y4212.00
G1 X6346.00 Y4484.00
G1 X6210.00 Y4639.00
G1 X6225.00 Y4770.00
G1 X6240.00 Y4904.00
G1 X6368.00 Y4789.00
G1 X6608.00 Y4586.00
G1 X5732.00 Y4335.00
G1 X5637.00 Y3953.00
G1 X5600.00 Y3129.00
G1 X5690.00 Y2736.00
G1 X5646.00 Y2515.00
G1 X5591.00 Y2625.00
G1 X5456.00 Y2916.00
G1 X5273.00 Y3585.00
G1 X5359.00 Y4165.00
G1 X5438.00 Y4460.00
G1 X5520.00 Y4881.00
G1 X5585.00 Y4804.00
G1 X3968.00 Y4575.00
G1 X3871.00 Y4470.00
G1 X3556.00 Y4108.00
G1 X3524.00 Y4113.00
G1 X3454.00 Y4274.00
G1 X3390.00 Y4419.00
G1 X3426.00 Y4444.00
G1 X3890.00 Y4792.00
G1 X3973.00 Y4855.00
G1 X3974.00 Y4710.00
G1 X5094.00 Y4370.00
G1 X5095.00 Y4275.00
G1 X4961.00 Y4127.00
G1 X4824.00 Y3983.00
G1 X4891.00 Y4288.00
G1 X5046.00 Y4610.00
G1 X5072.00 Y4538.00
G1 X5030.00 Y3958.00
G1 X4967.00 Y3868.00
G1 X4863.00 Y3792.00
G1 X4810.00 Y3758.00
G1 X5043.00 Y4060.00
G1 X5047.00 Y4038.00
G1 X4656.00 Y2728.00
G1 X4609.00 Y2646.00
G1 X4435.00 Y2732.00
G1 X4471.00 Y3213.00
G1 X4545.00 Y3328.00
G1 X4580.00 Y3246.00
G0 X5584.00 Y8888.00
G1 X5597.00 Y8861.00
G1 X5726.00 Y8761.00
G1 X5941.00 Y8568.00
G1 X6062.00 Y8460.00
G1 X6110.00 Y8505.00
G1 X5827.00 Y8782.00
G1 X5607.00 Y8900.00
G1 X5584.00 Y8888.00
G0 X4926.00 Y8837.00
G1 X4672.00 Y8405.00
G1 X4664.00 Y8254.00
G1 X4698.00 Y8254.00
G1 X4745.00 Y8352.00
G1 X4954.00 Y8761.00
G1 X4926.00 Y8837.00
G0 X5160.00 Y8838.00
G1 X5175.00 Y8720.00
G1 X5230.00 Y8407.00
G1 X5275.00 Y8170.00
G1 X5339.00 Y8178.00
G1 X5214.00 Y8848.00
G1 X5180.00 Y8870.00
G1 X5160.00 Y8838.00
G0 X4227.00 Y8720.00
G1 X4070.00 Y8605.00
G1 X3805.00 Y8326.00
G1 X3785.00 Y8288.00
G1 X3809.00 Y8269.00
G1 X3845.00 Y8258.00
G1 X3918.00 Y8340.00
G1 X4320.00 Y8730.00
G1 X4322.00 Y8774.00
G1 X4227.00 Y8720.00
G0 X5947.00 Y8763.00
G1 X6018.00 Y8683.00
G1 X6313.00 Y8388.00
G1 X6434.00 Y8296.00
G1 X6264.00 Y8549.00
G1 X5947.00 Y8763.00
G0 X6487.00 Y8223.00
G1 X6480.00 Y8198.00
G1 X6523.00 Y8193.00
G1 X6487.00 Y8223.00
G0 X4617.00 Y8184.00
G1 X4625.00 Y8136.00
G1 X4668.00 Y8164.00
G1 X4617.00 Y8184.00
G0 X5305.00 Y8096.00
G1 X5324.00 Y8050.00
G1 X5349.00 Y8096.00
G1 X5305.00 Y8096.00
G0 X4554.00 Y8036.00
G1 X4577.00 Y7982.00
G1 X4614.00 Y8034.00
G1 X4554.00 Y8036.00
G0 X5310.00 Y7945.00
G1 X5357.00 Y7923.00
G1 X5335.00 Y7970.00
G1 X5310.00 Y7945.00
G0 X5324.00 Y7836.00
G1 X5352.00 Y7782.00
G1 X5380.00 Y7835.00
G1 X5324.00 Y7836.00
M2 ; End of program
