; G-code generated from SVG
G21 ; Set units to mm
G90 ; Absolute positioning
G0 X5156.00 Y9449.00
G1 X4747.00 Y9374.00
G1 X3525.00 Y8558.00
G1 X3119.00 Y7525.00
G1 X3240.00 Y7295.00
G1 X3288.00 Y7248.00
G1 X3269.00 Y7205.00
G1 X3320.00 Y6826.00
G1 X3445.00 Y6265.00
G1 X3426.00 Y6010.00
G1 X2755.00 Y5142.00
G1 X2585.00 Y5065.00
G1 X2016.00 Y4703.00
G1 X1950.00 Y4566.00
G1 X2045.00 Y4615.00
G1 X2317.00 Y4853.00
G1 X2588.00 Y4984.00
G1 X3116.00 Y5315.00
G1 X3478.00 Y5923.00
G1 X3514.00 Y6045.00
G1 X3514.00 Y6265.00
G1 X3488.00 Y6581.00
G1 X3437.00 Y6736.00
G1 X3320.00 Y7071.00
G1 X3356.00 Y7210.00
G1 X3404.00 Y7120.00
G1 X3495.00 Y6881.00
G1 X3670.00 Y6339.00
G1 X3665.00 Y6179.00
G1 X3461.00 Y5627.00
G1 X3001.00 Y4901.00
G1 X2599.00 Y4640.00
G1 X2155.00 Y4338.00
G1 X2059.00 Y4176.00
G1 X2145.00 Y4208.00
G1 X2594.00 Y4560.00
G1 X2733.00 Y4635.00
G1 X2760.00 Y4647.00
G1 X2643.00 Y4523.00
G1 X2193.00 Y3781.00
G1 X2174.00 Y3262.00
G1 X2006.00 Y2597.00
G1 X1860.00 Y2045.00
G1 X1876.00 Y1840.00
G1 X1998.00 Y1550.00
G1 X2025.00 Y1563.00
G1 X2007.00 Y1661.00
G1 X1936.00 Y2050.00
G1 X1958.00 Y2293.00
G1 X2101.00 Y2618.00
G1 X2250.00 Y2958.00
G1 X2239.00 Y3372.00
G1 X2601.00 Y4366.00
G1 X2905.00 Y4690.00
G1 X3519.00 Y5589.00
G1 X3684.00 Y5985.00
G1 X3708.00 Y6055.00
G1 X3715.00 Y6016.00
G1 X3691.00 Y5618.00
G1 X3413.00 Y5069.00
G1 X3340.00 Y4982.00
G1 X3381.00 Y4950.00
G1 X3539.00 Y5107.00
G1 X3762.00 Y5620.00
G1 X3785.00 Y5935.00
G1 X3771.00 Y6204.00
G1 X3771.00 Y6357.00
G1 X3792.00 Y6437.00
G1 X3817.00 Y6329.00
G1 X3835.00 Y5970.00
G1 X3835.00 Y5705.00
G1 X3801.00 Y5575.00
G1 X3095.00 Y4679.00
G1 X2820.00 Y4405.00
G1 X2922.00 Y4468.00
G1 X3195.00 Y4662.00
G1 X3679.00 Y5105.00
G1 X3877.00 Y5596.00
G1 X3905.00 Y5965.00
G1 X3892.00 Y6285.00
G1 X3866.00 Y6435.00
G1 X3900.00 Y6417.00
G1 X3957.00 Y6069.00
G1 X3894.00 Y5557.00
G1 X3830.00 Y5241.00
G1 X3606.00 Y4751.00
G1 X3151.00 Y4303.00
G1 X2649.00 Y3821.00
G1 X2443.00 Y3304.00
G1 X2460.00 Y3225.00
G1 X2523.00 Y3347.00
G1 X2650.00 Y3690.00
G1 X3188.00 Y4238.00
G1 X3863.00 Y5057.00
G1 X3908.00 Y5116.00
G1 X3992.00 Y5215.00
G1 X4018.00 Y5238.00
G1 X3834.00 Y4710.00
G1 X3355.00 Y4170.00
G1 X2875.00 Y3766.00
G1 X2692.00 Y3558.00
G1 X2532.00 Y3093.00
G1 X2534.00 Y3012.00
G1 X2479.00 Y2948.00
G1 X2210.00 Y2392.00
G1 X2274.00 Y1995.00
G1 X2365.00 Y1894.00
G1 X2357.00 Y1999.00
G1 X2277.00 Y2310.00
G1 X2334.00 Y2597.00
G1 X2365.00 Y2573.00
G1 X2481.00 Y2361.00
G1 X2561.00 Y2347.00
G1 X2539.00 Y2406.00
G1 X2415.00 Y2644.00
G1 X2421.00 Y2751.00
G1 X2460.00 Y2776.00
G1 X2501.00 Y2634.00
G1 X2539.00 Y2630.00
G1 X2540.00 Y2723.00
G1 X2534.00 Y2885.00
G1 X2570.00 Y2840.00
G1 X2709.00 Y2562.00
G1 X2770.00 Y2469.00
G1 X2746.00 Y2431.00
G1 X2600.00 Y2105.00
G1 X2584.00 Y1741.00
G1 X2692.00 Y1497.00
G1 X2834.00 Y1353.00
G1 X2882.00 Y1360.00
G1 X2843.00 Y1443.00
G1 X2656.00 Y1762.00
G1 X2746.00 Y2277.00
G1 X2804.00 Y2380.00
G1 X2889.00 Y2246.00
G1 X2965.00 Y2164.00
G1 X2915.00 Y2362.00
G1 X2866.00 Y2492.00
G1 X3039.00 Y2734.00
G1 X3089.00 Y2655.00
G1 X3165.00 Y2533.00
G1 X3217.00 Y2506.00
G1 X3197.00 Y2613.00
G1 X3125.00 Y2748.00
G1 X3097.00 Y2818.00
G1 X3206.00 Y2946.00
G1 X3375.00 Y3146.00
G1 X3444.00 Y3219.00
G1 X3426.00 Y3105.00
G1 X3450.00 Y2584.00
G1 X3535.00 Y2520.00
G1 X3519.00 Y2613.00
G1 X3482.00 Y3044.00
G1 X3492.00 Y3094.00
G1 X3527.00 Y3007.00
G1 X3624.00 Y2919.00
G1 X3631.00 Y2963.00
G1 X3520.00 Y3266.00
G1 X3583.00 Y3362.00
G1 X3820.00 Y3663.00
G1 X3858.00 Y3702.00
G1 X3830.00 Y3515.00
G1 X3805.00 Y2850.00
G1 X3730.00 Y2691.00
G1 X3540.00 Y2440.00
G1 X3174.00 Y1824.00
G1 X3169.00 Y1415.00
G1 X3340.00 Y1083.00
G1 X3460.00 Y1029.00
G1 X3426.00 Y1104.00
G1 X3264.00 Y1365.00
G1 X3223.00 Y1585.00
G1 X3563.00 Y2347.00
G1 X3741.00 Y2580.00
G1 X3821.00 Y2668.00
G1 X3846.00 Y2527.00
G1 X3728.00 Y1946.00
G1 X3600.00 Y1539.00
G1 X3643.00 Y1322.00
G1 X3703.00 Y1334.00
G1 X3689.00 Y1410.00
G1 X3766.00 Y1855.00
G1 X3916.00 Y2252.00
G1 X3899.00 Y2636.00
G1 X3900.00 Y2830.00
G1 X3910.00 Y2807.00
G1 X4012.00 Y2413.00
G1 X4111.00 Y2173.00
G1 X4157.00 Y2039.00
G1 X4098.00 Y1963.00
G1 X4045.00 Y1064.00
G1 X4143.00 Y996.00
G1 X4132.00 Y1084.00
G1 X4060.00 Y1765.00
G1 X4198.00 Y1967.00
G1 X4238.00 Y1797.00
G1 X4259.00 Y1389.00
G1 X4291.00 Y1290.00
G1 X4337.00 Y1495.00
G1 X4311.00 Y1797.00
G1 X4274.00 Y2004.00
G1 X4267.00 Y2059.00
G1 X4345.00 Y2142.00
G1 X4631.00 Y2482.00
G1 X4672.00 Y2430.00
G1 X4761.00 Y2080.00
G1 X4635.00 Y1510.00
G1 X4547.00 Y1305.00
G1 X4515.00 Y1110.00
G1 X4597.00 Y803.00
G1 X4753.00 Y692.00
G1 X4724.00 Y755.00
G1 X4612.00 Y939.00
G1 X4586.00 Y1105.00
G1 X4706.00 Y1491.00
G1 X4834.00 Y1980.00
G1 X4745.00 Y2443.00
G1 X4700.00 Y2580.00
G1 X4717.00 Y2619.00
G1 X4786.00 Y2744.00
G1 X4860.00 Y2700.00
G1 X4979.00 Y2186.00
G1 X4924.00 Y1417.00
G1 X4852.00 Y1007.00
G1 X4908.00 Y894.00
G1 X4929.00 Y962.00
G1 X4995.00 Y1407.00
G1 X5093.00 Y1885.00
G1 X5014.00 Y2330.00
G1 X4908.00 Y2871.00
G1 X4896.00 Y2989.00
G1 X4927.00 Y3082.00
G1 X5005.00 Y3385.00
G1 X5060.00 Y3588.00
G1 X5111.00 Y3430.00
G1 X5162.00 Y3286.00
G1 X5135.00 Y3177.00
G1 X5094.00 Y2977.00
G1 X5193.00 Y2356.00
G1 X5200.00 Y2439.00
G1 X5194.00 Y3120.00
G1 X5215.00 Y3145.00
G1 X5270.00 Y3000.00
G1 X5439.00 Y2302.00
G1 X5450.00 Y2219.00
G1 X5369.00 Y2058.00
G1 X5137.00 Y1330.00
G1 X5217.00 Y1042.00
G1 X5231.00 Y1146.00
G1 X5224.00 Y1490.00
G1 X5416.00 Y1995.00
G1 X5455.00 Y2075.00
G1 X5462.00 Y2005.00
G1 X5566.00 Y1377.00
G1 X5707.00 Y995.00
G1 X5818.00 Y866.00
G1 X5811.00 Y958.00
G1 X5667.00 Y1296.00
G1 X5530.00 Y2100.00
G1 X5519.00 Y2256.00
G1 X5549.00 Y2332.00
G1 X5633.00 Y2850.00
G1 X5635.00 Y2925.00
G1 X5652.00 Y2853.00
G1 X5870.00 Y2337.00
G1 X5901.00 Y2293.00
G1 X5881.00 Y2220.00
G1 X5897.00 Y1730.00
G1 X6006.00 Y1493.00
G1 X6150.00 Y1122.00
G1 X6049.00 Y759.00
G1 X6030.00 Y670.00
G1 X6117.00 Y724.00
G1 X6216.00 Y920.00
G1 X6195.00 Y1254.00
G1 X6048.00 Y1570.00
G1 X5930.00 Y2086.00
G1 X6149.00 Y2027.00
G1 X6431.00 Y1697.00
G1 X6453.00 Y1330.00
G1 X6436.00 Y1263.00
G1 X6560.00 Y1484.00
G1 X6425.00 Y1840.00
G1 X6184.00 Y2096.00
G1 X5990.00 Y2311.00
G1 X6165.00 Y2648.00
G1 X6242.00 Y2742.00
G1 X6535.00 Y2044.00
G1 X6760.00 Y1655.00
G1 X6781.00 Y1319.00
G1 X6665.00 Y1092.00
G1 X6632.00 Y1002.00
G1 X6719.00 Y1037.00
G1 X6862.00 Y1441.00
G1 X6654.00 Y2000.00
G1 X6460.00 Y2395.00
G1 X6520.00 Y2726.00
G1 X6602.00 Y3360.00
G1 X6513.00 Y3730.00
G1 X6462.00 Y3860.00
G1 X6576.00 Y3679.00
G1 X6694.00 Y3479.00
G1 X6737.00 Y3420.00
G1 X6735.00 Y3217.00
G1 X6710.00 Y2890.00
G1 X6713.00 Y2405.00
G1 X6913.00 Y2095.00
G1 X7100.00 Y1389.00
G1 X7098.00 Y1301.00
G1 X7205.00 Y1570.00
G1 X7113.00 Y1920.00
G1 X6980.00 Y2410.00
G1 X7029.00 Y2702.00
G1 X7046.00 Y2753.00
G1 X7069.00 Y2689.00
G1 X7257.00 Y2342.00
G1 X7476.00 Y1997.00
G1 X7554.00 Y1630.00
G1 X7492.00 Y1315.00
G1 X7350.00 Y1120.00
G1 X7311.00 Y1044.00
G1 X7437.00 Y1104.00
G1 X7606.00 Y1405.00
G1 X7615.00 Y1805.00
G1 X7357.00 Y2323.00
G1 X7201.00 Y2569.00
G1 X7090.00 Y2872.00
G1 X7165.00 Y3128.00
G1 X7266.00 Y3031.00
G1 X7378.00 Y2928.00
G1 X7366.00 Y2860.00
G1 X7324.00 Y2779.00
G1 X7331.00 Y2717.00
G1 X7412.00 Y2787.00
G1 X7447.00 Y2859.00
G1 X7532.00 Y2786.00
G1 X7658.00 Y2677.00
G1 X7701.00 Y2645.00
G1 X7696.00 Y2574.00
G1 X7679.00 Y2462.00
G1 X7711.00 Y2390.00
G1 X7761.00 Y2500.00
G1 X7773.00 Y2572.00
G1 X7818.00 Y2527.00
G1 X7863.00 Y2481.00
G1 X7819.00 Y2384.00
G1 X7737.00 Y2227.00
G1 X7722.00 Y2116.00
G1 X7850.00 Y2286.00
G1 X7917.00 Y2424.00
G1 X7958.00 Y2363.00
G1 X8024.00 Y1684.00
G1 X7855.00 Y1527.00
G1 X7831.00 Y1447.00
G1 X8001.00 Y1550.00
G1 X8171.00 Y1865.00
G1 X7955.00 Y2496.00
G1 X8009.00 Y2647.00
G1 X8106.00 Y2880.00
G1 X8147.00 Y2977.00
G1 X8308.00 Y2859.00
G1 X8350.00 Y2823.00
G1 X8296.00 Y2714.00
G1 X8183.00 Y2262.00
G1 X8242.00 Y1990.00
G1 X8321.00 Y1910.00
G1 X8311.00 Y2017.00
G1 X8285.00 Y2506.00
G1 X8410.00 Y2770.00
G1 X8570.00 Y2586.00
G1 X8737.00 Y2071.00
G1 X8683.00 Y1717.00
G1 X8661.00 Y1614.00
G1 X8810.00 Y1930.00
G1 X8780.00 Y2307.00
G1 X8498.00 Y2792.00
G1 X8443.00 Y2848.00
G1 X8471.00 Y2932.00
G1 X8501.00 Y3763.00
G1 X8036.00 Y4509.00
G1 X7913.00 Y4647.00
G1 X7966.00 Y4625.00
G1 X8120.00 Y4551.00
G1 X8536.00 Y4233.00
G1 X8600.00 Y4155.00
G1 X8650.00 Y4185.00
G1 X8474.00 Y4416.00
G1 X8048.00 Y4669.00
G1 X7563.00 Y5058.00
G1 X7202.00 Y5885.00
G1 X7115.00 Y6460.00
G1 X7217.00 Y6893.00
G1 X7299.00 Y7118.00
G1 X7337.00 Y7208.00
G1 X7395.00 Y7065.00
G1 X7296.00 Y6740.00
G1 X7225.00 Y6270.00
G1 X7281.00 Y5829.00
G1 X7609.00 Y5299.00
G1 X8115.00 Y4985.00
G1 X8642.00 Y4628.00
G1 X8738.00 Y4572.00
G1 X8703.00 Y4672.00
G1 X8175.00 Y5044.00
G1 X7661.00 Y5352.00
G1 X7361.00 Y5822.00
G1 X7295.00 Y6280.00
G1 X7389.00 Y6780.00
G1 X7460.00 Y6979.00
G1 X7445.00 Y7212.00
G1 X7427.00 Y7249.00
G1 X7479.00 Y7305.00
G1 X7592.00 Y7674.00
G1 X6820.00 Y8931.00
G1 X5865.00 Y9395.00
G1 X5156.00 Y9449.00
G1 X6988.00 Y8681.00
G1 X7294.00 Y8280.00
G1 X7505.00 Y7489.00
G1 X7403.00 Y7335.00
G1 X7417.00 Y7376.00
G1 X7465.00 Y7742.00
G1 X7349.00 Y8045.00
G1 X7282.00 Y8175.00
G1 X7185.00 Y8329.00
G1 X7215.00 Y8261.00
G1 X7416.00 Y7825.00
G1 X7435.00 Y7489.00
G1 X7345.00 Y7330.00
G1 X7344.00 Y7360.00
G1 X7414.00 Y7605.00
G1 X7382.00 Y7807.00
G1 X7215.00 Y8185.00
G1 X7146.00 Y8304.00
G1 X7054.00 Y8443.00
G1 X7000.00 Y8521.00
G1 X6990.00 Y8530.00
G1 X7043.00 Y8426.00
G1 X7345.00 Y7840.00
G1 X7388.00 Y7605.00
G1 X7338.00 Y7420.00
G1 X7266.00 Y7307.00
G1 X7270.00 Y7345.00
G1 X7341.00 Y7694.00
G1 X7262.00 Y7945.00
G1 X7220.00 Y8023.00
G1 X6868.00 Y8560.00
G1 X6878.00 Y8538.00
G1 X7225.00 Y7949.00
G1 X7267.00 Y7858.00
G1 X7315.00 Y7605.00
G1 X7282.00 Y7435.00
G1 X7167.00 Y7290.00
G1 X7193.00 Y7330.00
G1 X7240.00 Y7418.00
G1 X7262.00 Y7487.00
G1 X7240.00 Y7779.00
G1 X7063.00 Y8182.00
G1 X6990.00 Y8303.00
G1 X6939.00 Y8380.00
G1 X6935.00 Y8336.00
G1 X6997.00 Y8245.00
G1 X7226.00 Y7498.00
G1 X7162.00 Y7346.00
G1 X7137.00 Y7348.00
G1 X7197.00 Y7539.00
G1 X7186.00 Y7715.00
G1 X7026.00 Y8115.00
G1 X6945.00 Y8239.00
G1 X6882.00 Y8322.00
G1 X6934.00 Y8194.00
G1 X7068.00 Y7572.00
G1 X7044.00 Y7390.00
G1 X6940.00 Y7280.00
G1 X6955.00 Y7325.00
G1 X7001.00 Y7418.00
G1 X7002.00 Y7820.00
G1 X6912.00 Y8080.00
G1 X6903.00 Y8063.00
G1 X6976.00 Y7443.00
G1 X6861.00 Y7270.00
G1 X6892.00 Y7349.00
G1 X6842.00 Y8050.00
G1 X6784.00 Y8189.00
G1 X6798.00 Y8088.00
G1 X6859.00 Y7920.00
G1 X6896.00 Y7436.00
G1 X6800.00 Y7280.00
G1 X6805.00 Y7310.00
G1 X6846.00 Y7407.00
G1 X6868.00 Y7593.00
G1 X6723.00 Y8120.00
G1 X6627.00 Y8281.00
G1 X6627.00 Y8258.00
G1 X6748.00 Y7930.00
G1 X6775.00 Y7469.00
G1 X6684.00 Y7336.00
G1 X6690.00 Y7362.00
G1 X6769.00 Y7635.00
G1 X6767.00 Y7695.00
G1 X6755.00 Y7608.00
G1 X6633.00 Y7339.00
G1 X6593.00 Y7313.00
G1 X6623.00 Y7363.00
G1 X6709.00 Y7732.00
G1 X6685.00 Y7909.00
G1 X6552.00 Y8257.00
G1 X6558.00 Y8194.00
G1 X6680.00 Y7676.00
G1 X6579.00 Y7355.00
G1 X6544.00 Y7353.00
G1 X6618.00 Y7615.00
G1 X6605.00 Y7835.00
G1 X6485.00 Y8217.00
G1 X6495.00 Y8132.00
G1 X6509.00 Y7358.00
G1 X6472.00 Y7320.00
G1 X6465.00 Y7573.00
G1 X6437.00 Y7939.00
G1 X6413.00 Y8057.00
G1 X6491.00 Y7795.00
G1 X6490.00 Y7431.00
G1 X6505.00 Y7394.00
G1 X6496.00 Y7920.00
G1 X6296.00 Y8480.00
G1 X6205.00 Y8556.00
G1 X6237.00 Y8452.00
G1 X6397.00 Y7785.00
G1 X6340.00 Y7434.00
G1 X6318.00 Y7432.00
G1 X6360.00 Y7650.00
G1 X6350.00 Y7613.00
G1 X6272.00 Y7371.00
G1 X6233.00 Y7341.00
G1 X6291.00 Y7530.00
G1 X6300.00 Y7550.00
G1 X6309.00 Y7565.00
G1 X6320.00 Y7595.00
G1 X6324.00 Y7883.00
G1 X6298.00 Y7960.00
G1 X6287.00 Y7923.00
G1 X6278.00 Y7570.00
G1 X6150.00 Y7317.00
G1 X6149.00 Y7354.00
G1 X6231.00 Y7588.00
G1 X6232.00 Y7825.00
G1 X6210.00 Y7985.00
G1 X6184.00 Y7983.00
G1 X6200.00 Y7565.00
G1 X6063.00 Y7310.00
G1 X6064.00 Y7333.00
G1 X6142.00 Y7569.00
G1 X6106.00 Y7969.00
G1 X6110.00 Y7900.00
G1 X6109.00 Y7537.00
G1 X6022.00 Y7340.00
G1 X6005.00 Y7355.00
G1 X6067.00 Y7636.00
G1 X6050.00 Y7830.00
G1 X6040.00 Y7693.00
G1 X5987.00 Y7387.00
G1 X5925.00 Y7321.00
G1 X5946.00 Y7380.00
G1 X6000.00 Y7695.00
G1 X6016.00 Y7888.00
G1 X6006.00 Y7910.00
G1 X5990.00 Y7876.00
G1 X5980.00 Y7835.00
G1 X5970.00 Y7702.00
G1 X5956.00 Y7509.00
G1 X5880.00 Y7335.00
G1 X5874.00 Y7364.00
G1 X5928.00 Y7683.00
G1 X5910.00 Y7830.00
G1 X5901.00 Y7716.00
G1 X5835.00 Y7374.00
G1 X5825.00 Y7406.00
G1 X5856.00 Y7848.00
G1 X5822.00 Y8065.00
G1 X5818.00 Y7817.00
G1 X5788.00 Y7387.00
G1 X5782.00 Y7421.00
G1 X5780.00 Y8055.00
G1 X5738.00 Y8250.00
G1 X5723.00 Y8188.00
G1 X5721.00 Y7465.00
G1 X5705.00 Y7445.00
G1 X5714.00 Y7627.00
G1 X5699.00 Y7544.00
G1 X5618.00 Y7344.00
G1 X5605.00 Y7345.00
G1 X5666.00 Y7825.00
G1 X5634.00 Y8080.00
G1 X5627.00 Y8008.00
G1 X5635.00 Y7740.00
G1 X5611.00 Y7470.00
G1 X5534.00 Y7322.00
G1 X5551.00 Y7406.00
G1 X5557.00 Y7920.00
G1 X5549.00 Y7764.00
G1 X5477.00 Y7332.00
G1 X5472.00 Y7362.00
G1 X5482.00 Y7939.00
G1 X5465.00 Y7715.00
G1 X5449.00 Y7435.00
G1 X5409.00 Y7335.00
G1 X5410.00 Y7593.00
G1 X5396.00 Y7838.00
G1 X5377.00 Y7600.00
G1 X5344.00 Y7341.00
G1 X5332.00 Y7595.00
G1 X5317.00 Y7835.00
G1 X5306.00 Y7583.00
G1 X5303.00 Y7330.00
G1 X5280.00 Y7373.00
G1 X5240.00 Y7751.00
G1 X5230.00 Y7930.00
G1 X5213.00 Y7661.00
G1 X5238.00 Y7398.00
G1 X5227.00 Y7348.00
G1 X5151.00 Y7784.00
G1 X5141.00 Y7928.00
G1 X5132.00 Y7699.00
G1 X5162.00 Y7393.00
G1 X5178.00 Y7320.00
G1 X5100.00 Y7458.00
G1 X5083.00 Y8055.00
G1 X5070.00 Y8075.00
G1 X5041.00 Y7770.00
G1 X5093.00 Y7387.00
G1 X5076.00 Y7363.00
G1 X5005.00 Y7575.00
G1 X4975.00 Y7688.00
G1 X5015.00 Y7456.00
G1 X5006.00 Y7454.00
G1 X4969.00 Y7564.00
G1 X4954.00 Y7820.00
G1 X4986.00 Y8213.00
G1 X4972.00 Y8250.00
G1 X4931.00 Y8135.00
G1 X4928.00 Y7442.00
G1 X4940.00 Y7375.00
G1 X4906.00 Y7429.00
G1 X4883.00 Y8037.00
G1 X4870.00 Y8055.00
G1 X4843.00 Y7680.00
G1 X4868.00 Y7425.00
G1 X4890.00 Y7351.00
G1 X4841.00 Y7423.00
G1 X4791.00 Y7699.00
G1 X4773.00 Y7828.00
G1 X4760.00 Y7738.00
G1 X4814.00 Y7405.00
G1 X4835.00 Y7332.00
G1 X4743.00 Y7495.00
G1 X4725.00 Y7738.00
G1 X4714.00 Y7920.00
G1 X4690.00 Y7721.00
G1 X4773.00 Y7330.00
G1 X4765.00 Y7320.00
G1 X4669.00 Y7490.00
G1 X4651.00 Y7668.00
G1 X4622.00 Y7694.00
G1 X4645.00 Y7482.00
G1 X4690.00 Y7352.00
G1 X4681.00 Y7326.00
G1 X4590.00 Y7540.00
G1 X4580.00 Y7560.00
G1 X4585.00 Y7803.00
G1 X4569.00 Y7830.00
G1 X4552.00 Y7668.00
G1 X4627.00 Y7343.00
G1 X4637.00 Y7310.00
G1 X4513.00 Y7496.00
G1 X4513.00 Y7930.00
G1 X4507.00 Y7997.00
G1 X4470.00 Y7563.00
G1 X4546.00 Y7339.00
G1 X4531.00 Y7326.00
G1 X4439.00 Y7500.00
G1 X4415.00 Y7773.00
G1 X4409.00 Y7970.00
G1 X4384.00 Y7780.00
G1 X4409.00 Y7516.00
G1 X4460.00 Y7363.00
G1 X4480.00 Y7325.00
G1 X4375.00 Y7399.00
G1 X4316.00 Y7735.00
G1 X4461.00 Y8425.00
G1 X4510.00 Y8546.00
G1 X4469.00 Y8570.00
G1 X4234.00 Y8010.00
G1 X4180.00 Y7624.00
G1 X4221.00 Y7366.00
G1 X4218.00 Y7325.00
G1 X4135.00 Y7498.00
G1 X4123.00 Y7708.00
G1 X4209.00 Y8130.00
G1 X4230.00 Y8234.00
G1 X4216.00 Y8229.00
G1 X4176.00 Y8105.00
G1 X4094.00 Y7711.00
G1 X4143.00 Y7388.00
G1 X4135.00 Y7351.00
G1 X4034.00 Y7730.00
G1 X4165.00 Y8244.00
G1 X4159.00 Y8258.00
G1 X4046.00 Y7979.00
G1 X4009.00 Y7772.00
G1 X4013.00 Y7575.00
G1 X4096.00 Y7351.00
G1 X4095.00 Y7322.00
G1 X3975.00 Y7565.00
G1 X3962.00 Y7615.00
G1 X3961.00 Y7570.00
G1 X4003.00 Y7387.00
G1 X3968.00 Y7405.00
G1 X3923.00 Y7684.00
G1 X4070.00 Y8227.00
G1 X4071.00 Y8280.00
G1 X3903.00 Y7856.00
G1 X3890.00 Y7840.00
G1 X3855.00 Y7565.00
G1 X3887.00 Y7360.00
G1 X3913.00 Y7290.00
G1 X3836.00 Y7400.00
G1 X3802.00 Y7575.00
G1 X3886.00 Y8024.00
G1 X3940.00 Y8197.00
G1 X3910.00 Y8168.00
G1 X3871.00 Y8055.00
G1 X3809.00 Y7865.00
G1 X3775.00 Y7595.00
G1 X3841.00 Y7318.00
G1 X3856.00 Y7283.00
G1 X3760.00 Y7395.00
G1 X3786.00 Y7999.00
G1 X3790.00 Y8090.00
G1 X3770.00 Y8048.00
G1 X3730.00 Y7905.00
G1 X3776.00 Y7293.00
G1 X3720.00 Y7316.00
G1 X3609.00 Y7760.00
G1 X3659.00 Y8004.00
G1 X3709.00 Y8123.00
G1 X3706.00 Y8094.00
G1 X3634.00 Y7740.00
G1 X3632.00 Y7595.00
G1 X3640.00 Y7705.00
G1 X3789.00 Y8206.00
G1 X3822.00 Y8320.00
G1 X3625.00 Y8015.00
G1 X3525.00 Y7600.00
G1 X3548.00 Y7398.00
G1 X3585.00 Y7330.00
G1 X3600.00 Y7307.00
G1 X3528.00 Y7388.00
G1 X3490.00 Y7489.00
G1 X3505.00 Y7795.00
G1 X3716.00 Y8268.00
G1 X3717.00 Y8290.00
G1 X3555.00 Y7985.00
G1 X3520.00 Y7927.00
G1 X3535.00 Y7980.00
G1 X3546.00 Y8027.00
G1 X3526.00 Y7983.00
G1 X3501.00 Y7365.00
G1 X3481.00 Y7358.00
G1 X3409.00 Y7730.00
G1 X3581.00 Y8178.00
G1 X3805.00 Y8510.00
G1 X3810.00 Y8540.00
G1 X3550.00 Y8165.00
G1 X3414.00 Y7855.00
G1 X3377.00 Y7610.00
G1 X3451.00 Y7348.00
G1 X3482.00 Y7300.00
G1 X3372.00 Y7423.00
G1 X3336.00 Y7680.00
G1 X3437.00 Y8044.00
G1 X3671.00 Y8423.00
G1 X3692.00 Y8453.00
G1 X3674.00 Y8462.00
G1 X3650.00 Y8438.00
G1 X3602.00 Y8368.00
G1 X3380.00 Y7968.00
G1 X3306.00 Y7620.00
G1 X3334.00 Y7417.00
G1 X3357.00 Y7333.00
G1 X3283.00 Y7468.00
G1 X3267.00 Y7630.00
G1 X3299.00 Y7845.00
G1 X3479.00 Y8240.00
G1 X3524.00 Y8340.00
G1 X3264.00 Y7806.00
G1 X3291.00 Y7376.00
G1 X3268.00 Y7378.00
G1 X3217.00 Y7810.00
G1 X3486.00 Y8387.00
G1 X3976.00 Y8912.00
G1 X4347.00 Y9149.00
G1 X5305.00 Y9379.00
G1 X5497.00 Y9370.00
G1 X7107.00 Y7513.00
G1 X7080.00 Y7413.00
G1 X7074.00 Y7412.00
G1 X7085.00 Y7537.00
G1 X7040.00 Y7978.00
G1 X7035.00 Y8038.00
G1 X7079.00 Y7898.00
G1 X4254.00 Y7886.00
G1 X4269.00 Y7425.00
G1 X4296.00 Y7345.00
G1 X4238.00 Y7428.00
G1 X4215.00 Y7665.00
G1 X4261.00 Y8033.00
G1 X4276.00 Y8034.00
G1 X6416.00 Y7340.00
G1 X6425.00 Y7386.00
G1 X6452.00 Y7464.00
G1 X6457.00 Y7453.00
G1 X6446.00 Y7376.00
G1 X3401.00 Y7310.00
G1 X3382.00 Y7335.00
G1 X3379.00 Y7360.00
G1 X3398.00 Y7335.00
G1 X4440.00 Y6920.00
G1 X4375.00 Y7100.00
G1 X4360.00 Y7215.00
G1 X4400.00 Y7112.00
G1 X4509.00 Y7120.00
G1 X4570.00 Y6844.00
G1 X4648.00 Y6190.00
G1 X4633.00 Y5965.00
G1 X4616.00 Y5980.00
G1 X4606.00 Y6240.00
G1 X4526.00 Y6846.00
G1 X4460.00 Y7217.00
G1 X4488.00 Y7203.00
G1 X4988.00 Y6567.00
G1 X4964.00 Y6533.00
G1 X4976.00 Y6621.00
G1 X4956.00 Y7030.00
G1 X4940.00 Y7220.00
G1 X4960.00 Y7178.00
G1 X5260.00 Y6845.00
G1 X5292.00 Y5815.00
G1 X5296.00 Y5120.00
G1 X5243.00 Y4222.00
G1 X5220.00 Y3618.00
G1 X5188.00 Y3428.00
G1 X5125.00 Y3598.00
G1 X5069.00 Y3761.00
G1 X5085.00 Y3898.00
G1 X5049.00 Y4516.00
G1 X5029.00 Y4596.00
G1 X5059.00 Y4654.00
G1 X5094.00 Y4684.00
G1 X5113.00 Y4288.00
G1 X5128.00 Y4161.00
G1 X5170.00 Y4170.00
G1 X5190.00 Y4308.00
G1 X5159.00 Y4727.00
G1 X5146.00 Y4839.00
G1 X5183.00 Y4917.00
G1 X5277.00 Y5295.00
G1 X5225.00 Y5895.00
G1 X5194.00 Y6672.00
G1 X5217.00 Y7040.00
G1 X5243.00 Y7218.00
G1 X5264.00 Y7124.00
G1 X5753.00 Y6990.00
G1 X5728.00 Y6686.00
G1 X5719.00 Y6517.00
G1 X5694.00 Y6636.00
G1 X5688.00 Y6830.00
G1 X5775.00 Y7217.00
G1 X5782.00 Y7164.00
G1 X6164.00 Y6786.00
G1 X6095.00 Y6260.00
G1 X6083.00 Y6020.00
G1 X6077.00 Y5975.00
G1 X6067.00 Y6015.00
G1 X6069.00 Y6545.00
G1 X6110.00 Y6740.00
G1 X6175.00 Y7025.00
G1 X6215.00 Y7208.00
G1 X6240.00 Y7192.00
G1 X6254.00 Y6890.00
G1 X6297.00 Y7080.00
G1 X6347.00 Y7205.00
G1 X6320.00 Y7067.00
G1 X4132.00 Y6956.00
G1 X4167.00 Y6874.00
G1 X4067.00 Y7008.00
G1 X4038.00 Y7210.00
G1 X4055.00 Y7183.00
G1 X4901.00 Y6605.00
G1 X4839.00 Y6105.00
G1 X4847.00 Y6570.00
G1 X4864.00 Y6745.00
G1 X4832.00 Y6936.00
G1 X4806.00 Y7203.00
G1 X4839.00 Y7147.00
G1 X5379.00 Y6585.00
G1 X5413.00 Y5865.00
G1 X5450.00 Y5530.00
G1 X5571.00 Y4791.00
G1 X5597.00 Y4664.00
G1 X5496.00 Y4860.00
G1 X5395.00 Y5490.00
G1 X5349.00 Y5930.00
G1 X5324.00 Y6640.00
G1 X5346.00 Y7023.00
G1 X5372.00 Y7210.00
G1 X5390.00 Y7038.00
G1 X5515.00 Y6870.00
G1 X5581.00 Y6261.00
G1 X5589.00 Y6091.00
G1 X5576.00 Y5995.00
G1 X5567.00 Y6045.00
G1 X5501.00 Y6370.00
G1 X5466.00 Y6943.00
G1 X5491.00 Y7210.00
G1 X5512.00 Y7193.00
G1 X5878.00 Y6945.00
G1 X5865.00 Y6390.00
G1 X5890.00 Y5815.00
G1 X5925.00 Y5290.00
G1 X5981.00 Y5087.00
G1 X6007.00 Y4994.00
G1 X5874.00 Y5286.00
G1 X5840.00 Y5790.00
G1 X5815.00 Y6350.00
G1 X5844.00 Y7009.00
G1 X5880.00 Y7207.00
G1 X5896.00 Y7210.00
G1 X5905.00 Y7128.00
G1 X6302.00 Y6786.00
G1 X6285.00 Y6755.00
G1 X6282.00 Y6781.00
G1 X6300.00 Y6861.00
G1 X6360.00 Y7026.00
G1 X6441.00 Y7205.00
G1 X6444.00 Y7167.00
G1 X6460.00 Y6878.00
G1 X6304.00 Y6418.00
G1 X6386.00 Y5802.00
G1 X6580.00 Y5445.00
G1 X6856.00 Y4932.00
G1 X6893.00 Y4800.00
G1 X6692.00 Y5026.00
G1 X6364.00 Y5693.00
G1 X6242.00 Y6355.00
G1 X6399.00 Y6862.00
G1 X6515.00 Y7124.00
G1 X6561.00 Y7205.00
G1 X6570.00 Y7171.00
G1 X6574.00 Y6899.00
G1 X6589.00 Y6981.00
G1 X6645.00 Y7135.00
G1 X6680.00 Y7175.00
G1 X3882.00 Y6822.00
G1 X3970.00 Y6641.00
G1 X4065.00 Y6228.00
G1 X4051.00 Y5445.00
G1 X3974.00 Y5310.00
G1 X3902.00 Y5227.00
G1 X3975.00 Y5610.00
G1 X4026.00 Y6045.00
G1 X3954.00 Y6500.00
G1 X3819.00 Y6837.00
G1 X3696.00 Y7184.00
G1 X3739.00 Y7123.00
G1 X4293.00 Y6889.00
G1 X4440.00 Y6280.00
G1 X4376.00 Y5835.00
G1 X4304.00 Y5585.00
G1 X4106.00 Y5008.00
G1 X3944.00 Y4763.00
G1 X3964.00 Y4823.00
G1 X4100.00 Y5270.00
G1 X4193.00 Y5527.00
G1 X4381.00 Y6413.00
G1 X4239.00 Y6875.00
G1 X4156.00 Y7198.00
G1 X4195.00 Y7119.00
G1 X4430.00 Y6789.00
G1 X4394.00 Y6827.00
G1 X4271.00 Y7138.00
G1 X4271.00 Y7198.00
G1 X4300.00 Y7150.00
G1 X4789.00 Y6845.00
G1 X4760.00 Y6828.00
G1 X4697.00 Y7193.00
G1 X4725.00 Y7153.00
G1 X5914.00 Y6769.00
G1 X5930.00 Y6880.00
G1 X5976.00 Y7093.00
G1 X6006.00 Y7200.00
G1 X6020.00 Y7158.00
G1 X6838.00 Y6735.00
G1 X6704.00 Y6320.00
G1 X6693.00 Y6055.00
G1 X6993.00 Y5134.00
G1 X7277.00 Y4854.00
G1 X7388.00 Y4750.00
G1 X7700.00 Y4380.00
G1 X8135.00 Y3795.00
G1 X8245.00 Y3114.00
G1 X8225.00 Y3022.00
G1 X8183.00 Y3044.00
G1 X8145.00 Y3070.00
G1 X8144.00 Y3158.00
G1 X8068.00 Y3459.00
G1 X7866.00 Y3735.00
G1 X7728.00 Y3950.00
G1 X7628.00 Y4159.00
G1 X7304.00 Y4583.00
G1 X6866.00 Y5151.00
G1 X6640.00 Y6225.00
G1 X6869.00 Y6893.00
G1 X6955.00 Y7087.00
G1 X7003.00 Y7191.00
G1 X6998.00 Y7099.00
G1 X3630.00 Y6851.00
G1 X3720.00 Y6525.00
G1 X3719.00 Y6445.00
G1 X3686.00 Y6575.00
G1 X3578.00 Y6865.00
G1 X3476.00 Y7138.00
G1 X3491.00 Y7188.00
G1 X3526.00 Y7122.00
G1 X7134.00 Y6870.00
G1 X7040.00 Y6464.00
G1 X7325.00 Y5322.00
G1 X7821.00 Y4641.00
G1 X8198.00 Y4210.00
G1 X8455.00 Y3635.00
G1 X8457.00 Y3155.00
G1 X8382.00 Y2902.00
G1 X8332.00 Y2935.00
G1 X8294.00 Y2990.00
G1 X8315.00 Y3120.00
G1 X8075.00 Y4036.00
G1 X7769.00 Y4412.00
G1 X7114.00 Y5514.00
G1 X6999.00 Y6163.00
G1 X7013.00 Y6680.00
G1 X7093.00 Y6876.00
G1 X7177.00 Y7091.00
G1 X7203.00 Y7177.00
G1 X7230.00 Y7146.00
G1 X6759.00 Y6861.00
G1 X6656.00 Y6592.00
G1 X6634.00 Y6608.00
G1 X6726.00 Y6871.00
G1 X6801.00 Y7057.00
G1 X6828.00 Y7150.00
G1 X6830.00 Y7040.00
G1 X3991.00 Y6855.00
G1 X4076.00 Y6630.00
G1 X4051.00 Y6645.00
G1 X4010.00 Y6750.00
G1 X3860.00 Y7118.00
G1 X3894.00 Y7083.00
G1 X6979.00 Y6820.00
G1 X7004.00 Y6911.00
G1 X7062.00 Y7065.00
G1 X7075.00 Y7025.00
G1 X3695.00 Y6882.00
G1 X3624.00 Y7085.00
G1 X3658.00 Y7030.00
G1 X3713.00 Y6893.00
G1 X5105.00 Y6155.00
G1 X5107.00 Y6000.00
G1 X5067.00 Y6337.00
G1 X5077.00 Y6510.00
G1 X5127.00 Y6880.00
G1 X5135.00 Y6975.00
G1 X5138.00 Y6895.00
G1 X5131.00 Y6725.00
G1 X6599.00 Y6679.00
G1 X6581.00 Y6700.00
G1 X6655.00 Y6888.00
G1 X6635.00 Y6811.00
G1 X4129.00 Y6682.00
G1 X4095.00 Y6740.00
G1 X4055.00 Y6860.00
G1 X4106.00 Y6786.00
G1 X5996.00 Y6275.00
G1 X6126.00 Y5436.00
G1 X6084.00 Y5417.00
G1 X5966.00 Y6540.00
G1 X6031.00 Y6810.00
G1 X6023.00 Y6658.00
G1 X4760.00 Y6235.00
G1 X4660.00 Y5515.00
G1 X4548.00 Y5270.00
G1 X4585.00 Y5440.00
G1 X4680.00 Y6654.00
G1 X4669.00 Y6820.00
G1 X4704.00 Y6708.00
G1 X6561.00 Y6180.00
G1 X6558.00 Y6115.00
G1 X6544.00 Y6160.00
G1 X6515.00 Y6325.00
G1 X6486.00 Y6526.00
G1 X6465.00 Y6731.00
G1 X6524.00 Y6540.00
G1 X4221.00 Y6545.00
G1 X4175.00 Y6248.00
G1 X4161.00 Y6143.00
G1 X4145.00 Y6165.00
G1 X4174.00 Y6520.00
G1 X4215.00 Y6688.00
G1 X4240.00 Y6668.00
G1 X6184.00 Y6513.00
G1 X6217.00 Y6683.00
G1 X6220.00 Y6620.00
G1 X4498.00 Y6535.00
G1 X4496.00 Y6678.00
G1 X4511.00 Y6601.00
G1 X6896.00 Y6617.00
G1 X6917.00 Y6657.00
G1 X6904.00 Y6587.00
G1 X5622.00 Y6308.00
G1 X5611.00 Y6481.00
G1 X5622.00 Y6640.00
G1 X5633.00 Y6468.00
G1 X6406.00 Y6029.00
G1 X6383.00 Y6005.00
G1 X6350.00 Y6229.00
G1 X6388.00 Y6505.00
G1 X6404.00 Y6565.00
G1 X6417.00 Y6500.00
G1 X6436.00 Y6343.00
G1 X4301.00 Y6046.00
G1 X4250.00 Y6292.00
G1 X4288.00 Y6510.00
G1 X4309.00 Y6178.00
G1 X6764.00 Y6165.00
G1 X6817.00 Y6505.00
G1 X6805.00 Y6294.00
G1 X7206.00 Y5061.00
G1 X7250.00 Y4967.00
G1 X7041.00 Y5180.00
G1 X6859.00 Y5595.00
G1 X6887.00 Y6350.00
G1 X6905.00 Y6445.00
G1 X6912.00 Y6330.00
G1 X6969.00 Y5918.00
G1 X5044.00 Y5779.00
G1 X4876.00 Y4985.00
G1 X4730.00 Y4370.00
G1 X4536.00 Y3825.00
G1 X4444.00 Y3485.00
G1 X4412.00 Y3275.00
G1 X4376.00 Y3193.00
G1 X4320.00 Y3365.00
G1 X4357.00 Y3590.00
G1 X4645.00 Y4390.00
G1 X4752.00 Y4810.00
G1 X4940.00 Y5560.00
G1 X5010.00 Y6201.00
G1 X5026.00 Y6427.00
G1 X5044.00 Y6290.00
G1 X5760.00 Y5775.00
G1 X5745.00 Y6152.00
G1 X5761.00 Y6195.00
G1 X5776.00 Y6010.00
G1 X4915.00 Y5907.00
G1 X4932.00 Y6155.00
G1 X4941.00 Y5965.00
G1 X4585.00 Y5796.00
G1 X4560.00 Y5545.00
G1 X4533.00 Y5467.00
G1 X4527.00 Y5551.00
G1 X4520.00 Y5857.00
G1 X4536.00 Y6107.00
G1 X4555.00 Y5999.00
G1 X4232.00 Y5770.00
G1 X4147.00 Y5570.00
G1 X4149.00 Y5732.00
G1 X4170.00 Y5936.00
G1 X4201.00 Y6041.00
G1 X4213.00 Y6104.00
G1 X4237.00 Y6019.00
G1 X4266.00 Y5905.00
G1 X6185.00 Y5640.00
G1 X6149.00 Y5552.00
G1 X6110.00 Y5745.00
G1 X6162.00 Y6100.00
G1 X6170.00 Y5933.00
G1 X5740.00 Y5630.00
G1 X5809.00 Y5315.00
G1 X5896.00 Y5000.00
G1 X6011.00 Y4638.00
G1 X6114.00 Y4353.00
G1 X6220.00 Y4025.00
G1 X6075.00 Y4275.00
G1 X5826.00 Y4995.00
G1 X5651.00 Y5800.00
G1 X5646.00 Y6065.00
G1 X5684.00 Y5930.00
G1 X6539.00 Y5933.00
G1 X6605.00 Y5701.00
G1 X6651.00 Y5513.00
G1 X6660.00 Y5472.00
G1 X6639.00 Y5480.00
G1 X6430.00 Y5863.00
G1 X6455.00 Y5963.00
G1 X6480.00 Y6061.00
G1 X6503.00 Y6036.00
G1 X5610.00 Y5638.00
G1 X5637.00 Y5535.00
G1 X5587.00 Y5625.00
G1 X5496.00 Y5949.00
G1 X5487.00 Y6055.00
G1 X5541.00 Y5879.00
G1 X5064.00 Y5553.00
G1 X5084.00 Y5637.00
G1 X5132.00 Y5800.00
G1 X5158.00 Y5845.00
G1 X5150.00 Y5750.00
G1 X6396.00 Y5424.00
G1 X6521.00 Y5080.00
G1 X6716.00 Y4689.00
G1 X6983.00 Y4381.00
G1 X7106.00 Y4241.00
G1 X7226.00 Y3851.00
G1 X7234.00 Y3660.00
G1 X7158.00 Y3716.00
G1 X7050.00 Y3854.00
G1 X6894.00 Y4105.00
G1 X6724.00 Y4380.00
G1 X6271.00 Y5660.00
G1 X6244.00 Y5850.00
G1 X6275.00 Y5766.00
G1 X4830.00 Y5385.00
G1 X4827.00 Y5786.00
G1 X4842.00 Y5805.00
G1 X4853.00 Y5610.00
G1 X4410.00 Y5475.00
G1 X4324.00 Y4986.00
G1 X4274.00 Y4749.00
G1 X4200.00 Y4563.00
G1 X4015.00 Y4332.00
G1 X4115.00 Y4660.00
G1 X4255.00 Y5120.00
G1 X4437.00 Y5813.00
G1 X4440.00 Y5734.00
G1 X5731.00 Y5100.00
G1 X5825.00 Y4347.00
G1 X5810.00 Y4237.00
G1 X5661.00 Y4696.00
G1 X5525.00 Y5435.00
G1 X5504.00 Y5630.00
G1 X5538.00 Y5574.00
G1 X5613.00 Y5419.00
G1 X5076.00 Y5020.00
G1 X5045.00 Y4763.00
G1 X4983.00 Y4896.00
G1 X5092.00 Y5460.00
G1 X5135.00 Y5560.00
G1 X5147.00 Y5574.00
G1 X5114.00 Y5389.00
G1 X6183.00 Y5025.00
G1 X6255.00 Y4850.00
G1 X6486.00 Y4440.00
G1 X6651.00 Y4200.00
G1 X6949.00 Y3828.00
G1 X7040.00 Y3708.00
G1 X7090.00 Y3412.00
G1 X7089.00 Y3325.00
G1 X7013.00 Y3410.00
G1 X6846.00 Y3585.00
G1 X6719.00 Y3766.00
G1 X6611.00 Y3996.00
G1 X6477.00 Y4296.00
G1 X6348.00 Y4551.00
G1 X6014.00 Y5265.00
G1 X5973.00 Y5530.00
G1 X6058.00 Y5325.00
G1 X4705.00 Y5192.00
G1 X4328.00 Y4524.00
G1 X4275.00 Y4414.00
G1 X4187.00 Y4203.00
G1 X3955.00 Y3912.00
G1 X3975.00 Y4014.00
G1 X4138.00 Y4353.00
G1 X4483.00 Y4935.00
G1 X4726.00 Y5500.00
G1 X4741.00 Y5480.00
G1 X4740.00 Y5355.00
G1 X6460.00 Y4880.00
G1 X6647.00 Y4370.00
G1 X6484.00 Y4557.00
G1 X6405.00 Y4797.00
G1 X6280.00 Y5390.00
G1 X6270.00 Y5435.00
G1 X6330.00 Y5265.00
G1 X5174.00 Y5090.00
G1 X5145.00 Y4985.00
G1 X5142.00 Y5040.00
G1 X5204.00 Y5430.00
G1 X5208.00 Y5313.00
G1 X4385.00 Y4868.00
G1 X4403.00 Y5017.00
G1 X4456.00 Y5294.00
G1 X4474.00 Y5249.00
G1 X6325.00 Y4870.00
G1 X6320.00 Y4863.00
G1 X6230.00 Y5225.00
G1 X6214.00 Y5350.00
G1 X6213.00 Y5390.00
G1 X6250.00 Y5225.00
G1 X4694.00 Y4850.00
G1 X4555.00 Y4295.00
G1 X4488.00 Y4045.00
G1 X4319.00 Y3655.00
G1 X4320.00 Y3790.00
G1 X4424.00 Y4156.00
G1 X4611.00 Y4710.00
G1 X4701.00 Y4992.00
G1 X4740.00 Y5090.00
G1 X4746.00 Y5100.00
G1 X4745.00 Y5053.00
G1 X5459.00 Y3746.00
G1 X5449.00 Y3648.00
G1 X5360.00 Y3378.00
G1 X5381.00 Y3349.00
G1 X5450.00 Y3445.00
G1 X5494.00 Y3520.00
G1 X5516.00 Y3380.00
G1 X5557.00 Y3195.00
G1 X5576.00 Y3070.00
G1 X5560.00 Y2815.00
G1 X5502.00 Y2408.00
G1 X5481.00 Y2482.00
G1 X5291.00 Y3135.00
G1 X5240.00 Y3286.00
G1 X5264.00 Y3451.00
G1 X5314.00 Y4325.00
G1 X5333.00 Y4935.00
G1 X5357.00 Y5065.00
G1 X5384.00 Y4700.00
G1 X6855.00 Y4735.00
G1 X6998.00 Y4531.00
G1 X7027.00 Y4433.00
G1 X6777.00 Y4713.00
G1 X6634.00 Y4980.00
G1 X6691.00 Y4913.00
G1 X7245.00 Y4545.00
G1 X7610.00 Y4047.00
G1 X7677.00 Y3903.00
G1 X7623.00 Y3936.00
G1 X7553.00 Y3983.00
G1 X7515.00 Y4048.00
G1 X7098.00 Y4623.00
G1 X6980.00 Y4782.00
G1 X6957.00 Y4880.00
G1 X7035.00 Y4784.00
G1 X6400.00 Y4230.00
G1 X6605.00 Y3860.00
G1 X6638.00 Y3775.00
G1 X6389.00 Y4069.00
G1 X6312.00 Y4220.00
G1 X6202.00 Y4486.00
G1 X6080.00 Y4838.00
G1 X6180.00 Y4655.00
G1 X4905.00 Y4495.00
G1 X4860.00 Y4413.00
G1 X4808.00 Y4330.00
G1 X4859.00 Y4650.00
G1 X4892.00 Y4795.00
G1 X4908.00 Y4645.00
G1 X3940.00 Y4273.00
G1 X3858.00 Y4123.00
G1 X3574.00 Y3783.00
G1 X3595.00 Y3863.00
G1 X3861.00 Y4401.00
G1 X4024.00 Y4698.00
G1 X4097.00 Y4837.00
G1 X4044.00 Y4665.00
G1 X5560.00 Y4336.00
G1 X5511.00 Y3880.00
G1 X5453.00 Y4585.00
G1 X5448.00 Y4785.00
G1 X5472.00 Y4740.00
G1 X5513.00 Y4645.00
G1 X4344.00 Y4143.00
G1 X4269.00 Y4008.00
G1 X3905.00 Y3095.00
G1 X3870.00 Y2920.00
G1 X3856.00 Y3013.00
G1 X3891.00 Y3455.00
G1 X3926.00 Y3665.00
G1 X3958.00 Y3790.00
G1 X4098.00 Y3970.00
G1 X4340.00 Y4320.00
G1 X4511.00 Y4679.00
G1 X4511.00 Y4606.00
G1 X3800.00 Y4430.00
G1 X3504.00 Y3786.00
G1 X3477.00 Y3678.00
G1 X3411.00 Y3619.00
G1 X2952.00 Y3294.00
G1 X2964.00 Y3590.00
G1 X3370.00 Y4085.00
G1 X3775.00 Y4480.00
G1 X3917.00 Y4640.00
G1 X3909.00 Y4618.00
G1 X5715.00 Y4282.00
G1 X5792.00 Y4051.00
G1 X5731.00 Y3838.00
G1 X5655.00 Y3555.00
G1 X5610.00 Y3276.00
G1 X5544.00 Y3645.00
G1 X5558.00 Y3795.00
G1 X5615.00 Y4125.00
G1 X5605.00 Y4551.00
G1 X5624.00 Y4542.00
G1 X7307.00 Y4319.00
G1 X7418.00 Y4110.00
G1 X7332.00 Y4174.00
G1 X7200.00 Y4281.00
G1 X7134.00 Y4360.00
G1 X7084.00 Y4488.00
G1 X7051.00 Y4570.00
G1 X7081.00 Y4553.00
G1 X7187.00 Y4459.00
G1 X6148.00 Y4013.00
G1 X6218.00 Y3905.00
G1 X6205.00 Y3815.00
G1 X6155.00 Y3585.00
G1 X6115.00 Y3445.00
G1 X6098.00 Y3385.00
G1 X6080.00 Y3420.00
G1 X5920.00 Y3875.00
G1 X5867.00 Y4045.00
G1 X5879.00 Y4155.00
G1 X5897.00 Y4398.00
G1 X5903.00 Y4531.00
G1 X5940.00 Y4433.00
G1 X6028.00 Y4228.00
G1 X5023.00 Y3965.00
G1 X5014.00 Y3905.00
G1 X4997.00 Y3975.00
G1 X4963.00 Y4227.00
G1 X4960.00 Y4449.00
G1 X4981.00 Y4483.00
G1 X5004.00 Y4393.00
G1 X6205.00 Y4320.00
G1 X6140.00 Y4458.00
G1 X6197.00 Y4353.00
G1 X6386.00 Y4380.00
G1 X6370.00 Y4400.00
G1 X6364.00 Y4420.00
G1 X6380.00 Y4400.00
G1 X4981.00 Y3813.00
G1 X5004.00 Y3751.00
G1 X4986.00 Y3638.00
G1 X4885.00 Y3172.00
G1 X4877.00 Y3171.00
G1 X4784.00 Y3992.00
G1 X4777.00 Y4118.00
G1 X4809.00 Y4182.00
G1 X4886.00 Y4326.00
G1 X4899.00 Y4188.00
G1 X7413.00 Y4015.00
G1 X7486.00 Y3921.00
G1 X7460.00 Y3630.00
G1 X7420.00 Y3510.00
G1 X7319.00 Y3584.00
G1 X7302.00 Y3711.00
G1 X7289.00 Y3884.00
G1 X7205.00 Y4173.00
G1 X7279.00 Y4127.00
G1 X6841.00 Y4045.00
G1 X6790.00 Y4126.00
G1 X6830.00 Y4075.00
G1 X6441.00 Y3734.00
G1 X6537.00 Y3285.00
G1 X6465.00 Y2785.00
G1 X6397.00 Y2495.00
G1 X6319.00 Y2735.00
G1 X6287.00 Y2880.00
G1 X6324.00 Y3000.00
G1 X6403.00 Y3465.00
G1 X6340.00 Y3811.00
G1 X6310.00 Y3910.00
G1 X6284.00 Y4075.00
G1 X6299.00 Y4072.00
G1 X6356.00 Y3952.00
G1 X3875.00 Y3875.00
G1 X3694.00 Y3616.00
G1 X3520.00 Y3398.00
G1 X3520.00 Y3452.00
G1 X3531.00 Y3570.00
G1 X3579.00 Y3675.00
G1 X3887.00 Y4050.00
G1 X3908.00 Y4076.00
G1 X3896.00 Y3993.00
G1 X5958.00 Y3524.00
G1 X5944.00 Y3439.00
G1 X5899.00 Y3270.00
G1 X5774.00 Y2868.00
G1 X5750.00 Y2787.00
G1 X5660.00 Y3137.00
G1 X5811.00 Y3865.00
G1 X5833.00 Y3925.00
G1 X5846.00 Y3885.00
G1 X5908.00 Y3684.00
G1 X4820.00 Y2998.00
G1 X4747.00 Y2820.00
G1 X4664.00 Y2686.00
G1 X4513.00 Y3255.00
G1 X4562.00 Y3463.00
G1 X4666.00 Y3739.00
G1 X4717.00 Y3886.00
G1 X4740.00 Y3710.00
G1 X7866.00 Y3465.00
G1 X7885.00 Y3364.00
G1 X7906.00 Y3336.00
G1 X7935.00 Y3490.00
G1 X7920.00 Y3560.00
G1 X8061.00 Y3272.00
G1 X8074.00 Y3120.00
G1 X7749.00 Y3293.00
G1 X7663.00 Y3344.00
G1 X7657.00 Y3470.00
G1 X7595.00 Y3823.00
G1 X7580.00 Y3870.00
G1 X7759.00 Y3737.00
G1 X4245.00 Y3649.00
G1 X4252.00 Y3552.00
G1 X4169.00 Y3429.00
G1 X4033.00 Y3205.00
G1 X3980.00 Y3145.00
G1 X4080.00 Y3535.00
G1 X4258.00 Y3856.00
G1 X4249.00 Y3799.00
G1 X4512.00 Y3539.00
G1 X4520.00 Y3619.00
G1 X4627.00 Y3856.00
G1 X4573.00 Y3679.00
G1 X6271.00 Y3060.00
G1 X6252.00 Y2995.00
G1 X6241.00 Y3025.00
G1 X6182.00 Y3174.00
G1 X6135.00 Y3293.00
G1 X6188.00 Y3454.00
G1 X6257.00 Y3698.00
G1 X6282.00 Y3780.00
G1 X6304.00 Y3728.00
G1 X2890.00 Y3570.00
G1 X2883.00 Y3279.00
G1 X2765.00 Y3171.00
G1 X2629.00 Y3074.00
G1 X2600.00 Y3113.00
G1 X2750.00 Y3520.00
G1 X2946.00 Y3737.00
G1 X2927.00 Y3679.00
G1 X7593.00 Y3387.00
G1 X7563.00 Y3405.00
G1 X7510.00 Y3440.00
G1 X7487.00 Y3457.00
G1 X7514.00 Y3561.00
G1 X7540.00 Y3686.00
G1 X7547.00 Y3714.00
G1 X7586.00 Y3506.00
G1 X6721.00 Y3565.00
G1 X6701.00 Y3589.00
G1 X6694.00 Y3630.00
G1 X6714.00 Y3590.00
G1 X7170.00 Y3240.00
G1 X7157.00 Y3408.00
G1 X7142.00 Y3607.00
G1 X7131.00 Y3640.00
G1 X7181.00 Y3597.00
G1 X7230.00 Y3530.00
G1 X7076.00 Y3236.00
G1 X7074.00 Y3097.00
G1 X7021.00 Y3065.00
G1 X6854.00 Y3365.00
G1 X6795.00 Y3468.00
G1 X6784.00 Y3540.00
G1 X6779.00 Y3575.00
G1 X6796.00 Y3550.00
G1 X6938.00 Y3383.00
G1 X3449.00 Y3336.00
G1 X3337.00 Y3211.00
G1 X3150.00 Y2998.00
G1 X3070.00 Y2910.00
G1 X2970.00 Y3205.00
G1 X2979.00 Y3220.00
G1 X3404.00 Y3517.00
G1 X3449.00 Y3550.00
G1 X3452.00 Y3443.00
G1 X7428.00 Y3410.00
G1 X7414.00 Y3348.00
G1 X7400.00 Y3153.00
G1 X7392.00 Y3016.00
G1 X7302.00 Y3094.00
G1 X7218.00 Y3176.00
G1 X7249.00 Y3276.00
G1 X7291.00 Y3443.00
G1 X7302.00 Y3512.00
G1 X7334.00 Y3482.00
G1 X7396.00 Y3432.00
G1 X4285.00 Y2916.00
G1 X4202.00 Y2269.00
G1 X4201.00 Y2150.00
G1 X4080.00 Y2430.00
G1 X3970.00 Y2853.00
G1 X3976.00 Y2962.00
G1 X4224.00 Y3383.00
G1 X4245.00 Y3412.00
G1 X4252.00 Y3353.00
G1 X4284.00 Y3175.00
G1 X6026.00 Y3131.00
G1 X5980.00 Y2993.00
G1 X6002.00 Y2969.00
G1 X6076.00 Y3077.00
G1 X6110.00 Y3160.00
G1 X6210.00 Y2899.00
G1 X6074.00 Y2630.00
G1 X5985.00 Y2467.00
G1 X5933.00 Y2368.00
G1 X5902.00 Y2417.00
G1 X5829.00 Y2619.00
G1 X5943.00 Y3185.00
G1 X6004.00 Y3374.00
G1 X6012.00 Y3414.00
G1 X6042.00 Y3344.00
G1 X6072.00 Y3265.00
G1 X7590.00 Y3245.00
G1 X7646.00 Y2901.00
G1 X7676.00 Y2762.00
G1 X7533.00 Y2880.00
G1 X7460.00 Y2947.00
G1 X7464.00 Y3111.00
G1 X7480.00 Y3323.00
G1 X7493.00 Y3371.00
G1 X7519.00 Y3347.00
G1 X7568.00 Y3311.00
G1 X6986.00 Y2961.00
G1 X7012.00 Y2877.00
G1 X6981.00 Y2781.00
G1 X6924.00 Y2250.00
G1 X6932.00 Y2175.00
G1 X6885.00 Y2235.00
G1 X6779.00 Y2435.00
G1 X6780.00 Y2900.00
G1 X6804.00 Y3167.00
G1 X6805.00 Y3319.00
G1 X6827.00 Y3292.00
G1 X6904.00 Y3155.00
G1 X8068.00 Y3033.00
G1 X8062.00 Y2962.00
G1 X7889.00 Y2562.00
G1 X7822.00 Y2622.00
G1 X7750.00 Y2744.00
G1 X7715.00 Y2902.00
G1 X7660.00 Y3227.00
G1 X7660.00 Y3258.00
G1 X7733.00 Y3218.00
G1 X7930.00 Y3109.00
G1 X4584.00 Y2677.00
G1 X4620.00 Y2589.00
G1 X4561.00 Y2512.00
G1 X4279.00 Y2182.00
G1 X4314.00 Y2743.00
G1 X4340.00 Y2808.00
G1 X4430.00 Y2605.00
G1 X4465.00 Y2600.00
G1 X4450.00 Y2712.00
G1 X4380.00 Y2995.00
G1 X4447.00 Y3197.00
G1 X4469.00 Y3079.00
G1 X3010.00 Y2859.00
G1 X2962.00 Y2757.00
G1 X2855.00 Y2606.00
G1 X2807.00 Y2538.00
G1 X2763.00 Y2606.00
G1 X2610.00 Y2956.00
G1 X2901.00 Y3157.00
G1 X2954.00 Y3012.00
G0 X5120.00 Y9280.00
G1 X5130.00 Y9270.00
G1 X5140.00 Y9280.00
G1 X5130.00 Y9290.00
G1 X5120.00 Y9280.00
G0 X5565.00 Y9280.00
G1 X5576.00 Y9270.00
G1 X5580.00 Y9280.00
G1 X5569.00 Y9290.00
G1 X5565.00 Y9280.00
G0 X5025.00 Y9270.00
G1 X5041.00 Y9260.00
G1 X5050.00 Y9270.00
G1 X5034.00 Y9280.00
G1 X5025.00 Y9270.00
G0 X5663.00 Y9266.00
G1 X5677.00 Y9257.00
G1 X5690.00 Y9271.00
G1 X5677.00 Y9280.00
G1 X5663.00 Y9266.00
G0 X4860.00 Y9230.00
G1 X4869.00 Y9210.00
G1 X4893.00 Y9243.00
G1 X4860.00 Y9230.00
G0 X4949.00 Y9250.00
G1 X4944.00 Y9223.00
G1 X4955.00 Y9200.00
G1 X4970.00 Y9213.00
G1 X4949.00 Y9250.00
G0 X5746.00 Y9234.00
G1 X5761.00 Y9200.00
G1 X5770.00 Y9225.00
G1 X5746.00 Y9234.00
G0 X5822.00 Y9238.00
G1 X5850.00 Y9234.00
G1 X5834.00 Y9250.00
G1 X5822.00 Y9238.00
G0 X4765.00 Y9229.00
G1 X4780.00 Y9225.00
G1 X4782.00 Y9240.00
G1 X4765.00 Y9229.00
G0 X5920.00 Y9220.00
G1 X5930.00 Y9210.00
G1 X5940.00 Y9220.00
G1 X5930.00 Y9230.00
G1 X5920.00 Y9220.00
G0 X5260.00 Y9209.00
G1 X5270.00 Y9205.00
G1 X5280.00 Y9216.00
G1 X5270.00 Y9220.00
G1 X5260.00 Y9209.00
G0 X4605.00 Y9190.00
G1 X4614.00 Y9180.00
G1 X4635.00 Y9190.00
G1 X4626.00 Y9200.00
G1 X4605.00 Y9190.00
G0 X6080.00 Y9176.00
G1 X6095.00 Y9166.00
G1 X6110.00 Y9170.00
G1 X6095.00 Y9180.00
G1 X6080.00 Y9176.00
G0 X5276.00 Y9144.00
G1 X5290.00 Y9130.00
G1 X5291.00 Y9160.00
G1 X5276.00 Y9144.00
G0 X5506.00 Y9152.00
G1 X5511.00 Y9135.00
G1 X5523.00 Y9151.00
G1 X5506.00 Y9152.00
G0 X5180.00 Y9140.00
G1 X5189.00 Y9130.00
G1 X5205.00 Y9140.00
G1 X5196.00 Y9150.00
G1 X5180.00 Y9140.00
G0 X5412.00 Y9138.00
G1 X5440.00 Y9134.00
G1 X5424.00 Y9150.00
G1 X5412.00 Y9138.00
G0 X4497.00 Y9133.00
G1 X4490.00 Y9116.00
G1 X4502.00 Y9118.00
G1 X4509.00 Y9135.00
G1 X4497.00 Y9133.00
G0 X5050.00 Y9124.00
G1 X5060.00 Y9115.00
G1 X5065.00 Y9131.00
G1 X5050.00 Y9124.00
G0 X6156.00 Y9123.00
G1 X6161.00 Y9096.00
G1 X6168.00 Y9105.00
G1 X6187.00 Y9124.00
G1 X6204.00 Y9132.00
G1 X6156.00 Y9123.00
G0 X5650.00 Y9119.00
G1 X5660.00 Y9115.00
G1 X5670.00 Y9126.00
G1 X5660.00 Y9130.00
G1 X5650.00 Y9119.00
G0 X4415.00 Y9110.00
G1 X4419.00 Y9100.00
G1 X4435.00 Y9110.00
G1 X4431.00 Y9120.00
G1 X4415.00 Y9110.00
G0 X6042.00 Y9109.00
G1 X6059.00 Y9092.00
G1 X6068.00 Y9101.00
G1 X6051.00 Y9118.00
G1 X6042.00 Y9109.00
G0 X6270.00 Y9100.00
G1 X6286.00 Y9090.00
G1 X6295.00 Y9100.00
G1 X6279.00 Y9110.00
G1 X6270.00 Y9100.00
G0 X4530.00 Y9090.00
G1 X4540.00 Y9080.00
G1 X4550.00 Y9090.00
G1 X4540.00 Y9100.00
G1 X4530.00 Y9090.00
G0 X4600.00 Y9080.00
G1 X4615.00 Y9070.00
G1 X4630.00 Y9080.00
G1 X4615.00 Y9090.00
G1 X4600.00 Y9080.00
G0 X4726.00 Y9081.00
G1 X4724.00 Y9063.00
G1 X4738.00 Y9081.00
G1 X4726.00 Y9081.00
G0 X5965.00 Y9080.00
G1 X5981.00 Y9070.00
G1 X5990.00 Y9080.00
G1 X5974.00 Y9090.00
G1 X5965.00 Y9080.00
G0 X4490.00 Y9060.00
G1 X4500.00 Y9050.00
G1 X4510.00 Y9060.00
G1 X4500.00 Y9070.00
G1 X4490.00 Y9060.00
G0 X4814.00 Y9056.00
G1 X4803.00 Y9034.00
G1 X4827.00 Y9043.00
G1 X4814.00 Y9056.00
G0 X5165.00 Y9060.00
G1 X5169.00 Y9050.00
G1 X5185.00 Y9060.00
G1 X5181.00 Y9070.00
G1 X5165.00 Y9060.00
G0 X5525.00 Y9060.00
G1 X5541.00 Y9050.00
G1 X5550.00 Y9060.00
G1 X5534.00 Y9070.00
G1 X5525.00 Y9060.00
G0 X6107.00 Y9063.00
G1 X6100.00 Y9046.00
G1 X6112.00 Y9048.00
G1 X6119.00 Y9065.00
G1 X6107.00 Y9063.00
G0 X6200.00 Y9060.00
G1 X6216.00 Y9050.00
G1 X6225.00 Y9060.00
G1 X6209.00 Y9070.00
G1 X6200.00 Y9060.00
G0 X4345.00 Y9049.00
G1 X4343.00 Y9033.00
G1 X4370.00 Y9051.00
G1 X4345.00 Y9049.00
G0 X4407.00 Y9035.00
G1 X4414.00 Y9013.00
G1 X4422.00 Y9060.00
G1 X4407.00 Y9035.00
G0 X5820.00 Y9044.00
G1 X5830.00 Y9035.00
G1 X5835.00 Y9051.00
G1 X5820.00 Y9044.00
G0 X5900.00 Y9040.00
G1 X5912.00 Y9028.00
G1 X5912.00 Y9052.00
G1 X5900.00 Y9040.00
G0 X6325.00 Y9050.00
G1 X6336.00 Y9040.00
G1 X6340.00 Y9050.00
G1 X6329.00 Y9060.00
G1 X6325.00 Y9050.00
G0 X6370.00 Y9051.00
G1 X6380.00 Y9035.00
G1 X6390.00 Y9039.00
G1 X6380.00 Y9055.00
G1 X6370.00 Y9051.00
G0 X6285.00 Y9020.00
G1 X6301.00 Y9010.00
G1 X6305.00 Y9020.00
G1 X6289.00 Y9030.00
G1 X6285.00 Y9020.00
G0 X4540.00 Y9010.00
G1 X4550.00 Y9000.00
G1 X4560.00 Y9010.00
G1 X4550.00 Y9020.00
G1 X4540.00 Y9010.00
G0 X6155.00 Y9010.00
G1 X6171.00 Y9005.00
G1 X6164.00 Y9020.00
G1 X6155.00 Y9010.00
G0 X4243.00 Y8981.00
G1 X4234.00 Y8950.00
G1 X4254.00 Y8965.00
G1 X4280.00 Y8980.00
G1 X4295.00 Y8990.00
G1 X4243.00 Y8981.00
G0 X4630.00 Y8990.00
G1 X4640.00 Y8980.00
G1 X4650.00 Y8990.00
G1 X4640.00 Y9000.00
G1 X4630.00 Y8990.00
G0 X6416.00 Y8991.00
G1 X6443.00 Y8969.00
G1 X6485.00 Y8952.00
G1 X6471.00 Y8974.00
G1 X6416.00 Y8991.00
G0 X4740.00 Y8974.00
G1 X4750.00 Y8965.00
G1 X4760.00 Y8981.00
G1 X4750.00 Y8990.00
G1 X4740.00 Y8974.00
G0 X5865.00 Y8981.00
G1 X5870.00 Y8965.00
G1 X5880.00 Y8974.00
G1 X5865.00 Y8981.00
G0 X5952.00 Y8979.00
G1 X5969.00 Y8962.00
G1 X5978.00 Y8971.00
G1 X5961.00 Y8988.00
G1 X5952.00 Y8979.00
G0 X6060.00 Y8975.00
G1 X6077.00 Y8964.00
G1 X6058.00 Y8990.00
G1 X6060.00 Y8975.00
G0 X4357.00 Y8969.00
G1 X4340.00 Y8950.00
G1 X4377.00 Y8955.00
G1 X4357.00 Y8969.00
G0 X6216.00 Y8961.00
G1 X6260.00 Y8925.00
G1 X6271.00 Y8934.00
G1 X6216.00 Y8961.00
G0 X6343.00 Y8953.00
G1 X6366.00 Y8942.00
G1 X6342.00 Y8970.00
G1 X6343.00 Y8953.00
G0 X4453.00 Y8953.00
G1 X4449.00 Y8920.00
G1 X4473.00 Y8953.00
G1 X4453.00 Y8953.00
G0 X4560.00 Y8935.00
G1 X4569.00 Y8920.00
G1 X4590.00 Y8935.00
G1 X4581.00 Y8950.00
G1 X4560.00 Y8935.00
G0 X6120.00 Y8940.00
G1 X6140.00 Y8920.00
G1 X6148.00 Y8929.00
G1 X6120.00 Y8940.00
G0 X4283.00 Y8913.00
G1 X4280.00 Y8880.00
G1 X4299.00 Y8914.00
G1 X4283.00 Y8913.00
G0 X4675.00 Y8910.00
G1 X4689.00 Y8900.00
G1 X4710.00 Y8910.00
G1 X4696.00 Y8920.00
G1 X4675.00 Y8910.00
G0 X4790.00 Y8905.00
G1 X4801.00 Y8892.00
G1 X4812.00 Y8905.00
G1 X4801.00 Y8918.00
G1 X4790.00 Y8905.00
G0 X5902.00 Y8908.00
G1 X5930.00 Y8904.00
G1 X5914.00 Y8920.00
G1 X5902.00 Y8908.00
G0 X6010.00 Y8911.00
G1 X6020.00 Y8895.00
G1 X6030.00 Y8904.00
G1 X6020.00 Y8920.00
G1 X6010.00 Y8911.00
G0 X6400.00 Y8905.00
G1 X6421.00 Y8890.00
G1 X6430.00 Y8905.00
G1 X6409.00 Y8920.00
G1 X6400.00 Y8905.00
G0 X3999.00 Y8836.00
G1 X3883.00 Y8703.00
G1 X3972.00 Y8782.00
G1 X4080.00 Y8881.00
G1 X4094.00 Y8902.00
G1 X3999.00 Y8836.00
G0 X5245.00 Y8891.00
G1 X5270.00 Y8875.00
G1 X5260.00 Y8900.00
G1 X5245.00 Y8891.00
G0 X6640.00 Y8872.00
G1 X6758.00 Y8766.00
G1 X6847.00 Y8694.00
G1 X6619.00 Y8900.00
G1 X6640.00 Y8872.00
G0 X5430.00 Y8880.00
G1 X5445.00 Y8870.00
G1 X5460.00 Y8880.00
G1 X5445.00 Y8890.00
G1 X5430.00 Y8880.00
G0 X4350.00 Y8870.00
G1 X4342.00 Y8854.00
G1 X4380.00 Y8870.00
G1 X4350.00 Y8870.00
G0 X4462.00 Y8849.00
G1 X4436.00 Y8808.00
G1 X4491.00 Y8852.00
G1 X4462.00 Y8849.00
G0 X6200.00 Y8872.00
G1 X6267.00 Y8813.00
G1 X6245.00 Y8850.00
G1 X6200.00 Y8872.00
G0 X6310.00 Y8871.00
G1 X6326.00 Y8856.00
G1 X6350.00 Y8865.00
G1 X6330.00 Y8880.00
G1 X6310.00 Y8871.00
G0 X4113.00 Y8844.00
G1 X4120.00 Y8826.00
G1 X4160.00 Y8861.00
G1 X4113.00 Y8844.00
G0 X4606.00 Y8835.00
G1 X4590.00 Y8802.00
G1 X4638.00 Y8851.00
G1 X4606.00 Y8835.00
G0 X6070.00 Y8847.00
G1 X6125.00 Y8800.00
G1 X6088.00 Y8851.00
G1 X6070.00 Y8847.00
G0 X6566.00 Y8851.00
G1 X6644.00 Y8790.00
G1 X6617.00 Y8825.00
G1 X6566.00 Y8851.00
G0 X5962.00 Y8833.00
G1 X5983.00 Y8812.00
G1 X5990.00 Y8829.00
G1 X5962.00 Y8833.00
G0 X4717.00 Y8826.00
G1 X4717.00 Y8806.00
G1 X4750.00 Y8831.00
G1 X4717.00 Y8826.00
G0 X4160.00 Y8805.00
G1 X4154.00 Y8783.00
G1 X4204.00 Y8812.00
G1 X4160.00 Y8805.00
G0 X6515.00 Y8795.00
G1 X6546.00 Y8795.00
G1 X6504.00 Y8820.00
G1 X6515.00 Y8795.00
G0 X6400.00 Y8803.00
G1 X6456.00 Y8743.00
G1 X6408.00 Y8810.00
G1 X6400.00 Y8803.00
G0 X4270.00 Y8775.00
G1 X4262.00 Y8750.00
G1 X4302.00 Y8794.00
G1 X4270.00 Y8775.00
G0 X4004.00 Y8755.00
G1 X4009.00 Y8725.00
G1 X4030.00 Y8750.00
G1 X4004.00 Y8755.00
G0 X4363.00 Y8755.00
G1 X4364.00 Y8733.00
G1 X4394.00 Y8761.00
G1 X4363.00 Y8755.00
G0 X6310.00 Y8756.00
G1 X6344.00 Y8737.00
G1 X6319.00 Y8770.00
G1 X6310.00 Y8756.00
G0 X6680.00 Y8758.00
G1 X6730.00 Y8717.00
G1 X6689.00 Y8770.00
G1 X6680.00 Y8758.00
G0 X6600.00 Y8739.00
G1 X6652.00 Y8672.00
G1 X6663.00 Y8678.00
G1 X6600.00 Y8739.00
G0 X4070.00 Y8719.00
G1 X4064.00 Y8693.00
G1 X4110.00 Y8732.00
G1 X4070.00 Y8719.00
G0 X6360.00 Y8701.00
G1 X6376.00 Y8686.00
G1 X6394.00 Y8695.00
G1 X6360.00 Y8701.00
G0 X4300.00 Y8690.00
G1 X4315.00 Y8680.00
G1 X4330.00 Y8690.00
G1 X4315.00 Y8700.00
G1 X4300.00 Y8690.00
G0 X3900.00 Y8644.00
G1 X3886.00 Y8610.00
G1 X3950.00 Y8668.00
G1 X3900.00 Y8644.00
G0 X6762.00 Y8658.00
G1 X6798.00 Y8622.00
G1 X6830.00 Y8613.00
G1 X6801.00 Y8649.00
G1 X6762.00 Y8658.00
G0 X6880.00 Y8652.00
G1 X6957.00 Y8583.00
G1 X6930.00 Y8625.00
G1 X6880.00 Y8652.00
G0 X3777.00 Y8622.00
G1 X3759.00 Y8580.00
G1 X3794.00 Y8615.00
G1 X3777.00 Y8622.00
G0 X3945.00 Y8575.00
G1 X3895.00 Y8521.00
G1 X4009.00 Y8624.00
G1 X3945.00 Y8575.00
G0 X4067.00 Y8623.00
G1 X4060.00 Y8597.00
G1 X4075.00 Y8590.00
G1 X4090.00 Y8616.00
G1 X4067.00 Y8623.00
G0 X6620.00 Y8617.00
G1 X6640.00 Y8585.00
G1 X6650.00 Y8611.00
G1 X6620.00 Y8617.00
G0 X6720.00 Y8618.00
G1 X6814.00 Y8517.00
G1 X6783.00 Y8564.00
G1 X6745.00 Y8610.00
G1 X6720.00 Y8618.00
G0 X3991.00 Y8536.00
G1 X3978.00 Y8506.00
G1 X4024.00 Y8548.00
G1 X3991.00 Y8536.00
G0 X6703.00 Y8525.00
G1 X6710.00 Y8504.00
G1 X6725.00 Y8500.00
G1 X6718.00 Y8531.00
G1 X6703.00 Y8525.00
G0 X3686.00 Y8515.00
G1 X3700.00 Y8500.00
G1 X3714.00 Y8515.00
G1 X3700.00 Y8530.00
G1 X3686.00 Y8515.00
G0 X4050.00 Y8485.00
G1 X4043.00 Y8463.00
G1 X4080.00 Y8491.00
G1 X4050.00 Y8485.00
G0 X6630.00 Y8481.00
G1 X6645.00 Y8460.00
G1 X6660.00 Y8469.00
G1 X6645.00 Y8490.00
G1 X6630.00 Y8481.00
G0 X7080.00 Y8486.00
G1 X7095.00 Y8470.00
G1 X7104.00 Y8474.00
G1 X7080.00 Y8486.00
G0 X3832.00 Y8455.00
G1 X3820.00 Y8422.00
G1 X3858.00 Y8466.00
G1 X3832.00 Y8455.00
G0 X5697.00 Y8466.00
G1 X5705.00 Y8433.00
G1 X5732.00 Y8428.00
G1 X5734.00 Y8457.00
G1 X5697.00 Y8466.00
G0 X3590.00 Y8461.00
G1 X3600.00 Y8445.00
G1 X3610.00 Y8449.00
G1 X3600.00 Y8465.00
G1 X3590.00 Y8461.00
G0 X4195.00 Y8460.00
G1 X4198.00 Y8438.00
G1 X4215.00 Y8440.00
G1 X4212.00 Y8462.00
G1 X4195.00 Y8460.00
G0 X4982.00 Y8448.00
G1 X5000.00 Y8425.00
G1 X5018.00 Y8448.00
G1 X5000.00 Y8470.00
G1 X4982.00 Y8448.00
G0 X6850.00 Y8463.00
G1 X6884.00 Y8420.00
G1 X6870.00 Y8460.00
G1 X6850.00 Y8463.00
G0 X6482.00 Y8448.00
G1 X6520.00 Y8444.00
G1 X6499.00 Y8460.00
G1 X6482.00 Y8448.00
G0 X3906.00 Y8428.00
G1 X3892.00 Y8388.00
G1 X3914.00 Y8402.00
G1 X3928.00 Y8442.00
G1 X3906.00 Y8428.00
G0 X6769.00 Y8433.00
G1 X6814.00 Y8380.00
G1 X6820.00 Y8400.00
G1 X6806.00 Y8420.00
G1 X6786.00 Y8435.00
G1 X6770.00 Y8450.00
G1 X6769.00 Y8433.00
G0 X3550.00 Y8403.00
G1 X3560.00 Y8380.00
G1 X3570.00 Y8382.00
G1 X3560.00 Y8405.00
G1 X3550.00 Y8403.00
G0 X7145.00 Y8390.00
G1 X7161.00 Y8380.00
G1 X7170.00 Y8390.00
G1 X7154.00 Y8400.00
G1 X7145.00 Y8390.00
G0 X3762.00 Y8368.00
G1 X3750.00 Y8343.00
G1 X3787.00 Y8346.00
G1 X3762.00 Y8368.00
G0 X4137.00 Y8358.00
G1 X4155.00 Y8333.00
G1 X4156.00 Y8380.00
G1 X4137.00 Y8358.00
G0 X6537.00 Y8374.00
G1 X6561.00 Y8330.00
G1 X6568.00 Y8352.00
G1 X6537.00 Y8374.00
G0 X5720.00 Y8350.00
G1 X5716.00 Y8323.00
G1 X5748.00 Y8324.00
G1 X5720.00 Y8350.00
G0 X4965.00 Y8340.00
G1 X4986.00 Y8310.00
G1 X5000.00 Y8330.00
G1 X4965.00 Y8340.00
G0 X4776.00 Y8313.00
G1 X4785.00 Y8280.00
G1 X4800.00 Y8294.00
G1 X4776.00 Y8313.00
G0 X5904.00 Y8306.00
G1 X5934.00 Y8280.00
G1 X5927.00 Y8307.00
G1 X5904.00 Y8306.00
G0 X5345.00 Y8270.00
G1 X5348.00 Y8248.00
G1 X5365.00 Y8250.00
G1 X5362.00 Y8272.00
G1 X5345.00 Y8270.00
G0 X4667.00 Y8221.00
G1 X4668.00 Y8196.00
G1 X4700.00 Y8226.00
G1 X4667.00 Y8221.00
G0 X6014.00 Y8229.00
G1 X6046.00 Y8192.00
G1 X6030.00 Y8240.00
G1 X6014.00 Y8229.00
G0 X3840.00 Y8183.00
G1 X3855.00 Y8174.00
G1 X3849.00 Y8210.00
G1 X3840.00 Y8183.00
G0 X4747.00 Y8195.00
G1 X4772.00 Y8178.00
G1 X4760.00 Y8210.00
G1 X4747.00 Y8195.00
G0 X5937.00 Y8204.00
G1 X5951.00 Y8170.00
G1 X5968.00 Y8187.00
G1 X5937.00 Y8204.00
G0 X6850.00 Y8190.00
G1 X6868.00 Y8172.00
G1 X6885.00 Y8190.00
G1 X6868.00 Y8208.00
G1 X6850.00 Y8190.00
G0 X4547.00 Y8143.00
G1 X4548.00 Y8080.00
G1 X4580.00 Y8175.00
G1 X4547.00 Y8143.00
G0 X5120.00 Y8169.00
G1 X5148.00 Y8173.00
G1 X5136.00 Y8190.00
G1 X5120.00 Y8169.00
G0 X5562.00 Y8168.00
G1 X5590.00 Y8164.00
G1 X5574.00 Y8190.00
G1 X5562.00 Y8168.00
G0 X6130.00 Y8180.00
G1 X6179.00 Y8085.00
G1 X6144.00 Y8180.00
G1 X6130.00 Y8180.00
G0 X5190.00 Y8155.00
G1 X5205.00 Y8130.00
G1 X5220.00 Y8155.00
G1 X5205.00 Y8180.00
G1 X5190.00 Y8155.00
G0 X5345.00 Y8170.00
G1 X5361.00 Y8140.00
G1 X5361.00 Y8175.00
G1 X5345.00 Y8170.00
G0 X5482.00 Y8158.00
G1 X5510.00 Y8154.00
G1 X5494.00 Y8180.00
G1 X5482.00 Y8158.00
G0 X4617.00 Y8103.00
G1 X4625.00 Y8070.00
G1 X4640.00 Y8090.00
G1 X4617.00 Y8103.00
G0 X6070.00 Y8098.00
G1 X6080.00 Y8070.00
G1 X6107.00 Y8094.00
G1 X6070.00 Y8098.00
G0 X4435.00 Y8070.00
G1 X4451.00 Y8035.00
G1 X4451.00 Y8090.00
G1 X4435.00 Y8070.00
G0 X6258.00 Y8065.00
G1 X6276.00 Y8040.00
G1 X6280.00 Y8071.00
G1 X6258.00 Y8065.00
G0 X5342.00 Y8069.00
G1 X5355.00 Y8059.00
G1 X5368.00 Y8069.00
G1 X5355.00 Y8080.00
G1 X5342.00 Y8069.00
G0 X5976.00 Y8072.00
G1 X5980.00 Y8050.00
G1 X6001.00 Y8047.00
G1 X6006.00 Y8069.00
G1 X5976.00 Y8072.00
G0 X4707.00 Y8064.00
G1 X4726.00 Y8040.00
G1 X4740.00 Y8055.00
G1 X4707.00 Y8064.00
G0 X4576.00 Y7929.00
G1 X4584.00 Y7880.00
G1 X4605.00 Y7950.00
G1 X4576.00 Y7929.00
G0 X5317.00 Y7943.00
G1 X5310.00 Y7913.00
G1 X5338.00 Y7923.00
G1 X5317.00 Y7943.00
G0 X5372.00 Y7918.00
G1 X5400.00 Y7914.00
G1 X5384.00 Y7940.00
G1 X5372.00 Y7918.00
G0 X4351.00 Y7596.00
G1 X4425.00 Y7372.00
G1 X4404.00 Y7451.00
G1 X4365.00 Y7575.00
G1 X4351.00 Y7596.00
G0 X3646.00 Y7536.00
G1 X3661.00 Y7456.00
G1 X3650.00 Y7560.00
G1 X3646.00 Y7536.00
M2 ; End of program
