; G-code generated from SVG
G21 ; Set units to mm
G90 ; Absolute positioning
G0 X4965.00 Y9414.00
G1 X4372.00 Y9244.00
G1 X3623.00 Y8574.00
G1 X3357.00 Y7955.00
G1 X3326.00 Y7650.00
G1 X3348.00 Y7418.00
G1 X3449.00 Y7300.00
G1 X3463.00 Y7258.00
G1 X3766.00 Y7085.00
G1 X3891.00 Y7070.00
G1 X3935.00 Y7060.00
G1 X3861.00 Y6852.00
G1 X3673.00 Y6660.00
G1 X3610.00 Y6575.00
G1 X3748.00 Y6620.00
G1 X3999.00 Y6993.00
G1 X4018.00 Y7065.00
G1 X4088.00 Y7071.00
G1 X4169.00 Y7084.00
G1 X4160.00 Y6904.00
G1 X3860.00 Y6468.00
G1 X3613.00 Y6134.00
G1 X3652.00 Y6151.00
G1 X3893.00 Y6399.00
G1 X4179.00 Y6745.00
G1 X4250.00 Y7035.00
G1 X4175.00 Y7280.00
G1 X4141.00 Y7330.00
G1 X4185.00 Y7330.00
G1 X4286.00 Y7211.00
G1 X4306.00 Y6917.00
G1 X4290.00 Y6844.00
G1 X4318.00 Y6842.00
G1 X4362.00 Y6895.00
G1 X4379.00 Y6917.00
G1 X4271.00 Y6635.00
G1 X4110.00 Y6204.00
G1 X4008.00 Y5890.00
G1 X3805.00 Y5602.00
G1 X3474.00 Y5389.00
G1 X3355.00 Y5301.00
G1 X3480.00 Y5313.00
G1 X3935.00 Y5628.00
G1 X4148.00 Y6050.00
G1 X4195.00 Y6240.00
G1 X4326.00 Y6580.00
G1 X4395.00 Y6730.00
G1 X4416.00 Y6717.00
G1 X4451.00 Y6649.00
G1 X4472.00 Y6619.00
G1 X4437.00 Y6537.00
G1 X4365.00 Y6190.00
G1 X4316.00 Y5907.00
G1 X3965.00 Y5452.00
G1 X3854.00 Y5352.00
G1 X3878.00 Y5330.00
G1 X3988.00 Y5390.00
G1 X4080.00 Y5449.00
G1 X4080.00 Y5404.00
G1 X4049.00 Y5329.00
G1 X3793.00 Y5144.00
G1 X3565.00 Y4979.00
G1 X3435.00 Y4886.00
G1 X3045.00 Y4448.00
G1 X3020.00 Y4400.00
G1 X2755.00 Y4219.00
G1 X2516.00 Y3916.00
G1 X2578.00 Y3888.00
G1 X2722.00 Y4082.00
G1 X2964.00 Y4280.00
G1 X3003.00 Y4304.00
G1 X2997.00 Y4265.00
G1 X2973.00 Y4217.00
G1 X2762.00 Y3985.00
G1 X2673.00 Y3680.00
G1 X2734.00 Y3372.00
G1 X2821.00 Y3299.00
G1 X2845.00 Y3318.00
G1 X2808.00 Y3392.00
G1 X2747.00 Y3714.00
G1 X2930.00 Y4083.00
G1 X2986.00 Y4143.00
G1 X3009.00 Y4034.00
G1 X3042.00 Y3913.00
G1 X3105.00 Y3948.00
G1 X3072.00 Y4207.00
G1 X3095.00 Y4339.00
G1 X3401.00 Y4473.00
G1 X3761.00 Y4630.00
G1 X4020.00 Y4873.00
G1 X4000.00 Y4905.00
G1 X3914.00 Y4852.00
G1 X3652.00 Y4661.00
G1 X3432.00 Y4575.00
G1 X3435.00 Y4629.00
G1 X3552.00 Y4856.00
G1 X3721.00 Y4931.00
G1 X3948.00 Y5016.00
G1 X4057.00 Y5053.00
G1 X4058.00 Y4882.00
G1 X4026.00 Y4655.00
G1 X3974.00 Y4553.00
G1 X3976.00 Y4473.00
G1 X4026.00 Y4485.00
G1 X4076.00 Y4580.00
G1 X4148.00 Y4730.00
G1 X4195.00 Y4815.00
G1 X4202.00 Y4732.00
G1 X4270.00 Y4471.00
G1 X4300.00 Y4375.00
G1 X4204.00 Y4086.00
G1 X3625.00 Y3440.00
G1 X3270.00 Y3003.00
G1 X3273.00 Y2856.00
G1 X3311.00 Y2869.00
G1 X3330.00 Y2921.00
G1 X3407.00 Y3119.00
G1 X3689.00 Y3393.00
G1 X3899.00 Y3565.00
G1 X3950.00 Y3644.00
G1 X3962.00 Y3655.00
G1 X4042.00 Y3712.00
G1 X4255.00 Y4022.00
G1 X4300.00 Y4074.00
G1 X4241.00 Y3825.00
G1 X3850.00 Y3327.00
G1 X3394.00 Y2805.00
G1 X3306.00 Y2380.00
G1 X3332.00 Y2133.00
G1 X3472.00 Y1879.00
G1 X3504.00 Y1876.00
G1 X3486.00 Y1988.00
G1 X3384.00 Y2241.00
G1 X3464.00 Y2778.00
G1 X3940.00 Y3310.00
G1 X4130.00 Y3507.00
G1 X4378.00 Y4087.00
G1 X4385.00 Y4165.00
G1 X4419.00 Y4091.00
G1 X4453.00 Y4018.00
G1 X4431.00 Y3938.00
G1 X4151.00 Y3428.00
G1 X4116.00 Y3390.00
G1 X4140.00 Y3365.00
G1 X4171.00 Y3342.00
G1 X4309.00 Y3512.00
G1 X4481.00 Y3848.00
G1 X4511.00 Y3920.00
G1 X4545.00 Y3884.00
G1 X4566.00 Y3826.00
G1 X4413.00 Y3564.00
G1 X4283.00 Y3382.00
G1 X4120.00 Y3023.00
G1 X4153.00 Y2990.00
G1 X4199.00 Y3053.00
G1 X4412.00 Y3433.00
G1 X4579.00 Y3682.00
G1 X4630.00 Y3770.00
G1 X4795.00 Y3524.00
G1 X4813.00 Y3493.00
G1 X4760.00 Y3395.00
G1 X4412.00 Y2966.00
G1 X4193.00 Y2870.00
G1 X4187.00 Y2930.00
G1 X4152.00 Y2930.00
G1 X4117.00 Y2930.00
G1 X4123.00 Y2862.00
G1 X4148.00 Y2736.00
G1 X4168.00 Y2678.00
G1 X4143.00 Y2641.00
G1 X4039.00 Y2420.00
G1 X4083.00 Y1936.00
G1 X4160.00 Y1898.00
G1 X4150.00 Y1981.00
G1 X4154.00 Y2517.00
G1 X4268.00 Y2512.00
G1 X4386.00 Y2362.00
G1 X4442.00 Y2300.00
G1 X4396.00 Y2207.00
G1 X4395.00 Y1678.00
G1 X4475.00 Y1664.00
G1 X4456.00 Y1738.00
G1 X4411.00 Y2032.00
G1 X4497.00 Y2230.00
G1 X4536.00 Y2192.00
G1 X4650.00 Y1698.00
G1 X4559.00 Y1515.00
G1 X4412.00 Y1050.00
G1 X4453.00 Y879.00
G1 X4606.00 Y754.00
G1 X4570.00 Y834.00
G1 X4644.00 Y1509.00
G1 X4747.00 Y1815.00
G1 X4609.00 Y2227.00
G1 X4560.00 Y2285.00
G1 X4636.00 Y2407.00
G1 X4754.00 Y2547.00
G1 X4791.00 Y2590.00
G1 X4864.00 Y2470.00
G1 X4945.00 Y2434.00
G1 X4939.00 Y2502.00
G1 X4878.00 Y2607.00
G1 X4838.00 Y2670.00
G1 X4858.00 Y2697.00
G1 X4946.00 Y2920.00
G1 X4964.00 Y3155.00
G1 X4909.00 Y3476.00
G1 X4919.00 Y3554.00
G1 X4984.00 Y3930.00
G1 X4946.00 Y4225.00
G1 X4885.00 Y4787.00
G1 X5009.00 Y5124.00
G1 X5043.00 Y5087.00
G1 X5069.00 Y5044.00
G1 X5039.00 Y4982.00
G1 X4957.00 Y4620.00
G1 X5056.00 Y4180.00
G1 X5106.00 Y3936.00
G1 X5118.00 Y3818.00
G1 X5151.00 Y3812.00
G1 X5174.00 Y3940.00
G1 X5174.00 Y4065.00
G1 X5117.00 Y4230.00
G1 X5045.00 Y4465.00
G1 X5045.00 Y4778.00
G1 X5108.00 Y4960.00
G1 X5148.00 Y4903.00
G1 X5181.00 Y4846.00
G1 X5160.00 Y4759.00
G1 X5140.00 Y4620.00
G1 X5276.00 Y4158.00
G1 X5291.00 Y4085.00
G1 X5220.00 Y3838.00
G1 X5101.00 Y3429.00
G1 X5071.00 Y2890.00
G1 X5119.00 Y2590.00
G1 X5045.00 Y2278.00
G1 X5015.00 Y2160.00
G1 X4990.00 Y2067.00
G1 X4950.00 Y1575.00
G1 X5040.00 Y1370.00
G1 X5140.00 Y1064.00
G1 X5080.00 Y867.00
G1 X5084.00 Y798.00
G1 X5169.00 Y864.00
G1 X5116.00 Y1389.00
G1 X4998.00 Y1776.00
G1 X5175.00 Y2220.00
G1 X5240.00 Y2315.00
G1 X5218.00 Y2339.00
G1 X5167.00 Y2319.00
G1 X5172.00 Y2410.00
G1 X5156.00 Y2840.00
G1 X5123.00 Y3247.00
G1 X5193.00 Y3467.00
G1 X5299.00 Y3840.00
G1 X5333.00 Y3994.00
G1 X5346.00 Y4032.00
G1 X5423.00 Y3926.00
G1 X5501.00 Y3821.00
G1 X5450.00 Y3733.00
G1 X5272.00 Y3095.00
G1 X5361.00 Y2733.00
G1 X5386.00 Y2641.00
G1 X5240.00 Y2404.00
G1 X5295.00 Y2380.00
G1 X5375.00 Y2492.00
G1 X5449.00 Y2584.00
G1 X5674.00 Y2315.00
G1 X5644.00 Y2254.00
G1 X5434.00 Y1742.00
G1 X5507.00 Y1322.00
G1 X5495.00 Y846.00
G1 X5472.00 Y752.00
G1 X5594.00 Y860.00
G1 X5580.00 Y1343.00
G1 X5525.00 Y1546.00
G1 X5627.00 Y2099.00
G1 X5730.00 Y2230.00
G1 X5815.00 Y2045.00
G1 X5774.00 Y1727.00
G1 X5785.00 Y1640.00
G1 X5896.00 Y1827.00
G1 X5822.00 Y2231.00
G1 X5786.00 Y2297.00
G1 X5814.00 Y2331.00
G1 X5892.00 Y2419.00
G1 X5942.00 Y2474.00
G1 X5961.00 Y2449.00
G1 X6015.00 Y2358.00
G1 X6065.00 Y2290.00
G1 X6110.00 Y2319.00
G1 X6009.00 Y2517.00
G1 X6013.00 Y2567.00
G1 X6126.00 Y3092.00
G1 X5782.00 Y3632.00
G1 X5668.00 Y3749.00
G1 X5747.00 Y3926.00
G1 X5825.00 Y4103.00
G1 X5832.00 Y4046.00
G1 X6074.00 Y3558.00
G1 X6198.00 Y3482.00
G1 X6163.00 Y3571.00
G1 X5975.00 Y3815.00
G1 X5910.00 Y4057.00
G1 X5910.00 Y4115.00
G1 X5936.00 Y4065.00
G1 X6029.00 Y3930.00
G1 X6061.00 Y3949.00
G1 X6084.00 Y3967.00
G1 X6043.00 Y4028.00
G1 X5933.00 Y4319.00
G1 X5958.00 Y4446.00
G1 X6005.00 Y4568.00
G1 X6033.00 Y4783.00
G1 X6038.00 Y4790.00
G1 X6126.00 Y4638.00
G1 X6234.00 Y4485.00
G1 X6242.00 Y4579.00
G1 X6188.00 Y4698.00
G1 X6182.00 Y5046.00
G1 X6228.00 Y5026.00
G1 X6297.00 Y5023.00
G1 X6238.00 Y5108.00
G1 X6180.00 Y5195.00
G1 X6184.00 Y5240.00
G1 X6256.00 Y5185.00
G1 X6523.00 Y5043.00
G1 X6540.00 Y5072.00
G1 X6478.00 Y5129.00
G1 X6295.00 Y5248.00
G1 X6173.00 Y5335.00
G1 X6164.00 Y5384.00
G1 X6157.00 Y5431.00
G1 X6229.00 Y5385.00
G1 X6321.00 Y5356.00
G1 X6340.00 Y5386.00
G1 X6268.00 Y5449.00
G1 X5969.00 Y5775.00
G1 X5870.00 Y6195.00
G1 X5797.00 Y6544.00
G1 X5762.00 Y6623.00
G1 X5791.00 Y6668.00
G1 X5820.00 Y6734.00
G1 X5850.00 Y6695.00
G1 X5916.00 Y6558.00
G1 X6051.00 Y6205.00
G1 X6264.00 Y5671.00
G1 X6650.00 Y5350.00
G1 X6690.00 Y5394.00
G1 X6599.00 Y5461.00
G1 X6319.00 Y5722.00
G1 X6165.00 Y6060.00
G1 X5975.00 Y6615.00
G1 X5851.00 Y6940.00
G1 X5863.00 Y6920.00
G1 X5909.00 Y6872.00
G1 X5936.00 Y6892.00
G1 X5974.00 Y7256.00
G1 X6009.00 Y7330.00
G1 X6055.00 Y7330.00
G1 X6102.00 Y7330.00
G1 X6077.00 Y7300.00
G1 X5986.00 Y6971.00
G1 X6203.00 Y6530.00
G1 X6379.00 Y6366.00
G1 X6550.00 Y6195.00
G1 X6600.00 Y6135.00
G1 X6660.00 Y6173.00
G1 X6411.00 Y6436.00
G1 X6135.00 Y6751.00
G1 X6060.00 Y7032.00
G1 X6078.00 Y7086.00
G1 X6157.00 Y7075.00
G1 X6218.00 Y7068.00
G1 X6236.00 Y6997.00
G1 X6404.00 Y6694.00
G1 X6592.00 Y6560.00
G1 X6625.00 Y6612.00
G1 X6564.00 Y6660.00
G1 X6361.00 Y6879.00
G1 X6303.00 Y7067.00
G1 X6406.00 Y7081.00
G1 X6687.00 Y7151.00
G1 X6770.00 Y7257.00
G1 X6814.00 Y7322.00
G1 X6907.00 Y7630.00
G1 X6885.00 Y7915.00
G1 X6619.00 Y8554.00
G1 X5936.00 Y9209.00
G1 X5385.00 Y9395.00
G1 X4965.00 Y9414.00
G1 X4816.00 Y8981.00
G1 X4791.00 Y8957.00
G1 X4753.00 Y8996.00
G1 X4714.00 Y9035.00
G1 X4780.00 Y9100.00
G1 X4919.00 Y9245.00
G1 X4997.00 Y9312.00
G1 X4965.00 Y9222.00
G1 X5115.00 Y9288.00
G1 X5070.00 Y9307.00
G1 X5158.00 Y9300.00
G1 X5478.00 Y9077.00
G1 X5510.00 Y9035.00
G1 X5434.00 Y8967.00
G1 X5236.00 Y9293.00
G1 X5239.00 Y9320.00
G1 X5346.00 Y9213.00
G1 X4538.00 Y8971.00
G1 X4015.00 Y8635.00
G1 X3647.00 Y8432.00
G1 X3667.00 Y8490.00
G1 X4011.00 Y8715.00
G1 X4701.00 Y9207.00
G1 X4858.00 Y9309.00
G1 X4870.00 Y9302.00
G1 X5481.00 Y9254.00
G1 X5850.00 Y8936.00
G1 X6350.00 Y8645.00
G1 X6538.00 Y8536.00
G1 X6610.00 Y8426.00
G1 X6542.00 Y8464.00
G1 X6314.00 Y8588.00
G1 X5494.00 Y9155.00
G1 X5375.00 Y9310.00
G1 X5429.00 Y9291.00
G1 X4595.00 Y9249.00
G1 X4650.00 Y9269.00
G1 X4656.00 Y9255.00
G1 X5624.00 Y9249.00
G1 X5576.00 Y9255.00
G1 X5614.00 Y9264.00
G1 X5118.00 Y9202.00
G1 X5042.00 Y9223.00
G1 X5104.00 Y9240.00
G1 X5180.00 Y9220.00
G1 X4565.00 Y9174.00
G1 X4484.00 Y9209.00
G1 X4547.00 Y9208.00
G1 X5708.00 Y9182.00
G1 X5678.00 Y9208.00
G1 X5740.00 Y9205.00
G1 X4490.00 Y9105.00
G1 X4370.00 Y9156.00
G1 X4443.00 Y9150.00
G1 X5835.00 Y9136.00
G1 X5738.00 Y9108.00
G1 X5772.00 Y9143.00
G1 X5840.00 Y9160.00
G1 X5062.00 Y9089.00
G1 X5002.00 Y9132.00
G1 X5116.00 Y9144.00
G1 X5225.00 Y9124.00
G1 X4409.00 Y9043.00
G1 X4366.00 Y9033.00
G1 X4230.00 Y9068.00
G1 X4254.00 Y9095.00
G1 X4314.00 Y9100.00
G1 X4383.00 Y9070.00
G1 X5993.00 Y9060.00
G1 X5911.00 Y9041.00
G1 X5829.00 Y9038.00
G1 X5861.00 Y9081.00
G1 X5985.00 Y9085.00
G1 X5218.00 Y8983.00
G1 X5118.00 Y8940.00
G1 X4942.00 Y9031.00
G1 X5032.00 Y9031.00
G1 X5200.00 Y9035.00
G1 X5282.00 Y9043.00
G1 X6406.00 Y8703.00
G1 X6388.00 Y8707.00
G1 X6218.00 Y8798.00
G1 X5933.00 Y8967.00
G1 X5977.00 Y8986.00
G1 X6045.00 Y9001.00
G1 X6149.00 Y8961.00
G1 X4288.00 Y8971.00
G1 X4000.00 Y8785.00
G1 X3852.00 Y8708.00
G1 X3815.00 Y8692.00
G1 X4139.00 Y9000.00
G1 X4216.00 Y8989.00
G1 X4742.00 Y8872.00
G1 X4724.00 Y8849.00
G1 X4657.00 Y8888.00
G1 X4589.00 Y8928.00
G1 X4621.00 Y8953.00
G1 X4652.00 Y8977.00
G1 X4704.00 Y8943.00
G1 X4757.00 Y8902.00
G1 X5643.00 Y8924.00
G1 X5575.00 Y8886.00
G1 X5506.00 Y8848.00
G1 X5489.00 Y8872.00
G1 X5470.00 Y8904.00
G1 X5570.00 Y8979.00
G1 X5610.00 Y8952.00
G1 X5113.00 Y8782.00
G1 X4987.00 Y8855.00
G1 X4872.00 Y8940.00
G1 X5020.00 Y8909.00
G1 X5123.00 Y8856.00
G1 X5154.00 Y8874.00
G1 X5255.00 Y8931.00
G1 X5325.00 Y8969.00
G1 X5345.00 Y8949.00
G1 X5365.00 Y8928.00
G1 X5345.00 Y8913.00
G1 X5043.00 Y8558.00
G1 X5072.00 Y8535.00
G1 X5036.00 Y8496.00
G1 X5000.00 Y8458.00
G1 X4928.00 Y8525.00
G1 X4781.00 Y8645.00
G1 X4483.00 Y8804.00
G1 X4492.00 Y8853.00
G1 X4523.00 Y8878.00
G1 X4584.00 Y8845.00
G1 X4752.00 Y8756.00
G1 X5118.00 Y8692.00
G1 X5168.00 Y8726.00
G1 X5312.00 Y8814.00
G1 X5405.00 Y8867.00
G1 X5423.00 Y8841.00
G1 X5424.00 Y8805.00
G1 X5170.00 Y8629.00
G1 X5120.00 Y8587.00
G1 X5088.00 Y8614.00
G1 X4828.00 Y8796.00
G1 X4791.00 Y8813.00
G1 X4807.00 Y8841.00
G1 X4824.00 Y8869.00
G1 X4890.00 Y8833.00
G1 X5036.00 Y8744.00
G1 X5767.00 Y8827.00
G1 X5647.00 Y8754.00
G1 X5313.00 Y8527.00
G1 X5241.00 Y8458.00
G1 X5204.00 Y8495.00
G1 X5168.00 Y8532.00
G1 X5196.00 Y8562.00
G1 X5586.00 Y8815.00
G1 X5703.00 Y8870.00
G1 X5741.00 Y8853.00
G1 X4373.00 Y8631.00
G1 X4359.00 Y8637.00
G1 X4375.00 Y8758.00
G1 X4404.00 Y8761.00
G1 X5880.00 Y8646.00
G1 X5841.00 Y8689.00
G1 X5846.00 Y8762.00
G1 X5810.00 Y8598.00
G1 X5747.00 Y8649.00
G1 X5713.00 Y8719.00
G1 X5784.00 Y8668.00
G1 X4281.00 Y8660.00
G1 X4260.00 Y8670.00
G1 X4264.00 Y8699.00
G1 X4300.00 Y8706.00
G1 X4429.00 Y8590.00
G1 X4445.00 Y8668.00
G1 X4488.00 Y8720.00
G1 X4512.00 Y8714.00
G1 X5957.00 Y8665.00
G1 X5930.00 Y8684.00
G1 X5974.00 Y8695.00
G1 X4486.00 Y8548.00
G1 X4554.00 Y8648.00
G1 X4610.00 Y8667.00
G1 X5742.00 Y8540.00
G1 X5616.00 Y8673.00
G1 X5699.00 Y8623.00
G1 X4455.00 Y8483.00
G1 X4590.00 Y8347.00
G1 X4540.00 Y8335.00
G1 X4489.00 Y8328.00
G1 X4407.00 Y8412.00
G1 X4173.00 Y8594.00
G1 X4153.00 Y8630.00
G1 X4221.00 Y8611.00
G1 X4720.00 Y8600.00
G1 X4558.00 Y8486.00
G1 X4611.00 Y8571.00
G1 X4701.00 Y8620.00
G1 X5674.00 Y8497.00
G1 X5637.00 Y8494.00
G1 X5571.00 Y8551.00
G1 X5526.00 Y8612.00
G1 X5628.00 Y8562.00
G1 X6089.00 Y8600.00
G1 X5862.00 Y8445.00
G1 X5790.00 Y8365.00
G1 X5699.00 Y8330.00
G1 X5641.00 Y8353.00
G1 X5991.00 Y8605.00
G1 X6098.00 Y8613.00
G1 X4379.00 Y8326.00
G1 X4248.00 Y8375.00
G1 X4091.00 Y8487.00
G1 X3991.00 Y8537.00
G1 X4042.00 Y8570.00
G1 X4116.00 Y8545.00
G1 X6265.00 Y8532.00
G1 X6235.00 Y8520.00
G1 X6152.00 Y8488.00
G1 X5989.00 Y8376.00
G1 X5890.00 Y8320.00
G1 X5845.00 Y8332.00
G1 X5920.00 Y8404.00
G1 X6085.00 Y8522.00
G1 X6185.00 Y8569.00
G1 X6230.00 Y8550.00
G1 X4787.00 Y8504.00
G1 X4703.00 Y8452.00
G1 X4620.00 Y8439.00
G1 X4785.00 Y8560.00
G1 X4808.00 Y8540.00
G1 X5607.00 Y8422.00
G1 X5553.00 Y8439.00
G1 X5461.00 Y8498.00
G1 X5431.00 Y8543.00
G1 X5519.00 Y8513.00
G1 X5603.00 Y8450.00
G1 X3831.00 Y8370.00
G1 X3851.00 Y8466.00
G1 X3898.00 Y8483.00
G1 X6412.00 Y8368.00
G1 X6340.00 Y8481.00
G1 X6379.00 Y8473.00
G1 X4953.00 Y8404.00
G1 X4935.00 Y8374.00
G1 X4913.00 Y8341.00
G1 X4676.00 Y8350.00
G1 X4714.00 Y8387.00
G1 X4808.00 Y8446.00
G1 X4860.00 Y8479.00
G1 X4909.00 Y8442.00
G1 X5419.00 Y8031.00
G1 X5492.00 Y7730.00
G1 X5495.00 Y7685.00
G1 X5459.00 Y7682.00
G1 X5410.00 Y7761.00
G1 X5310.00 Y8095.00
G1 X5117.00 Y8359.00
G1 X4945.00 Y8142.00
G1 X4821.00 Y7765.00
G1 X4815.00 Y7685.00
G1 X4775.00 Y7685.00
G1 X4735.00 Y7685.00
G1 X4738.00 Y7730.00
G1 X4857.00 Y8120.00
G1 X5058.00 Y8418.00
G1 X5113.00 Y8481.00
G1 X5143.00 Y8453.00
G1 X5240.00 Y8335.00
G1 X5560.00 Y8351.00
G1 X5448.00 Y8337.00
G1 X5313.00 Y8357.00
G1 X5321.00 Y8446.00
G1 X5353.00 Y8479.00
G1 X5404.00 Y8453.00
G1 X5508.00 Y8394.00
G1 X3969.00 Y8390.00
G1 X3904.00 Y8327.00
G1 X3892.00 Y8339.00
G1 X3929.00 Y8408.00
G1 X4004.00 Y8464.00
G1 X6271.00 Y8379.00
G1 X6243.00 Y8463.00
G1 X6302.00 Y8419.00
G1 X3728.00 Y8372.00
G1 X3723.00 Y8403.00
G1 X3758.00 Y8398.00
G1 X4081.00 Y8353.00
G1 X4032.00 Y8292.00
G1 X3997.00 Y8288.00
G1 X4025.00 Y8364.00
G1 X4100.00 Y8405.00
G1 X6255.00 Y8308.00
G1 X6233.00 Y8283.00
G1 X6170.00 Y8332.00
G1 X6130.00 Y8408.00
G1 X6207.00 Y8369.00
G1 X6498.00 Y8370.00
G1 X6470.00 Y8395.00
G1 X6510.00 Y8402.00
G1 X4092.00 Y8275.00
G1 X4126.00 Y8319.00
G1 X4164.00 Y8359.00
G1 X4187.00 Y8338.00
G1 X4210.00 Y8305.00
G1 X6022.00 Y8304.00
G1 X6040.00 Y8335.00
G1 X6064.00 Y8361.00
G1 X6101.00 Y8318.00
G1 X6136.00 Y8273.00
G1 X3837.00 Y8247.00
G1 X3911.00 Y8236.00
G1 X3893.00 Y8280.00
G1 X3860.00 Y8290.00
G1 X3866.00 Y8300.00
G1 X3914.00 Y8279.00
G1 X3860.00 Y8191.00
G1 X3800.00 Y8174.00
G1 X3629.00 Y8257.00
G1 X3578.00 Y8309.00
G1 X3725.00 Y8290.00
G1 X6632.00 Y8260.00
G1 X6442.00 Y8186.00
G1 X6415.00 Y8164.00
G1 X6355.00 Y8197.00
G1 X6321.00 Y8230.00
G1 X6456.00 Y8269.00
G1 X6677.00 Y8291.00
G1 X4680.00 Y8255.00
G1 X4642.00 Y8198.00
G1 X4605.00 Y8140.00
G1 X4485.00 Y8140.00
G1 X4060.00 Y8081.00
G1 X3431.00 Y7762.00
G1 X3390.00 Y7728.00
G1 X3390.00 Y7760.00
G1 X3615.00 Y7978.00
G1 X4490.00 Y8259.00
G1 X4642.00 Y8262.00
G1 X4816.00 Y8193.00
G1 X4716.00 Y7966.00
G1 X4684.00 Y7954.00
G1 X4333.00 Y7970.00
G1 X3517.00 Y7670.00
G1 X3400.00 Y7590.00
G1 X3467.00 Y7692.00
G1 X4155.00 Y8036.00
G1 X4457.00 Y8067.00
G1 X4650.00 Y8073.00
G1 X4676.00 Y8119.00
G1 X4806.00 Y8260.00
G1 X4850.00 Y8256.00
G1 X5200.00 Y8153.00
G1 X5154.00 Y8104.00
G1 X5109.00 Y8066.00
G1 X5070.00 Y8111.00
G1 X5030.00 Y8161.00
G1 X5114.00 Y8260.00
G1 X5163.00 Y8212.00
G1 X5550.00 Y8122.00
G1 X5580.00 Y8075.00
G1 X5781.00 Y8067.00
G1 X6045.00 Y8047.00
G1 X6631.00 Y7805.00
G1 X6830.00 Y7601.00
G1 X6817.00 Y7592.00
G1 X6483.00 Y7825.00
G1 X5900.00 Y7974.00
G1 X5548.00 Y7955.00
G1 X5505.00 Y8002.00
G1 X5390.00 Y8235.00
G1 X5424.00 Y8260.00
G1 X5498.00 Y8213.00
G1 X6365.00 Y8110.00
G1 X6764.00 Y7869.00
G1 X6840.00 Y7773.00
G1 X6835.00 Y7740.00
G1 X6754.00 Y7801.00
G1 X6210.00 Y8075.00
G1 X5759.00 Y8140.00
G1 X5623.00 Y8140.00
G1 X5586.00 Y8195.00
G1 X5550.00 Y8255.00
G1 X5830.00 Y8250.00
G1 X3712.00 Y8121.00
G1 X3648.00 Y8130.00
G1 X3558.00 Y8150.00
G1 X3516.00 Y8195.00
G1 X3657.00 Y8178.00
G1 X6684.00 Y8150.00
G1 X6596.00 Y8130.00
G1 X6510.00 Y8135.00
G1 X6627.00 Y8194.00
G1 X6721.00 Y8189.00
G1 X5048.00 Y7986.00
G1 X4966.00 Y8074.00
G1 X5026.00 Y8058.00
G1 X6686.00 Y8013.00
G1 X6620.00 Y8060.00
G1 X6684.00 Y8089.00
G1 X6697.00 Y8054.00
G1 X3574.00 Y8037.00
G1 X3530.00 Y8057.00
G1 X3558.00 Y8080.00
G1 X3600.00 Y8070.00
G1 X5224.00 Y8000.00
G1 X5187.00 Y7968.00
G1 X5172.00 Y7996.00
G1 X5191.00 Y8052.00
G1 X5258.00 Y8054.00
G1 X3450.00 Y7993.00
G1 X3456.00 Y8045.00
G1 X3472.00 Y8046.00
G1 X3478.00 Y7998.00
G1 X6795.00 Y7952.00
G1 X6770.00 Y7960.00
G1 X6754.00 Y7993.00
G1 X6760.00 Y8038.00
G1 X6788.00 Y8008.00
G1 X5000.00 Y7909.00
G1 X4952.00 Y7900.00
G1 X4924.00 Y7936.00
G1 X4930.00 Y7961.00
G1 X4975.00 Y7954.00
G1 X5282.00 Y7903.00
G1 X5223.00 Y7897.00
G1 X5248.00 Y7942.00
G1 X5304.00 Y7948.00
G1 X5203.00 Y7688.00
G1 X5113.00 Y7680.00
G1 X5027.00 Y7680.00
G1 X5033.00 Y7740.00
G1 X5071.00 Y7882.00
G1 X5103.00 Y7964.00
G1 X5123.00 Y7939.00
G1 X5166.00 Y7865.00
G1 X6484.00 Y7742.00
G1 X6543.00 Y7692.00
G1 X6364.00 Y7739.00
G1 X5875.00 Y7823.00
G1 X5672.00 Y7782.00
G1 X5675.00 Y7755.00
G1 X5875.00 Y7748.00
G1 X6170.00 Y7722.00
G1 X6265.00 Y7703.00
G1 X6210.00 Y7697.00
G1 X5582.00 Y7687.00
G1 X5553.00 Y7783.00
G1 X5549.00 Y7882.00
G1 X5775.00 Y7909.00
G1 X5927.00 Y7900.00
G1 X4686.00 Y7855.00
G1 X4674.00 Y7775.00
G1 X4352.00 Y7686.00
G1 X4015.00 Y7700.00
G1 X4000.00 Y7709.00
G1 X4100.00 Y7726.00
G1 X4364.00 Y7749.00
G1 X4563.00 Y7772.00
G1 X4560.00 Y7805.00
G1 X4360.00 Y7818.00
G1 X3890.00 Y7739.00
G1 X3680.00 Y7690.00
G1 X3763.00 Y7743.00
G1 X4240.00 Y7893.00
G1 X4640.00 Y7888.00
G1 X4945.00 Y7787.00
G1 X4893.00 Y7834.00
G1 X4948.00 Y7830.00
G1 X5291.00 Y7784.00
G1 X5262.00 Y7801.00
G1 X5290.00 Y7837.00
G1 X5335.00 Y7829.00
G1 X4960.00 Y7704.00
G1 X4924.00 Y7693.00
G1 X4883.00 Y7725.00
G1 X4934.00 Y7730.00
G1 X5320.00 Y7685.00
G1 X5303.00 Y7729.00
G1 X5350.00 Y7716.00
G1 X3888.00 Y7495.00
G1 X3894.00 Y7431.00
G1 X3865.00 Y7438.00
G1 X3810.00 Y7569.00
G1 X3843.00 Y7622.00
G1 X3884.00 Y7587.00
G1 X3754.00 Y7485.00
G1 X3766.00 Y7433.00
G1 X3701.00 Y7418.00
G1 X3622.00 Y7502.00
G1 X3741.00 Y7619.00
G1 X3743.00 Y7578.00
G1 X4036.00 Y7436.00
G1 X3971.00 Y7446.00
G1 X3945.00 Y7599.00
G1 X3984.00 Y7620.00
G1 X4017.00 Y7620.00
G1 X4024.00 Y7536.00
G1 X4184.00 Y7424.00
G1 X4149.00 Y7410.00
G1 X4100.00 Y7436.00
G1 X4097.00 Y7614.00
G1 X4135.00 Y7618.00
G1 X4165.00 Y7615.00
G1 X4172.00 Y7527.00
G1 X4335.00 Y7418.00
G1 X4309.00 Y7400.00
G1 X4239.00 Y7501.00
G1 X4262.00 Y7613.00
G1 X4323.00 Y7528.00
G1 X6084.00 Y7410.00
G1 X6051.00 Y7410.00
G1 X6057.00 Y7508.00
G1 X6074.00 Y7613.00
G1 X6115.00 Y7618.00
G1 X6145.00 Y7615.00
G1 X6143.00 Y7527.00
G1 X6264.00 Y7443.00
G1 X6225.00 Y7420.00
G1 X6200.00 Y7420.00
G1 X6206.00 Y7508.00
G1 X6249.00 Y7620.00
G1 X6285.00 Y7590.00
G1 X6365.00 Y7436.00
G1 X6340.00 Y7464.00
G1 X6350.00 Y7556.00
G1 X6350.00 Y7620.00
G1 X6385.00 Y7620.00
G1 X6420.00 Y7620.00
G1 X6420.00 Y7565.00
G1 X6585.00 Y7585.00
G1 X6610.00 Y7502.00
G1 X6528.00 Y7419.00
G1 X6465.00 Y7432.00
G1 X6470.00 Y7466.00
G1 X6482.00 Y7558.00
G1 X6498.00 Y7615.00
G1 X6536.00 Y7610.00
G1 X4454.00 Y7408.00
G1 X4441.00 Y7390.00
G1 X4390.00 Y7493.00
G1 X4409.00 Y7610.00
G1 X4436.00 Y7518.00
G1 X4566.00 Y7407.00
G1 X4554.00 Y7382.00
G1 X4502.00 Y7528.00
G1 X4522.00 Y7610.00
G1 X4553.00 Y7523.00
G1 X4676.00 Y7408.00
G1 X4634.00 Y7416.00
G1 X4630.00 Y7600.00
G1 X4651.00 Y7610.00
G1 X4663.00 Y7523.00
G1 X5081.00 Y7380.00
G1 X5026.00 Y7380.00
G1 X4960.00 Y7512.00
G1 X4960.00 Y7599.00
G1 X4988.00 Y7603.00
G1 X5045.00 Y7606.00
G1 X5075.00 Y7605.00
G1 X5078.00 Y7493.00
G1 X5261.00 Y7391.00
G1 X5156.00 Y7381.00
G1 X5147.00 Y7497.00
G1 X5159.00 Y7604.00
G1 X5262.00 Y7587.00
G1 X5383.00 Y7434.00
G1 X5352.00 Y7382.00
G1 X5330.00 Y7473.00
G1 X5324.00 Y7583.00
G1 X5337.00 Y7603.00
G1 X5388.00 Y7544.00
G1 X5459.00 Y7380.00
G1 X5444.00 Y7411.00
G1 X5450.00 Y7521.00
G1 X5504.00 Y7609.00
G1 X5507.00 Y7521.00
G1 X5571.00 Y7382.00
G1 X5555.00 Y7397.00
G1 X5567.00 Y7500.00
G1 X5600.00 Y7610.00
G1 X5619.00 Y7538.00
G1 X5709.00 Y7393.00
G1 X5678.00 Y7380.00
G1 X5665.00 Y7398.00
G1 X5678.00 Y7513.00
G1 X5682.00 Y7610.00
G1 X5711.00 Y7610.00
G1 X5740.00 Y7578.00
G1 X5798.00 Y7390.00
G1 X5784.00 Y7418.00
G1 X5797.00 Y7528.00
G1 X5828.00 Y7610.00
G1 X5853.00 Y7610.00
G1 X5847.00 Y7519.00
G1 X5969.00 Y7409.00
G1 X5927.00 Y7400.00
G1 X5904.00 Y7428.00
G1 X5915.00 Y7533.00
G1 X5922.00 Y7610.00
G1 X5961.00 Y7610.00
G1 X6000.00 Y7610.00
G1 X6000.00 Y7558.00
G1 X4786.00 Y7418.00
G1 X4772.00 Y7380.00
G1 X4730.00 Y7528.00
G1 X4755.00 Y7600.00
G1 X4780.00 Y7528.00
G1 X4888.00 Y7380.00
G1 X4842.00 Y7512.00
G1 X4837.00 Y7600.00
G1 X4871.00 Y7600.00
G1 X4905.00 Y7600.00
G1 X4905.00 Y7490.00
G1 X3563.00 Y7443.00
G1 X3552.00 Y7396.00
G1 X3546.00 Y7551.00
G1 X3558.00 Y7528.00
G1 X6685.00 Y7390.00
G1 X6661.00 Y7420.00
G1 X6668.00 Y7510.00
G1 X6688.00 Y7545.00
G1 X6775.00 Y7383.00
G1 X6750.00 Y7355.00
G1 X6757.00 Y7385.00
G1 X6765.00 Y7473.00
G1 X6767.00 Y7530.00
G1 X6785.00 Y7500.00
G1 X3448.00 Y7391.00
G1 X3454.00 Y7505.00
G1 X3471.00 Y7455.00
G1 X3481.00 Y7374.00
G1 X3841.00 Y7293.00
G1 X3693.00 Y7336.00
G1 X3970.00 Y7352.00
G1 X6550.00 Y7339.00
G1 X6435.00 Y7296.00
G1 X6270.00 Y7346.00
G1 X6321.00 Y7360.00
G1 X6468.00 Y7353.00
G1 X4377.00 Y7206.00
G1 X4345.00 Y7247.00
G1 X4318.00 Y7307.00
G1 X4322.00 Y7323.00
G1 X4365.00 Y7272.00
G1 X5876.00 Y7225.00
G1 X5860.00 Y7230.00
G1 X5910.00 Y7320.00
G1 X5912.00 Y7296.00
G1 X4531.00 Y7020.00
G1 X4484.00 Y6733.00
G1 X4460.00 Y7010.00
G1 X4442.00 Y7273.00
G1 X4430.00 Y7307.00
G1 X4526.00 Y7297.00
G1 X5794.00 Y7245.00
G1 X5774.00 Y7000.00
G1 X5730.00 Y6680.00
G1 X5700.00 Y7015.00
G1 X5700.00 Y7299.00
G1 X5723.00 Y7303.00
G1 X5810.00 Y7303.00
G1 X4644.00 Y6611.00
G1 X4601.00 Y6610.00
G1 X4585.00 Y6680.00
G1 X4600.00 Y7003.00
G1 X4600.00 Y7300.00
G1 X4640.00 Y7300.00
G1 X4680.00 Y7300.00
G1 X4680.00 Y6996.00
G1 X4757.00 Y6605.00
G1 X4731.00 Y6627.00
G1 X4748.00 Y6978.00
G1 X4751.00 Y7300.00
G1 X4796.00 Y7300.00
G1 X4840.00 Y7300.00
G1 X4840.00 Y7024.00
G1 X4893.00 Y6580.00
G1 X4840.00 Y6390.00
G1 X4694.00 Y6005.00
G1 X4665.00 Y5945.00
G1 X4656.00 Y5999.00
G1 X4658.00 Y6082.00
G1 X4654.00 Y6138.00
G1 X4686.00 Y6230.00
G1 X4730.00 Y6250.00
G1 X4690.00 Y6294.00
G1 X4650.00 Y6323.00
G1 X4709.00 Y6366.00
G1 X4760.00 Y6381.00
G1 X4720.00 Y6430.00
G1 X4680.00 Y6449.00
G1 X4737.00 Y6523.00
G1 X4866.00 Y6612.00
G1 X4910.00 Y7040.00
G1 X4921.00 Y7293.00
G1 X4928.00 Y6983.00
G1 X5072.00 Y6600.00
G1 X5032.00 Y6631.00
G1 X5000.00 Y6662.00
G1 X5000.00 Y6981.00
G1 X5000.00 Y7300.00
G1 X5040.00 Y7300.00
G1 X5080.00 Y7300.00
G1 X5080.00 Y6950.00
G1 X5235.00 Y6646.00
G1 X5201.00 Y6623.00
G1 X5159.00 Y6600.00
G1 X5150.00 Y6951.00
G1 X5150.00 Y7301.00
G1 X5193.00 Y7298.00
G1 X5235.00 Y7295.00
G1 X5235.00 Y6970.00
G1 X5396.00 Y6581.00
G1 X5511.00 Y6516.00
G1 X5544.00 Y6479.00
G1 X5516.00 Y6430.00
G1 X5481.00 Y6383.00
G1 X5535.00 Y6370.00
G1 X5571.00 Y6353.00
G1 X5540.00 Y6290.00
G1 X5505.00 Y6260.00
G1 X5545.00 Y6234.00
G1 X5588.00 Y6191.00
G1 X5574.00 Y6129.00
G1 X5570.00 Y6095.00
G1 X5576.00 Y6018.00
G1 X5557.00 Y5951.00
G1 X5429.00 Y6269.00
G1 X5355.00 Y6534.00
G1 X5310.00 Y6713.00
G1 X5310.00 Y7007.00
G1 X5320.00 Y7295.00
G1 X5330.00 Y7006.00
G1 X5502.00 Y6633.00
G1 X5466.00 Y6611.00
G1 X5402.00 Y6998.00
G1 X5399.00 Y7300.00
G1 X5438.00 Y7300.00
G1 X5478.00 Y7300.00
G1 X5482.00 Y6988.00
G1 X5657.00 Y6667.00
G1 X5680.00 Y6629.00
G1 X5644.00 Y6614.00
G1 X5594.00 Y6604.00
G1 X5566.00 Y6661.00
G1 X5550.00 Y7007.00
G1 X5550.00 Y7300.00
G1 X5589.00 Y7300.00
G1 X5629.00 Y7300.00
G1 X5632.00 Y7003.00
G1 X6666.00 Y7220.00
G1 X6631.00 Y7246.00
G1 X6657.00 Y7278.00
G1 X3567.00 Y7215.00
G1 X3572.00 Y7267.00
G1 X3620.00 Y7271.00
G1 X4153.00 Y7157.00
G1 X4084.00 Y7145.00
G1 X4022.00 Y7138.00
G1 X4011.00 Y7190.00
G1 X4000.00 Y7251.00
G1 X4105.00 Y7235.00
G1 X6224.00 Y7178.00
G1 X6218.00 Y7141.00
G1 X6171.00 Y7147.00
G1 X6102.00 Y7161.00
G1 X6095.00 Y7199.00
G1 X6192.00 Y7260.00
G1 X6230.00 Y7238.00
G1 X3671.00 Y7179.00
G1 X3668.00 Y7215.00
G1 X3700.00 Y7199.00
G1 X6478.00 Y7193.00
G1 X6359.00 Y7150.00
G1 X6290.00 Y7173.00
G1 X6322.00 Y7234.00
G1 X6408.00 Y7222.00
G1 X6535.00 Y7228.00
G1 X6561.00 Y7221.00
G1 X6574.00 Y7189.00
G1 X3871.00 Y7149.00
G1 X3760.00 Y7179.00
G1 X3788.00 Y7214.00
G1 X3855.00 Y7219.00
G1 X3936.00 Y7206.00
G1 X4616.00 Y6498.00
G1 X4579.00 Y6350.00
G1 X4384.00 Y5727.00
G1 X4195.00 Y5455.00
G1 X4150.00 Y5432.00
G1 X4215.00 Y5572.00
G1 X4435.00 Y6167.00
G1 X4487.00 Y6469.00
G1 X4521.00 Y6548.00
G1 X4530.00 Y6572.00
G1 X4561.00 Y6546.00
G1 X4607.00 Y6520.00
G1 X5800.00 Y6177.00
G1 X5842.00 Y5895.00
G1 X6052.00 Y5522.00
G1 X6080.00 Y5453.00
G1 X6080.00 Y5416.00
G1 X6043.00 Y5460.00
G1 X5755.00 Y5962.00
G1 X5615.00 Y6495.00
G1 X5653.00 Y6536.00
G1 X5705.00 Y6558.00
G1 X5743.00 Y6488.00
G1 X5156.00 Y6140.00
G1 X5152.00 Y6318.00
G1 X5169.00 Y6530.00
G1 X5195.00 Y6540.00
G1 X5215.00 Y6533.00
G1 X5080.00 Y6423.00
G1 X5089.00 Y6188.00
G1 X5119.00 Y6034.00
G1 X5128.00 Y5766.00
G1 X5116.00 Y5675.00
G1 X5103.00 Y5730.00
G1 X5080.00 Y6025.00
G1 X5024.00 Y6519.00
G1 X5034.00 Y6537.00
G1 X5066.00 Y6530.00
G1 X5492.00 Y5929.00
G1 X5542.00 Y5823.00
G1 X5502.00 Y5739.00
G1 X5462.00 Y5655.00
G1 X5420.00 Y5745.00
G1 X5355.00 Y5925.00
G1 X5315.00 Y6370.00
G1 X5339.00 Y6308.00
G1 X4802.00 Y5737.00
G1 X4766.00 Y5659.00
G1 X4748.00 Y5692.00
G1 X4710.00 Y5778.00
G1 X4690.00 Y5831.00
G1 X4731.00 Y5913.00
G1 X4890.00 Y6300.00
G1 X4915.00 Y6358.00
G1 X4910.00 Y6213.00
G1 X4864.00 Y5483.00
G1 X4826.00 Y5521.00
G1 X4808.00 Y5584.00
G1 X4869.00 Y5710.00
G1 X4982.00 Y6105.00
G1 X4995.00 Y6205.00
G1 X4998.00 Y6072.00
G1 X4972.00 Y5797.00
G1 X5371.00 Y5679.00
G1 X5394.00 Y5606.00
G1 X5404.00 Y5577.00
G1 X5394.00 Y5528.00
G1 X5360.00 Y5490.00
G1 X5286.00 Y5653.00
G1 X5230.00 Y6039.00
G1 X5234.00 Y6149.00
G1 X5255.00 Y6045.00
G1 X6011.00 Y5396.00
G1 X6100.00 Y5265.00
G1 X6100.00 Y5228.00
G1 X5998.00 Y5326.00
G1 X5782.00 Y5558.00
G1 X5633.00 Y5805.00
G1 X5620.00 Y5865.00
G1 X5641.00 Y5958.00
G1 X5653.00 Y6031.00
G1 X5700.00 Y5903.00
G1 X5775.00 Y5720.00
G1 X4620.00 Y5830.00
G1 X4570.00 Y5747.00
G1 X4263.00 Y5345.00
G1 X4130.00 Y5218.00
G1 X4130.00 Y5260.00
G1 X4218.00 Y5388.00
G1 X4453.00 Y5705.00
G1 X4561.00 Y5983.00
G1 X4573.00 Y6025.00
G1 X4582.00 Y5985.00
G1 X4606.00 Y5887.00
G1 X4707.00 Y5588.00
G1 X4642.00 Y5469.00
G1 X4312.00 Y5079.00
G1 X4499.00 Y5499.00
G1 X4600.00 Y5657.00
G1 X4648.00 Y5725.00
G1 X4677.00 Y5663.00
G1 X5688.00 Y5570.00
G1 X5817.00 Y5347.00
G1 X5927.00 Y5083.00
G1 X5627.00 Y5413.00
G1 X5536.00 Y5541.00
G1 X5510.00 Y5587.00
G1 X5542.00 Y5658.00
G1 X5582.00 Y5730.00
G1 X5601.00 Y5708.00
G1 X5083.00 Y5440.00
G1 X5045.00 Y5355.00
G1 X5001.00 Y5271.00
G1 X4952.00 Y5332.00
G1 X4908.00 Y5393.00
G1 X4948.00 Y5479.00
G1 X5031.00 Y5707.00
G1 X5061.00 Y5568.00
G1 X5266.00 Y5510.00
G1 X5295.00 Y5370.00
G1 X5258.00 Y5319.00
G1 X5230.00 Y5280.00
G1 X5185.00 Y5361.00
G1 X5147.00 Y5441.00
G1 X5164.00 Y5548.00
G1 X5180.00 Y5690.00
G1 X5209.00 Y5656.00
G1 X5714.00 Y5201.00
G1 X5946.00 Y4913.00
G1 X5906.00 Y4513.00
G1 X5865.00 Y4590.00
G1 X5809.00 Y4754.00
G1 X5770.00 Y4856.00
G1 X5795.00 Y4898.00
G1 X5803.00 Y4972.00
G1 X5750.00 Y4955.00
G1 X5728.00 Y4919.00
G1 X5699.00 Y4957.00
G1 X5695.00 Y5048.00
G1 X5711.00 Y5089.00
G1 X5654.00 Y5095.00
G1 X5599.00 Y5112.00
G1 X5578.00 Y5153.00
G1 X5601.00 Y5171.00
G1 X5614.00 Y5206.00
G1 X5551.00 Y5222.00
G1 X5533.00 Y5198.00
G1 X5467.00 Y5300.00
G1 X5400.00 Y5403.00
G1 X5420.00 Y5434.00
G1 X5452.00 Y5488.00
G1 X5465.00 Y5508.00
G1 X5545.00 Y5405.00
G1 X4820.00 Y5390.00
G1 X4773.00 Y5312.00
G1 X4711.00 Y5213.00
G1 X4695.00 Y5192.00
G1 X4673.00 Y5218.00
G1 X4631.00 Y5226.00
G1 X4635.00 Y5166.00
G1 X4659.00 Y5143.00
G1 X4634.00 Y5107.00
G1 X4581.00 Y5089.00
G1 X4523.00 Y5093.00
G1 X4533.00 Y5046.00
G1 X4532.00 Y4947.00
G1 X4496.00 Y4885.00
G1 X4472.00 Y4886.00
G1 X4438.00 Y4931.00
G1 X4422.00 Y4955.00
G1 X4398.00 Y4932.00
G1 X4375.00 Y4909.00
G1 X4412.00 Y4841.00
G1 X4450.00 Y4772.00
G1 X4419.00 Y4712.00
G1 X4364.00 Y4573.00
G1 X4342.00 Y4495.00
G1 X4326.00 Y4533.00
G1 X4278.00 Y4801.00
G1 X4612.00 Y5312.00
G1 X4722.00 Y5452.00
G1 X4757.00 Y5500.00
G1 X4789.00 Y5445.00
G1 X5166.00 Y5239.00
G1 X5151.00 Y5169.00
G1 X5107.00 Y5125.00
G1 X5071.00 Y5169.00
G1 X5047.00 Y5213.00
G1 X5076.00 Y5271.00
G1 X5111.00 Y5330.00
G1 X5133.00 Y5298.00
G1 X5670.00 Y4856.00
G1 X5564.00 Y4762.00
G1 X5467.00 Y4889.00
G1 X5386.00 Y5013.00
G1 X5414.00 Y5035.00
G1 X5418.00 Y5104.00
G1 X5375.00 Y5090.00
G1 X5346.00 Y5071.00
G1 X5270.00 Y5207.00
G1 X5359.00 Y5330.00
G1 X5426.00 Y5237.00
G1 X4963.00 Y5199.00
G1 X4917.00 Y5107.00
G1 X4798.00 Y4725.00
G1 X4855.00 Y4281.00
G1 X4916.00 Y3893.00
G1 X4852.00 Y3880.00
G1 X4792.00 Y3851.00
G1 X4863.00 Y3810.00
G1 X4912.00 Y3810.00
G1 X4905.00 Y3768.00
G1 X4851.00 Y3597.00
G1 X4813.00 Y3637.00
G1 X4716.00 Y3775.00
G1 X4655.00 Y3885.00
G1 X4667.00 Y4028.00
G1 X4609.00 Y4430.00
G1 X4563.00 Y4852.00
G1 X4870.00 Y5312.00
G1 X4919.00 Y5252.00
G1 X4200.00 Y4955.00
G1 X4166.00 Y4888.00
G1 X4133.00 Y4841.00
G1 X4127.00 Y4983.00
G1 X4121.00 Y5125.00
G1 X4208.00 Y5212.00
G1 X4298.00 Y5296.00
G1 X4274.00 Y5224.00
G1 X6096.00 Y4833.00
G1 X6063.00 Y4878.00
G1 X6016.00 Y5020.00
G1 X5929.00 Y5275.00
G1 X5920.00 Y5293.00
G1 X6011.00 Y5216.00
G1 X6102.00 Y5129.00
G1 X6101.00 Y4982.00
G1 X4041.00 Y5148.00
G1 X3703.00 Y5004.00
G1 X3814.00 Y5075.00
G1 X3987.00 Y5191.00
G1 X4053.00 Y5239.00
G1 X4055.00 Y5198.00
G1 X5290.00 Y5020.00
G1 X5228.00 Y4930.00
G1 X5184.00 Y4985.00
G1 X5148.00 Y5039.00
G1 X5180.00 Y5090.00
G1 X5215.00 Y5140.00
G1 X5254.00 Y5085.00
G1 X5429.00 Y4821.00
G1 X5480.00 Y4740.00
G1 X5433.00 Y4725.00
G1 X5363.00 Y4713.00
G1 X5305.00 Y4780.00
G1 X5269.00 Y4852.00
G1 X5301.00 Y4901.00
G1 X5339.00 Y4950.00
G1 X5361.00 Y4922.00
G1 X5824.00 Y4375.00
G1 X5694.00 Y3983.00
G1 X5602.00 Y3824.00
G1 X5623.00 Y3931.00
G1 X5616.00 Y4624.00
G1 X5590.00 Y4690.00
G1 X5619.00 Y4710.00
G1 X5676.00 Y4751.00
G1 X5709.00 Y4780.00
G1 X5747.00 Y4707.00
G1 X3360.00 Y4609.00
G1 X3348.00 Y4543.00
G1 X3134.00 Y4453.00
G1 X3323.00 Y4715.00
G1 X3390.00 Y4770.00
G1 X3379.00 Y4718.00
G1 X5337.00 Y4414.00
G1 X5322.00 Y4230.00
G1 X5268.00 Y4343.00
G1 X5224.00 Y4715.00
G1 X5232.00 Y4755.00
G1 X5256.00 Y4710.00
G1 X5306.00 Y4585.00
G1 X5605.00 Y4398.00
G1 X5614.00 Y4217.00
G1 X5415.00 Y4319.00
G1 X5416.00 Y4353.00
G1 X5500.00 Y4366.00
G1 X5583.00 Y4367.00
G1 X5579.00 Y4398.00
G1 X5490.00 Y4420.00
G1 X5410.00 Y4420.00
G1 X5410.00 Y4454.00
G1 X5447.00 Y4495.00
G1 X5520.00 Y4540.00
G1 X5411.00 Y4549.00
G1 X5382.00 Y4593.00
G1 X5375.00 Y4648.00
G1 X5433.00 Y4661.00
G1 X5496.00 Y4669.00
G1 X5522.00 Y4648.00
G1 X4585.00 Y4227.00
G1 X4593.00 Y3950.00
G1 X4400.00 Y4311.00
G1 X4400.00 Y4416.00
G1 X4470.00 Y4633.00
G1 X4523.00 Y4465.00
G1 X5600.00 Y4117.00
G1 X5533.00 Y3911.00
G1 X5439.00 Y4033.00
G1 X5401.00 Y4217.00
G1 X5410.00 Y4241.00
G1 X5463.00 Y4211.00
G1 X5558.00 Y4159.00
G1 X5547.00 Y3683.00
G1 X5444.00 Y3453.00
G1 X5464.00 Y3106.00
G1 X5490.00 Y3031.00
G1 X5452.00 Y3004.00
G1 X5388.00 Y2966.00
G1 X5361.00 Y2948.00
G1 X5353.00 Y2987.00
G1 X5346.00 Y3150.00
G1 X5508.00 Y3687.00
G1 X5566.00 Y3736.00
G1 X5834.00 Y3205.00
G1 X5973.00 Y2835.00
G1 X5997.00 Y2739.00
G1 X6010.00 Y2714.00
G1 X5941.00 Y2612.00
G1 X5638.00 Y2937.00
G1 X5504.00 Y3349.00
G1 X5592.00 Y3619.00
G1 X5625.00 Y3680.00
G1 X5662.00 Y3637.00
G1 X5705.00 Y3560.00
G1 X6060.00 Y3042.00
G1 X6051.00 Y2870.00
G1 X6028.00 Y2940.00
G1 X5920.00 Y3202.00
G1 X5790.00 Y3507.00
G1 X5869.00 Y3425.00
G1 X4892.00 Y3042.00
G1 X4878.00 Y2965.00
G1 X4787.00 Y2983.00
G1 X4665.00 Y2959.00
G1 X4715.00 Y2927.00
G1 X4813.00 Y2904.00
G1 X4823.00 Y2790.00
G1 X4799.00 Y2735.00
G1 X4772.00 Y2785.00
G1 X4715.00 Y2835.00
G1 X4714.00 Y2729.00
G1 X4750.00 Y2669.00
G1 X4722.00 Y2632.00
G1 X4490.00 Y2365.00
G1 X4260.00 Y2679.00
G1 X4519.00 Y2965.00
G1 X4802.00 Y3317.00
G1 X4851.00 Y3400.00
G1 X4874.00 Y3348.00
G1 X5774.00 Y2672.00
G1 X5890.00 Y2537.00
G1 X5812.00 Y2441.00
G1 X5735.00 Y2358.00
G1 X5645.00 Y2466.00
G1 X5500.00 Y2684.00
G1 X5549.00 Y2843.00
G1 X5475.00 Y2783.00
G1 X5448.00 Y2725.00
G1 X5419.00 Y2785.00
G1 X5408.00 Y2903.00
G1 X5522.00 Y2960.00
G1 X5593.00 Y2878.00
G0 X4667.00 Y4783.00
G1 X4684.00 Y4734.00
G1 X4730.00 Y4766.00
G1 X4702.00 Y4790.00
G1 X4667.00 Y4783.00
G0 X4647.00 Y4653.00
G1 X4665.00 Y4610.00
G1 X4720.00 Y4636.00
G1 X4687.00 Y4660.00
G1 X4647.00 Y4653.00
G0 X4676.00 Y4517.00
G1 X4702.00 Y4472.00
G1 X4735.00 Y4500.00
G1 X4676.00 Y4517.00
G0 X4712.00 Y4398.00
G1 X4754.00 Y4346.00
G1 X4745.00 Y4408.00
G1 X4712.00 Y4398.00
G0 X4773.00 Y4160.00
G1 X4775.00 Y4108.00
G1 X4818.00 Y4113.00
G1 X4824.00 Y4147.00
G1 X4773.00 Y4160.00
G0 X4803.00 Y4020.00
G1 X4831.00 Y3972.00
G1 X4865.00 Y4000.00
G1 X4803.00 Y4020.00
G0 X3648.00 Y9196.00
G1 X3655.00 Y9150.00
G1 X3728.00 Y9187.00
G1 X3693.00 Y9218.00
G1 X3648.00 Y9196.00
G0 X6504.00 Y9206.00
G1 X6557.00 Y9136.00
G1 X6574.00 Y9205.00
G1 X6504.00 Y9206.00
G0 X3303.00 Y7238.00
G1 X3282.00 Y7161.00
G1 X3235.00 Y7022.00
G1 X2812.00 Y6636.00
G1 X2730.00 Y6591.00
G1 X2818.00 Y6558.00
G1 X3196.00 Y6808.00
G1 X3345.00 Y7102.00
G1 X3334.00 Y7248.00
G1 X3303.00 Y7238.00
G0 X6883.00 Y7244.00
G1 X6944.00 Y6959.00
G1 X7393.00 Y6565.00
G1 X7506.00 Y6582.00
G1 X7437.00 Y6635.00
G1 X6965.00 Y7126.00
G1 X6915.00 Y7247.00
G1 X6883.00 Y7244.00
G0 X3490.00 Y6961.00
G1 X3544.00 Y6896.00
G1 X3560.00 Y6965.00
G1 X3490.00 Y6961.00
G0 X6672.00 Y6968.00
G1 X6707.00 Y6900.00
G1 X6740.00 Y6960.00
G1 X6672.00 Y6968.00
G0 X5960.00 Y6715.00
G1 X6035.00 Y6565.00
G1 X6153.00 Y6382.00
G1 X6214.00 Y6316.00
G1 X6242.00 Y6329.00
G1 X6157.00 Y6516.00
G1 X5981.00 Y6730.00
G1 X5960.00 Y6715.00
G0 X2506.00 Y6615.00
G1 X2560.00 Y6470.00
G1 X2614.00 Y6619.00
G1 X2506.00 Y6615.00
G1 X2546.00 Y6539.00
G1 X2561.00 Y6574.00
G1 X2570.00 Y6549.00
G0 X4126.00 Y6585.00
G1 X4005.00 Y6389.00
G1 X4024.00 Y6352.00
G1 X4076.00 Y6388.00
G1 X4196.00 Y6573.00
G1 X4205.00 Y6626.00
G1 X4179.00 Y6640.00
G1 X4126.00 Y6585.00
G0 X7613.00 Y6614.00
G1 X7593.00 Y6547.00
G1 X7755.00 Y6542.00
G1 X7613.00 Y6614.00
G1 X7658.00 Y6538.00
G1 X7670.00 Y6580.00
G1 X7685.00 Y6570.00
G0 X4400.00 Y6581.00
G1 X4410.00 Y6565.00
G1 X4420.00 Y6600.00
G1 X4400.00 Y6581.00
G0 X5810.00 Y6592.00
G1 X5842.00 Y6560.00
G1 X5840.00 Y6580.00
G1 X5810.00 Y6592.00
G0 X3334.00 Y6556.00
G1 X3357.00 Y6401.00
G1 X3456.00 Y6424.00
G1 X3439.00 Y6576.00
G1 X3334.00 Y6556.00
G1 X3384.00 Y6457.00
G1 X3377.00 Y6513.00
G1 X3420.00 Y6497.00
G0 X6779.00 Y6561.00
G1 X6774.00 Y6423.00
G1 X6840.00 Y6395.00
G1 X6906.00 Y6423.00
G1 X6840.00 Y6590.00
G1 X6779.00 Y6561.00
G1 X6841.00 Y6460.00
G1 X6815.00 Y6470.00
G1 X6841.00 Y6520.00
G1 X6860.00 Y6490.00
G0 X3198.00 Y6489.00
G1 X3225.00 Y6424.00
G1 X3234.00 Y6480.00
G1 X3198.00 Y6489.00
G0 X6993.00 Y6474.00
G1 X7023.00 Y6422.00
G1 X7056.00 Y6476.00
G1 X6993.00 Y6474.00
G0 X7152.00 Y6428.00
G1 X7155.00 Y6363.00
G1 X7210.00 Y6401.00
G1 X7171.00 Y6440.00
G1 X7152.00 Y6428.00
G0 X3039.00 Y6414.00
G1 X3068.00 Y6362.00
G1 X3096.00 Y6384.00
G1 X3095.00 Y6419.00
G1 X3039.00 Y6414.00
G0 X2899.00 Y6319.00
G1 X2908.00 Y6277.00
G1 X2944.00 Y6270.00
G1 X2948.00 Y6328.00
G1 X2899.00 Y6319.00
G0 X7284.00 Y6314.00
G1 X7283.00 Y6273.00
G1 X7339.00 Y6289.00
G1 X7334.00 Y6324.00
G1 X7284.00 Y6314.00
G0 X3950.00 Y6300.00
G1 X3981.00 Y6234.00
G1 X4036.00 Y6235.00
G1 X4003.00 Y6301.00
G1 X3950.00 Y6300.00
G0 X2283.00 Y6288.00
G1 X2280.00 Y6220.00
G1 X2360.00 Y6252.00
G1 X2283.00 Y6288.00
G0 X7874.00 Y6275.00
G1 X7874.00 Y6225.00
G1 X7960.00 Y6245.00
G1 X7874.00 Y6275.00
G0 X4244.00 Y6245.00
G1 X4274.00 Y6200.00
G1 X4305.00 Y6250.00
G1 X4244.00 Y6245.00
G0 X5924.00 Y6245.00
G1 X5974.00 Y6206.00
G1 X5998.00 Y6234.00
G1 X5924.00 Y6245.00
G0 X6223.00 Y6238.00
G1 X6219.00 Y6170.00
G1 X6298.00 Y6228.00
G1 X6223.00 Y6238.00
G0 X2773.00 Y6194.00
G1 X2811.00 Y6145.00
G1 X2835.00 Y6175.00
G1 X2807.00 Y6208.00
G1 X2773.00 Y6194.00
G0 X7400.00 Y6195.00
G1 X7453.00 Y6158.00
G1 X7460.00 Y6194.00
G1 X7400.00 Y6195.00
G0 X3899.00 Y6149.00
G1 X3914.00 Y6103.00
G1 X4000.00 Y6099.00
G1 X3983.00 Y6143.00
G1 X3899.00 Y6149.00
G0 X4224.00 Y6115.00
G1 X4259.00 Y6070.00
G1 X4293.00 Y6118.00
G1 X4224.00 Y6115.00
G0 X5950.00 Y6115.00
G1 X5985.00 Y6070.00
G1 X6020.00 Y6100.00
G1 X5991.00 Y6130.00
G1 X5950.00 Y6115.00
G0 X6267.00 Y6099.00
G1 X6285.00 Y5987.00
G1 X6311.00 Y5930.00
G1 X6341.00 Y5945.00
G1 X6370.00 Y5964.00
G1 X6342.00 Y6036.00
G1 X6267.00 Y6099.00
G0 X2687.00 Y6054.00
G1 X2701.00 Y6000.00
G1 X2748.00 Y6027.00
G1 X2720.00 Y6058.00
G1 X2687.00 Y6054.00
G0 X7492.00 Y6048.00
G1 X7495.00 Y6000.00
G1 X7553.00 Y6019.00
G1 X7492.00 Y6048.00
G0 X3426.00 Y5978.00
G1 X3376.00 Y5808.00
G1 X3436.00 Y5808.00
G1 X3454.00 Y5853.00
G1 X3496.00 Y5956.00
G1 X3484.00 Y6050.00
G1 X3426.00 Y5978.00
G0 X6732.00 Y6028.00
G1 X6739.00 Y5958.00
G1 X6788.00 Y5709.00
G1 X6808.00 Y5600.00
G1 X6863.00 Y5685.00
G1 X6857.00 Y5843.00
G1 X6732.00 Y6028.00
G0 X3876.00 Y5988.00
G1 X3880.00 Y5945.00
G1 X3938.00 Y5970.00
G1 X3876.00 Y5988.00
G0 X4200.00 Y5986.00
G1 X4252.00 Y5970.00
G1 X4229.00 Y6010.00
G1 X4200.00 Y5986.00
G0 X5975.00 Y6000.00
G1 X5992.00 Y5933.00
G1 X6043.00 Y5866.00
G1 X6057.00 Y5942.00
G1 X6003.00 Y6010.00
G1 X5975.00 Y6000.00
G0 X4156.00 Y5898.00
G1 X4160.00 Y5855.00
G1 X4191.00 Y5910.00
G1 X4156.00 Y5898.00
G0 X2625.00 Y5893.00
G1 X2644.00 Y5842.00
G1 X2680.00 Y5881.00
G1 X2625.00 Y5893.00
G0 X7555.00 Y5894.00
G1 X7572.00 Y5837.00
G1 X7620.00 Y5868.00
G1 X7555.00 Y5894.00
G0 X6382.00 Y5864.00
G1 X6360.00 Y5849.00
G1 X6379.00 Y5811.00
G1 X6415.00 Y5760.00
G1 X6450.00 Y5768.00
G1 X6445.00 Y5840.00
G1 X6382.00 Y5864.00
G0 X3778.00 Y5815.00
G1 X3780.00 Y5775.00
G1 X3835.00 Y5780.00
G1 X3835.00 Y5820.00
G1 X3778.00 Y5815.00
G0 X4113.00 Y5772.00
G1 X4113.00 Y5712.00
G1 X4144.00 Y5774.00
G1 X4113.00 Y5772.00
G0 X6084.00 Y5756.00
G1 X6082.00 Y5723.00
G1 X6138.00 Y5723.00
G1 X6084.00 Y5756.00
G0 X2602.00 Y5738.00
G1 X2642.00 Y5681.00
G1 X2625.00 Y5750.00
G1 X2602.00 Y5738.00
G0 X7582.00 Y5738.00
G1 X7624.00 Y5682.00
G1 X7624.00 Y5734.00
G1 X7582.00 Y5738.00
G0 X3370.00 Y5677.00
G1 X3424.00 Y5600.00
G1 X3446.00 Y5633.00
G1 X3440.00 Y5693.00
G1 X3405.00 Y5730.00
G1 X3370.00 Y5730.00
G1 X3370.00 Y5677.00
G0 X3637.00 Y5660.00
G1 X3190.00 Y5399.00
G1 X2826.00 Y5399.00
G1 X2671.00 Y5539.00
G1 X2597.00 Y5581.00
G1 X2633.00 Y5453.00
G1 X2814.00 Y5323.00
G1 X2839.00 Y5300.00
G1 X2752.00 Y5265.00
G1 X2392.00 Y4926.00
G1 X2325.00 Y4609.00
G1 X2370.00 Y4430.00
G1 X2400.00 Y4531.00
G1 X2579.00 Y5050.00
G1 X3042.00 Y5284.00
G1 X3555.00 Y5498.00
G1 X3750.00 Y5677.00
G1 X3700.00 Y5719.00
G1 X3637.00 Y5660.00
G0 X6502.00 Y5697.00
G1 X6480.00 Y5673.00
G1 X6546.00 Y5606.00
G1 X7140.00 Y5296.00
G1 X7445.00 Y5199.00
G1 X7821.00 Y4762.00
G1 X7830.00 Y4501.00
G1 X7896.00 Y4451.00
G1 X7914.00 Y4603.00
G1 X7883.00 Y4823.00
G1 X7727.00 Y5086.00
G1 X7449.00 Y5282.00
G1 X7390.00 Y5320.00
G1 X7457.00 Y5344.00
G1 X7605.00 Y5590.00
G1 X7548.00 Y5528.00
G1 X7210.00 Y5373.00
G1 X6842.00 Y5481.00
G1 X6625.00 Y5631.00
G1 X6528.00 Y5720.00
G1 X6502.00 Y5697.00
G0 X3704.00 Y5316.00
G1 X3722.00 Y5256.00
G1 X3774.00 Y5308.00
G1 X3704.00 Y5316.00
G0 X3206.00 Y5229.00
G1 X2779.00 Y4979.00
G1 X2742.00 Y4866.00
G1 X2809.00 Y4898.00
G1 X3035.00 Y5073.00
G1 X3328.00 Y5195.00
G1 X3311.00 Y5259.00
G1 X3206.00 Y5229.00
G0 X6540.00 Y5240.00
G1 X6605.00 Y5174.00
G1 X6604.00 Y5254.00
G1 X6540.00 Y5240.00
G0 X3546.00 Y5234.00
G1 X3570.00 Y5150.00
G1 X3620.00 Y5203.00
G1 X3575.00 Y5250.00
G1 X3546.00 Y5234.00
G0 X6787.00 Y5232.00
G1 X6805.00 Y5157.00
G1 X6860.00 Y4994.00
G1 X6910.00 Y4930.00
G1 X6905.00 Y5140.00
G1 X6813.00 Y5250.00
G1 X6787.00 Y5232.00
G0 X7027.00 Y5082.00
G1 X7010.00 Y5054.00
G1 X7070.00 Y5006.00
G1 X7295.00 Y4796.00
G1 X7336.00 Y4740.00
G1 X7390.00 Y4775.00
G1 X7105.00 Y5071.00
G1 X7027.00 Y5082.00
G0 X3255.00 Y4969.00
G1 X3055.00 Y4779.00
G1 X3060.00 Y4735.00
G1 X3172.00 Y4806.00
G1 X3306.00 Y4920.00
G1 X3358.00 Y5008.00
G1 X3255.00 Y4969.00
G0 X6376.00 Y4977.00
G1 X6393.00 Y4927.00
G1 X6660.00 Y4849.00
G1 X6828.00 Y4594.00
G1 X6869.00 Y4532.00
G1 X6903.00 Y4529.00
G1 X6897.00 Y4598.00
G1 X6876.00 Y4704.00
G1 X6870.00 Y4738.00
G1 X7082.00 Y4536.00
G1 X7187.00 Y4344.00
G1 X6713.00 Y4545.00
G1 X6308.00 Y4851.00
G1 X6236.00 Y4918.00
G1 X6255.00 Y4802.00
G1 X7033.00 Y4320.00
G1 X7213.00 Y4240.00
G1 X7234.00 Y4103.00
G1 X7206.00 Y3875.00
G1 X7182.00 Y3675.00
G1 X7274.00 Y3539.00
G1 X7270.00 Y3604.00
G1 X7274.00 Y3835.00
G1 X7306.00 Y3998.00
G1 X7318.00 Y4060.00
G1 X7372.00 Y4013.00
G1 X7445.00 Y3978.00
G1 X7470.00 Y4002.00
G1 X7390.00 Y4092.00
G1 X7326.00 Y4186.00
G1 X7585.00 Y3985.00
G1 X7770.00 Y3697.00
G1 X7826.00 Y3615.00
G1 X7858.00 Y3643.00
G1 X7715.00 Y3959.00
G1 X7362.00 Y4252.00
G1 X7280.00 Y4314.00
G1 X7247.00 Y4398.00
G1 X7076.00 Y4657.00
G1 X6553.00 Y4963.00
G1 X6376.00 Y4977.00
G0 X7440.00 Y4925.00
G1 X7462.00 Y4859.00
G1 X7508.00 Y4938.00
G1 X7440.00 Y4925.00
G0 X7396.00 Y4671.00
G1 X7393.00 Y4623.00
G1 X7453.00 Y4413.00
G1 X7495.00 Y4335.00
G1 X7528.00 Y4374.00
G1 X7478.00 Y4617.00
G1 X7396.00 Y4671.00
G0 X2964.00 Y4656.00
G1 X2987.00 Y4602.00
G1 X3019.00 Y4656.00
G1 X2964.00 Y4656.00
G0 X4115.00 Y4468.00
G1 X4080.00 Y4370.00
G1 X4055.00 Y4273.00
G1 X4084.00 Y4260.00
G1 X4161.00 Y4384.00
G1 X4165.00 Y4466.00
G1 X4115.00 Y4468.00
G0 X6462.00 Y4468.00
G1 X6504.00 Y4383.00
G1 X6515.00 Y4460.00
G1 X6462.00 Y4468.00
G0 X3767.00 Y4437.00
G1 X3636.00 Y4357.00
G1 X3423.00 Y4166.00
G1 X3452.00 Y4141.00
G1 X3541.00 Y4192.00
G1 X3728.00 Y4330.00
G1 X3857.00 Y4417.00
G1 X3821.00 Y4469.00
G1 X3767.00 Y4437.00
G0 X6080.00 Y4455.00
G1 X6084.00 Y4367.00
G1 X6148.00 Y4266.00
G1 X6154.00 Y4401.00
G1 X6115.00 Y4470.00
G1 X6080.00 Y4455.00
G0 X6269.00 Y4391.00
G1 X6246.00 Y4373.00
G1 X6272.00 Y4329.00
G1 X6449.00 Y4130.00
G1 X6484.00 Y4149.00
G1 X6433.00 Y4242.00
G1 X6332.00 Y4363.00
G1 X6296.00 Y4410.00
G1 X6269.00 Y4391.00
G0 X3840.00 Y4298.00
G1 X3703.00 Y4178.00
G1 X3636.00 Y4107.00
G1 X3826.00 Y4183.00
G1 X3980.00 Y4362.00
G1 X3937.00 Y4389.00
G1 X3840.00 Y4298.00
G0 X6610.00 Y4351.00
G1 X6627.00 Y4291.00
G1 X6674.00 Y4299.00
G1 X6694.00 Y4320.00
G1 X6670.00 Y4345.00
G1 X6610.00 Y4351.00
G0 X6756.00 Y4231.00
G1 X6764.00 Y4161.00
G1 X6814.00 Y4155.00
G1 X6822.00 Y4202.00
G1 X6756.00 Y4231.00
G0 X3966.00 Y4140.00
G1 X3627.00 Y3941.00
G1 X3463.00 Y3867.00
G1 X3465.00 Y3810.00
G1 X3582.00 Y3840.00
G1 X4018.00 Y4084.00
G1 X4064.00 Y4174.00
G1 X3966.00 Y4140.00
G0 X6173.00 Y4184.00
G1 X6190.00 Y4093.00
G1 X6266.00 Y4034.00
G1 X6257.00 Y4126.00
G1 X6173.00 Y4184.00
G0 X6860.00 Y4082.00
G1 X6838.00 Y4064.00
G1 X6865.00 Y3997.00
G1 X6939.00 Y3948.00
G1 X6960.00 Y3965.00
G1 X6934.00 Y4033.00
G1 X6895.00 Y4100.00
G1 X6860.00 Y4082.00
G0 X3340.00 Y4039.00
G1 X3313.00 Y3954.00
G1 X3334.00 Y3909.00
G1 X3400.00 Y3987.00
G1 X3405.00 Y4075.00
G1 X3340.00 Y4039.00
G0 X6531.00 Y4069.00
G1 X6508.00 Y4047.00
G1 X6561.00 Y3994.00
G1 X6672.00 Y3950.00
G1 X6629.00 Y4029.00
G1 X6561.00 Y4088.00
G1 X6531.00 Y4069.00
G0 X7461.00 Y3886.00
G1 X7471.00 Y3819.00
G1 X7490.00 Y3529.00
G1 X7385.00 Y3312.00
G1 X7341.00 Y3298.00
G1 X7234.00 Y3392.00
G1 X7117.00 Y3505.00
G1 X7004.00 Y3755.00
G1 X6930.00 Y3852.00
G1 X6926.00 Y3760.00
G1 X7023.00 Y3508.00
G1 X7262.00 Y3263.00
G1 X7310.00 Y3214.00
G1 X7275.00 Y3158.00
G1 X7156.00 Y2947.00
G1 X7100.00 Y2314.00
G1 X7147.00 Y1892.00
G1 X7171.00 Y2320.00
G1 X7198.00 Y2825.00
G1 X7336.00 Y3113.00
G1 X7371.00 Y3162.00
G1 X7406.00 Y3123.00
G1 X7527.00 Y2856.00
G1 X7516.00 Y2766.00
G1 X7525.00 Y2688.00
G1 X7602.00 Y2782.00
G1 X7597.00 Y2916.00
G1 X7470.00 Y3168.00
G1 X7419.00 Y3231.00
G1 X7453.00 Y3278.00
G1 X7580.00 Y3639.00
G1 X7491.00 Y3900.00
G1 X7461.00 Y3886.00
G0 X3890.00 Y3850.00
G1 X3688.00 Y3729.00
G1 X3377.00 Y3508.00
G1 X3375.00 Y3460.00
G1 X3401.00 Y3440.00
G1 X3476.00 Y3500.00
G1 X3785.00 Y3699.00
G1 X3945.00 Y3805.00
G1 X3984.00 Y3867.00
G1 X3890.00 Y3850.00
G0 X6740.00 Y3876.00
G1 X6753.00 Y3812.00
G1 X6781.00 Y3880.00
G1 X6740.00 Y3876.00
G0 X6102.00 Y3838.00
G1 X6090.00 Y3814.00
G1 X6495.00 Y3372.00
G1 X6777.00 Y3023.00
G1 X6804.00 Y2840.00
G1 X6676.00 Y2470.00
G1 X6525.00 Y2125.00
G1 X6545.00 Y2020.00
G1 X6585.00 Y2058.00
G1 X6745.00 Y2434.00
G1 X6843.00 Y3060.00
G1 X6485.00 Y3485.00
G1 X6197.00 Y3775.00
G1 X6102.00 Y3838.00
G0 X3072.00 Y3828.00
G1 X3060.00 Y3758.00
G1 X3043.00 Y3666.00
G1 X3077.00 Y3600.00
G1 X3137.00 Y3732.00
G1 X3107.00 Y3840.00
G1 X3072.00 Y3828.00
G0 X3270.00 Y3798.00
G1 X2987.00 Y3377.00
G1 X2691.00 Y3059.00
G1 X2632.00 Y2793.00
G1 X2693.00 Y2682.00
G1 X2722.00 Y2753.00
G1 X2725.00 Y2947.00
G1 X2891.00 Y3196.00
G1 X3061.00 Y3342.00
G1 X3318.00 Y3700.00
G1 X3331.00 Y3823.00
G1 X3270.00 Y3798.00
G0 X6352.00 Y3820.00
G1 X6340.00 Y3791.00
G1 X6498.00 Y3684.00
G1 X6753.00 Y3488.00
G1 X6875.00 Y3404.00
G1 X6900.00 Y3434.00
G1 X6623.00 Y3695.00
G1 X6374.00 Y3840.00
G1 X6352.00 Y3820.00
G0 X2430.00 Y3778.00
G1 X2393.00 Y3676.00
G1 X2396.00 Y3613.00
G1 X2460.00 Y3643.00
G1 X2498.00 Y3743.00
G1 X2505.00 Y3816.00
G1 X2430.00 Y3778.00
G0 X2327.00 Y3512.00
G1 X2371.00 Y3410.00
G1 X2420.00 Y3473.00
G1 X2327.00 Y3512.00
G0 X7832.00 Y3518.00
G1 X7831.00 Y3437.00
G1 X7869.00 Y3410.00
G1 X7930.00 Y3475.00
G1 X7832.00 Y3518.00
G0 X3050.00 Y3234.00
G1 X3006.00 Y3139.00
G1 X3079.00 Y3153.00
G1 X3134.00 Y3219.00
G1 X3158.00 Y3298.00
G1 X3050.00 Y3234.00
G0 X6135.00 Y3291.00
G1 X6161.00 Y3240.00
G1 X6189.00 Y3293.00
G1 X6135.00 Y3291.00
G0 X4062.00 Y3288.00
G1 X4074.00 Y3232.00
G1 X4120.00 Y3260.00
G1 X4085.00 Y3300.00
G1 X4062.00 Y3288.00
G0 X6350.00 Y3205.00
G1 X6390.00 Y3113.00
G1 X6480.00 Y3075.00
G1 X6430.00 Y3178.00
G1 X6350.00 Y3205.00
G0 X6222.00 Y3148.00
G1 X6259.00 Y3090.00
G1 X6270.00 Y3141.00
G1 X6222.00 Y3148.00
G0 X3985.00 Y3129.00
G1 X3996.00 Y3093.00
G1 X4045.00 Y3096.00
G1 X4023.00 Y3148.00
G1 X3985.00 Y3129.00
G0 X2932.00 Y3068.00
G1 X2949.00 Y2997.00
G1 X3036.00 Y2815.00
G1 X3059.00 Y2331.00
G1 X3083.00 Y1896.00
G1 X3118.00 Y1896.00
G1 X3134.00 Y2321.00
G1 X3069.00 Y2933.00
G1 X2932.00 Y3068.00
G0 X4258.00 Y3016.00
G1 X4315.00 Y2980.00
G1 X4315.00 Y3020.00
G1 X4258.00 Y3016.00
G0 X6285.00 Y2994.00
G1 X6305.00 Y2945.00
G1 X6338.00 Y2969.00
G1 X6285.00 Y2994.00
G0 X3956.00 Y2984.00
G1 X3996.00 Y2940.00
G1 X4020.00 Y2970.00
G1 X3991.00 Y3000.00
G1 X3956.00 Y2984.00
G0 X3987.00 Y2854.00
G1 X4001.00 Y2795.00
G1 X4038.00 Y2831.00
G1 X3987.00 Y2854.00
G0 X6300.00 Y2829.00
G1 X6331.00 Y2780.00
G1 X6354.00 Y2834.00
G1 X6300.00 Y2829.00
G0 X3860.00 Y2764.00
G1 X3866.00 Y2729.00
G1 X3924.00 Y2737.00
G1 X3860.00 Y2764.00
G0 X3977.00 Y2640.00
G1 X3803.00 Y2136.00
G1 X3861.00 Y2221.00
G1 X4026.00 Y2592.00
G1 X4080.00 Y2672.00
G1 X4049.00 Y2710.00
G1 X3977.00 Y2640.00
G0 X6170.00 Y2685.00
G1 X6187.00 Y2632.00
G1 X6219.00 Y2686.00
G1 X6170.00 Y2685.00
G0 X3752.00 Y2668.00
G1 X3740.00 Y2645.00
G1 X3794.00 Y2606.00
G1 X3775.00 Y2680.00
G1 X3752.00 Y2668.00
G0 X6272.00 Y2578.00
G1 X6280.00 Y2525.00
G1 X6328.00 Y2564.00
G1 X6272.00 Y2578.00
G0 X3664.00 Y2526.00
G1 X3692.00 Y2472.00
G1 X3720.00 Y2525.00
G1 X3664.00 Y2526.00
G0 X6354.00 Y2423.00
G1 X6424.00 Y2405.00
G1 X6389.00 Y2450.00
G1 X6354.00 Y2423.00
G0 X2735.00 Y2356.00
G1 X2801.00 Y2296.00
G1 X2804.00 Y2364.00
G1 X2735.00 Y2356.00
G0 X7422.00 Y2368.00
G1 X7431.00 Y2289.00
G1 X7500.00 Y2329.00
G1 X7422.00 Y2368.00
G0 X3555.00 Y2261.00
G1 X3560.00 Y2245.00
G1 X3570.00 Y2254.00
G1 X3555.00 Y2261.00
G0 X6084.00 Y2209.00
G1 X6074.00 Y2056.00
G1 X6069.00 Y1890.00
G1 X6097.00 Y1862.00
G1 X6139.00 Y1897.00
G1 X6148.00 Y2155.00
G1 X6113.00 Y2218.00
G1 X6084.00 Y2209.00
G0 X6520.00 Y1925.00
G1 X6602.00 Y1585.00
G1 X6691.00 Y1554.00
G1 X6681.00 Y1609.00
G1 X6585.00 Y1903.00
G1 X6556.00 Y1940.00
G1 X6520.00 Y1925.00
G0 X3806.00 Y1848.00
G1 X3808.00 Y1787.00
G1 X3886.00 Y1795.00
G1 X3886.00 Y1845.00
G1 X3806.00 Y1848.00
G0 X3043.00 Y1774.00
G1 X3041.00 Y1722.00
G1 X3114.00 Y1693.00
G1 X3082.00 Y1800.00
G1 X3043.00 Y1774.00
G0 X7107.00 Y1782.00
G1 X7090.00 Y1742.00
G1 X7145.00 Y1680.00
G1 X7200.00 Y1744.00
G1 X7139.00 Y1800.00
G1 X7107.00 Y1782.00
G0 X6066.00 Y1715.00
G1 X6069.00 Y1695.00
G1 X6084.00 Y1705.00
G1 X6081.00 Y1725.00
G1 X6066.00 Y1715.00
G0 X4181.00 Y1501.00
G1 X4176.00 Y1432.00
G1 X4250.00 Y1430.00
G1 X4258.00 Y1492.00
G1 X4181.00 Y1501.00
G0 X5976.00 Y1498.00
G1 X5978.00 Y1427.00
G1 X6054.00 Y1432.00
G1 X6050.00 Y1500.00
G1 X5976.00 Y1498.00
G0 X3814.00 Y1195.00
G1 X3814.00 Y1145.00
G1 X3902.00 Y1195.00
G1 X3860.00 Y1220.00
G1 X3814.00 Y1195.00
G0 X6332.00 Y1208.00
G1 X6345.00 Y1124.00
G1 X6394.00 Y1124.00
G1 X6414.00 Y1201.00
G1 X6332.00 Y1208.00
G0 X5806.00 Y1044.00
G1 X5835.00 Y960.00
G1 X5880.00 Y1006.00
G1 X5835.00 Y1060.00
G1 X5806.00 Y1044.00
M2 ; End of program
